;FLAVOR:Marlin
;TIME:6401
;Filament used: 2.8407m
;Layer height: 0.2
;MINX:74.147
;MINY:91.251
;MINZ:0.2
;MAXX:145.843
;MAXY:128.749
;MAXZ:45
;Generated with Cura_SteamEngine main
M82 ;absolute extrusion mode
; Ender 3 Custom Start G-code
G92 E0 ; Reset Extruder
G28 ; Home all axes
M104 S175 ; Start heating up the nozzle most of the way
M190 S60 ; Start heating the bed, wait until target temperature reached
M109 S195.0 ; Finish heating the nozzle
G1 Z2.0 F3000 ; Move Z Axis up little to prevent scratching of Heat Bed
G1 X0.1 Y20 Z0.3 F5000.0 ; Move to start position
G1 X0.1 Y200.0 Z0.3 F1500.0 E15 ; Draw the first line
G1 X0.4 Y200.0 Z0.3 F5000.0 ; Move to side a little
G1 X0.4 Y20 Z0.3 F1500.0 E30 ; Draw the second line
G92 E0 ; Reset Extruder
G1 Z2.0 F3000 ; Move Z Axis up little to prevent scratching of Heat Bed
G1 X5 Y20 Z0.3 F5000.0 ; Move over to prevent blob squish
G92 E0
G92 E0
G1 F1500 E-6.5
;LAYER_COUNT:225
;LAYER:0
M107
G0 F6000 X78.679 Y99.882 Z0.2
G0 X74.15 Y109.558
;TYPE:SKIRT
G1 F1500 E0
G1 F1200 X74.163 Y108.741 E0.02718
G1 X74.218 Y107.804 E0.0584
G1 X74.353 Y106.876 E0.08959
G1 X74.567 Y105.963 E0.12078
G1 X74.858 Y105.072 E0.15195
G1 X75.105 Y104.465 E0.17375
G1 X75.207 Y104.235 E0.18212
G1 X75.624 Y103.394 E0.21334
G1 X76.11 Y102.592 E0.24453
G1 X76.663 Y101.835 E0.27571
G1 X77.279 Y101.127 E0.30692
G1 X77.953 Y100.475 E0.33811
G1 X78.679 Y99.882 E0.36929
G1 X79.145 Y99.552 E0.38828
G1 X79.405 Y99.378 E0.39869
G1 X80.206 Y98.89 E0.42988
G1 X81.046 Y98.472 E0.46109
G1 X81.918 Y98.128 E0.49227
G1 X82.385 Y97.977 E0.50859
G1 X84.918 Y97.223 E0.59649
G1 X87.311 Y96.437 E0.68027
G1 X89.656 Y95.592 E0.76317
G1 X91.991 Y94.674 E0.84662
G1 X94.317 Y93.685 E0.93069
G1 X97.347 Y92.28 E1.04177
G1 X98.214 Y91.922 E1.07297
G1 X99.108 Y91.64 E1.10415
G1 X100.023 Y91.434 E1.13534
G1 X100.952 Y91.307 E1.16653
G1 X101.631 Y91.265 E1.18916
G1 X102.256 Y91.251 E1.20995
G1 X104.358 Y91.251 E1.27986
G1 X105.824 Y91.272 E1.32863
G1 X108.638 Y91.269 E1.42222
G1 X109.78 Y91.251 E1.46021
G1 X113.196 Y91.251 E1.57382
G1 X115.725 Y91.292 E1.65795
G1 X118.28 Y91.287 E1.74293
G1 X119.958 Y91.251 E1.79875
G1 X122.497 Y91.251 E1.8832
G1 X123.201 Y91.262 E1.90662
G1 X124.137 Y91.317 E1.9378
G1 X125.065 Y91.451 E1.96899
G1 X125.979 Y91.664 E2.0002
G1 X126.871 Y91.954 E2.0314
G1 X127.735 Y92.318 E2.06258
G1 X128.667 Y92.816 E2.09773
G1 X131.16 Y94.304 E2.19429
G1 X133.346 Y95.524 E2.27756
G1 X135.569 Y96.684 E2.36096
G1 X136.754 Y97.26 E2.40478
G1 X138.011 Y97.884 E2.45145
G1 X138.833 Y98.337 E2.48267
G1 X139.488 Y98.768 E2.50875
G1 X140.019 Y99.145 E2.53041
G1 X140.76 Y99.72 E2.56161
G1 X141.524 Y100.432 E2.59634
G1 X141.887 Y100.804 E2.61363
G1 X142.513 Y101.502 E2.64481
G1 X142.955 Y102.078 E2.66896
G1 X143.294 Y102.551 E2.68832
G1 X143.807 Y103.336 E2.71951
G1 X144.144 Y103.945 E2.74266
G1 X144.271 Y104.193 E2.75192
G1 X144.568 Y104.811 E2.77473
G1 X144.93 Y105.676 E2.80592
G1 X145.173 Y106.412 E2.83169
G1 X145.337 Y106.975 E2.8512
G1 X145.561 Y107.885 E2.88237
G1 X145.665 Y108.495 E2.90295
G1 X145.748 Y109.132 E2.92432
G1 X145.787 Y109.51 E2.93696
G1 X145.843 Y110.446 E2.96814
G1 X145.83 Y111.219 E2.99386
G1 X145.799 Y111.806 E3.01341
G1 X145.709 Y112.74 E3.04462
G1 X145.597 Y113.402 E3.06695
G1 X145.458 Y114.044 E3.08879
G1 X145.374 Y114.39 E3.10064
G1 X145.115 Y115.291 E3.13182
G1 X144.859 Y115.978 E3.1562
G1 X144.63 Y116.535 E3.17623
G1 X144.236 Y117.386 E3.20742
G1 X143.777 Y118.192 E3.23827
G1 X143.475 Y118.674 E3.25719
G1 X142.944 Y119.447 E3.28838
G1 X142.392 Y120.124 E3.31744
G1 X142 Y120.567 E3.33711
G1 X141.349 Y121.242 E3.3683
G1 X140.657 Y121.848 E3.3989
G1 X140.217 Y122.202 E3.41768
G1 X139.462 Y122.758 E3.44886
G1 X138.927 Y123.096 E3.46991
G1 X138.672 Y123.247 E3.47977
G1 X138.005 Y123.616 E3.50512
G1 X137.161 Y124.025 E3.53632
G1 X136.664 Y124.226 E3.55415
G1 X136.054 Y124.447 E3.57573
G1 X135.722 Y124.558 E3.58737
G1 X134.555 Y124.878 E3.62762
G1 X133.366 Y125.134 E3.66807
G1 X132.687 Y125.271 E3.69111
G1 X130.208 Y125.845 E3.77574
G1 X127.787 Y126.479 E3.85898
G1 X125.361 Y127.186 E3.94303
G1 X122.727 Y128.037 E4.03509
G1 X121.823 Y128.287 E4.06629
G1 X121.313 Y128.392 E4.08361
G1 X120.559 Y128.529 E4.10909
G1 X119.941 Y128.626 E4.1299
G1 X118.687 Y128.735 E4.17177
G1 X118.058 Y128.749 E4.19269
G1 X104.901 Y128.749 E4.6303
G1 X104.292 Y128.74 E4.65055
G1 X102.994 Y128.644 E4.69384
G1 X102.218 Y128.54 E4.71988
G1 X101.61 Y128.443 E4.74036
G1 X100.693 Y128.247 E4.77155
G1 X100.085 Y128.071 E4.7926
G1 X99.179 Y127.78 E4.82425
G1 X98.309 Y127.489 E4.85476
G1 X95.878 Y126.748 E4.93929
G1 X93.488 Y126.093 E5.02172
G1 X91.017 Y125.491 E5.1063
G1 X89.492 Y125.171 E5.15813
G1 X88.118 Y124.87 E5.20491
G1 X87.073 Y124.587 E5.24092
G1 X86.464 Y124.38 E5.26232
G1 X85.435 Y123.999 E5.29881
G1 X84.022 Y123.454 E5.34918
G1 X83.052 Y123.112 E5.38339
G1 X81.614 Y122.591 E5.43426
G1 X80.747 Y122.234 E5.46545
G1 X79.913 Y121.805 E5.49664
G1 X79.119 Y121.306 E5.52783
G1 X78.37 Y120.741 E5.55904
G1 X77.672 Y120.115 E5.59022
G1 X77.03 Y119.431 E5.62142
G1 X76.448 Y118.696 E5.65261
G1 X75.908 Y117.874 E5.68532
G1 X75.714 Y117.548 E5.69793
G1 X75.269 Y116.723 E5.72911
G1 X74.896 Y115.862 E5.76032
G1 X74.598 Y114.973 E5.7915
G1 X74.377 Y114.062 E5.82268
G1 X74.234 Y113.135 E5.85388
G1 X74.169 Y112.129 E5.88741
G1 X74.147 Y110.828 E5.93069
G1 X74.15 Y109.558 E5.97293
G0 F6000 X74.547 Y110.829
G1 F1200 X74.551 Y109.407 E6.02022
G1 X74.562 Y108.747 E6.04218
G1 X74.618 Y107.828 E6.0728
G1 X74.753 Y106.918 E6.1034
G1 X74.966 Y106.022 E6.13403
G1 X75.256 Y105.148 E6.16466
G1 X75.573 Y104.397 E6.19177
G1 X75.983 Y103.572 E6.22241
G1 X76.462 Y102.786 E6.25303
G1 X77.008 Y102.045 E6.28364
G1 X77.616 Y101.354 E6.31425
G1 X78.282 Y100.718 E6.34488
G1 X79.368 Y99.885 E6.39041
G1 X79.628 Y99.711 E6.40081
G1 X80.414 Y99.232 E6.43143
G1 X81.239 Y98.824 E6.46204
G1 X82.499 Y98.36 E6.5067
G1 X85.052 Y97.6 E6.59529
G1 X87.424 Y96.821 E6.67833
G1 X89.801 Y95.964 E6.76237
G1 X92.157 Y95.038 E6.84657
G1 X94.476 Y94.052 E6.93038
G1 X97.515 Y92.643 E7.04179
G1 X98.366 Y92.292 E7.07241
G1 X99.245 Y92.017 E7.10304
G1 X100.144 Y91.819 E7.13366
G1 X101.057 Y91.7 E7.16428
G1 X101.643 Y91.665 E7.18381
G1 X102.257 Y91.651 E7.20424
G1 X104.352 Y91.651 E7.27392
G1 X105.819 Y91.672 E7.32271
G1 X108.645 Y91.669 E7.41671
G1 X109.786 Y91.651 E7.45466
G1 X113.19 Y91.651 E7.56788
G1 X115.715 Y91.692 E7.65187
G1 X118.29 Y91.687 E7.73752
G1 X119.959 Y91.651 E7.79304
G1 X122.491 Y91.651 E7.87726
G1 X123.195 Y91.662 E7.90067
G1 X124.114 Y91.717 E7.9313
G1 X125.025 Y91.851 E7.96192
G1 X125.92 Y92.063 E7.99251
G1 X126.794 Y92.352 E8.02313
G1 X127.64 Y92.716 E8.05376
G1 X128.462 Y93.159 E8.08482
G1 X130.966 Y94.654 E8.18182
G1 X133.173 Y95.885 E8.26587
G1 X135.388 Y97.042 E8.34899
G1 X136.488 Y97.575 E8.38964
G1 X137.833 Y98.243 E8.43959
G1 X138.639 Y98.687 E8.47019
G1 X139.256 Y99.094 E8.49478
G1 X139.787 Y99.471 E8.51644
G1 X140.514 Y100.036 E8.54706
G1 X141.238 Y100.711 E8.57998
G1 X141.601 Y101.083 E8.59727
G1 X142.214 Y101.769 E8.62787
G1 X142.63 Y102.311 E8.6506
G1 X142.969 Y102.784 E8.66995
G1 X143.472 Y103.555 E8.70057
G1 X143.788 Y104.127 E8.7223
G1 X143.915 Y104.375 E8.73157
G1 X144.206 Y104.981 E8.75393
G1 X144.561 Y105.831 E8.78457
G1 X144.789 Y106.523 E8.8088
G1 X144.953 Y107.086 E8.8283
G1 X145.172 Y107.981 E8.85895
G1 X145.269 Y108.552 E8.87821
G1 X145.35 Y109.173 E8.89904
G1 X145.389 Y109.551 E8.91168
G1 X145.444 Y110.47 E8.9423
G1 X145.43 Y111.198 E8.96652
G1 X145.399 Y111.785 E8.98607
G1 X145.311 Y112.701 E9.01668
G1 X145.205 Y113.323 E9.03766
G1 X145.07 Y113.95 E9.059
G1 X144.986 Y114.296 E9.07084
G1 X144.73 Y115.18 E9.10145
G1 X144.489 Y115.826 E9.12438
G1 X144.26 Y116.383 E9.14441
G1 X143.873 Y117.218 E9.17502
G1 X143.438 Y117.98 E9.20421
G1 X143.136 Y118.462 E9.22312
G1 X142.614 Y119.22 E9.25373
G1 X142.092 Y119.858 E9.28115
G1 X141.7 Y120.301 E9.30083
G1 X141.061 Y120.964 E9.33145
G1 X140.407 Y121.536 E9.36035
G1 X139.967 Y121.89 E9.37913
G1 X139.225 Y122.435 E9.40975
G1 X138.723 Y122.752 E9.4295
G1 X138.468 Y122.903 E9.43936
G1 X137.815 Y123.264 E9.46418
G1 X136.987 Y123.665 E9.49477
G1 X136.524 Y123.851 E9.51137
G1 X135.927 Y124.068 E9.5325
G1 X135.595 Y124.179 E9.54414
G1 X134.471 Y124.487 E9.5829
G1 X133.287 Y124.742 E9.62319
G1 X132.59 Y124.883 E9.64684
G1 X130.122 Y125.454 E9.73109
G1 X127.679 Y126.093 E9.81508
G1 X125.232 Y126.807 E9.89986
G1 X122.604 Y127.656 E9.99172
G1 X121.717 Y127.901 E10.02232
G1 X121.242 Y127.998 E10.03845
G1 X120.488 Y128.135 E10.06394
G1 X119.883 Y128.23 E10.08431
G1 X118.675 Y128.335 E10.12464
G1 X118.058 Y128.349 E10.14516
G1 X104.907 Y128.349 E10.58257
G1 X104.298 Y128.34 E10.60282
G1 X103.047 Y128.247 E10.64455
G1 X102.271 Y128.143 E10.67059
G1 X101.677 Y128.049 E10.69059
G1 X100.777 Y127.856 E10.72121
G1 X100.207 Y127.69 E10.74095
G1 X99.301 Y127.399 E10.7726
G1 X98.425 Y127.106 E10.80332
G1 X96.018 Y126.373 E10.88701
G1 X93.551 Y125.696 E10.9721
G1 X91.104 Y125.1 E11.05586
G1 X89.578 Y124.78 E11.10772
G1 X88.204 Y124.479 E11.15451
G1 X87.197 Y124.206 E11.18921
G1 X86.603 Y124.005 E11.21006
G1 X85.723 Y123.68 E11.24127
G1 X84.162 Y123.078 E11.29691
G1 X83.188 Y122.736 E11.33125
G1 X81.75 Y122.215 E11.38212
G1 X80.899 Y121.864 E11.41273
G1 X80.082 Y121.441 E11.44333
G1 X79.304 Y120.948 E11.47397
G1 X78.572 Y120.39 E11.50458
G1 X77.891 Y119.77 E11.53521
G1 X77.267 Y119.093 E11.56584
G1 X76.703 Y118.365 E11.59647
G1 X76.252 Y117.67 E11.62402
G1 X76.058 Y117.344 E11.63664
G1 X75.622 Y116.533 E11.66726
G1 X75.258 Y115.687 E11.6979
G1 X74.969 Y114.813 E11.72851
G1 X74.756 Y113.917 E11.75915
G1 X74.623 Y113.007 E11.78973
G1 X74.569 Y112.121 E11.81926
G1 X74.547 Y110.829 E11.86223
G0 F6000 X74.947 Y110.83
G1 F1200 X74.951 Y109.414 E11.90933
G1 X74.962 Y108.754 E11.93129
G1 X75.017 Y107.853 E11.96131
G1 X75.152 Y106.96 E11.99135
G1 X75.365 Y106.082 E12.0214
G1 X75.655 Y105.227 E12.05143
G1 X75.939 Y104.559 E12.07557
G1 X76.341 Y103.75 E12.10561
G1 X76.813 Y102.981 E12.13563
G1 X77.352 Y102.256 E12.16567
G1 X77.952 Y101.581 E12.19571
G1 X78.61 Y100.962 E12.22576
G1 X79.59 Y100.217 E12.2667
G1 X79.85 Y100.043 E12.27711
G1 X80.622 Y99.575 E12.30713
G1 X81.433 Y99.176 E12.3372
G1 X82.613 Y98.744 E12.37899
G1 X85.154 Y97.988 E12.46717
G1 X87.548 Y97.201 E12.55098
G1 X89.934 Y96.341 E12.63534
G1 X92.311 Y95.407 E12.72028
G1 X94.647 Y94.413 E12.80472
G1 X97.683 Y93.006 E12.91601
G1 X98.519 Y92.663 E12.94607
G1 X99.381 Y92.395 E12.97609
G1 X100.264 Y92.204 E13.00614
G1 X101.16 Y92.092 E13.03617
G1 X101.656 Y92.065 E13.05269
G1 X102.257 Y92.051 E13.07269
G1 X104.346 Y92.051 E13.14217
G1 X105.813 Y92.072 E13.19097
G1 X108.651 Y92.069 E13.28536
G1 X109.792 Y92.051 E13.32331
G1 X113.041 Y92.05 E13.43138
G1 X115.705 Y92.092 E13.51999
G1 X118.301 Y92.087 E13.60634
G1 X119.959 Y92.051 E13.66149
G1 X122.484 Y92.051 E13.74548
G1 X123.188 Y92.062 E13.76889
G1 X124.09 Y92.116 E13.79895
G1 X124.983 Y92.25 E13.82898
G1 X125.861 Y92.462 E13.85902
G1 X126.717 Y92.751 E13.88907
G1 X127.543 Y93.114 E13.91908
G1 X128.257 Y93.503 E13.94613
G1 X130.746 Y94.989 E14.04254
G1 X132.972 Y96.231 E14.12732
G1 X135.221 Y97.405 E14.2117
G1 X136.314 Y97.935 E14.25211
G1 X137.655 Y98.601 E14.30191
G1 X138.446 Y99.038 E14.33196
G1 X139.025 Y99.42 E14.35503
G1 X139.556 Y99.797 E14.37669
G1 X140.268 Y100.352 E14.40672
G1 X140.951 Y100.99 E14.4378
G1 X141.314 Y101.362 E14.45509
G1 X141.916 Y102.036 E14.48515
G1 X142.305 Y102.544 E14.50643
G1 X142.644 Y103.017 E14.52579
G1 X143.137 Y103.774 E14.55583
G1 X143.432 Y104.31 E14.57618
G1 X143.712 Y104.87 E14.59701
G1 X143.844 Y105.151 E14.60733
G1 X144.192 Y105.985 E14.63739
G1 X144.405 Y106.635 E14.66014
G1 X144.569 Y107.198 E14.67964
G1 X144.783 Y108.076 E14.7097
G1 X144.873 Y108.609 E14.72768
G1 X144.952 Y109.214 E14.74797
G1 X144.991 Y109.592 E14.76061
G1 X145.044 Y110.494 E14.79066
G1 X145.031 Y111.177 E14.81338
G1 X145 Y111.764 E14.83293
G1 X144.912 Y112.663 E14.86298
G1 X144.812 Y113.244 E14.88259
G1 X144.681 Y113.855 E14.90337
G1 X144.597 Y114.201 E14.91521
G1 X144.345 Y115.069 E14.94527
G1 X144.119 Y115.674 E14.96676
G1 X143.89 Y116.231 E14.98679
G1 X143.51 Y117.05 E15.01681
G1 X143.1 Y117.768 E15.04431
G1 X142.798 Y118.25 E15.06323
G1 X142.285 Y118.993 E15.09326
G1 X141.793 Y119.593 E15.11907
G1 X141.401 Y120.036 E15.13875
G1 X140.773 Y120.686 E15.16881
G1 X140.156 Y121.224 E15.19603
G1 X139.716 Y121.578 E15.21482
G1 X138.988 Y122.113 E15.24487
G1 X138.519 Y122.408 E15.26329
G1 X137.901 Y122.764 E15.28701
G1 X137.626 Y122.912 E15.2974
G1 X136.812 Y123.304 E15.32745
G1 X136.383 Y123.477 E15.34284
G1 X135.8 Y123.689 E15.36347
G1 X135.468 Y123.8 E15.37511
G1 X134.386 Y124.096 E15.41242
G1 X133.208 Y124.35 E15.4525
G1 X132.484 Y124.496 E15.47707
G1 X130.035 Y125.063 E15.56068
G1 X127.579 Y125.706 E15.64512
G1 X125.102 Y126.429 E15.73094
G1 X122.481 Y127.275 E15.82254
G1 X121.17 Y127.605 E15.86751
G1 X120.416 Y127.742 E15.893
G1 X119.826 Y127.834 E15.91286
G1 X118.663 Y127.935 E15.95168
G1 X118.058 Y127.949 E15.97181
G1 X104.913 Y127.949 E16.40902
G1 X104.304 Y127.94 E16.42927
G1 X103.1 Y127.851 E16.46943
G1 X102.324 Y127.747 E16.49547
G1 X101.744 Y127.654 E16.51501
G1 X100.861 Y127.464 E16.54505
G1 X100.33 Y127.309 E16.56345
G1 X99.298 Y126.977 E16.5995
G1 X98.554 Y126.727 E16.62561
G1 X96.103 Y125.981 E16.71082
G1 X93.646 Y125.307 E16.79556
G1 X91.22 Y124.716 E16.87861
G1 X89.663 Y124.39 E16.93152
G1 X88.289 Y124.089 E16.9783
G1 X87.32 Y123.826 E17.0117
G1 X86.741 Y123.629 E17.03204
G1 X85.723 Y123.252 E17.06814
G1 X84.312 Y122.708 E17.11844
G1 X83.324 Y122.36 E17.15328
G1 X81.886 Y121.839 E17.20415
G1 X81.052 Y121.494 E17.23417
G1 X80.251 Y121.077 E17.26421
G1 X79.49 Y120.59 E17.29426
G1 X78.775 Y120.038 E17.3243
G1 X78.112 Y119.425 E17.35433
G1 X77.506 Y118.756 E17.38435
G1 X76.961 Y118.035 E17.41441
G1 X76.596 Y117.465 E17.43693
G1 X76.402 Y117.139 E17.44954
G1 X75.975 Y116.343 E17.47959
G1 X75.62 Y115.513 E17.50961
G1 X75.34 Y114.654 E17.53966
G1 X75.136 Y113.774 E17.56971
G1 X75.012 Y112.88 E17.59973
G1 X74.969 Y112.114 E17.62524
G1 X74.947 Y110.83 E17.66796
G1 F1500 E11.16796
G0 F6000 X90.556 Y106.659
G0 X110.966 Y104.05
G0 X110.959 Y104.65
G1 F1500 E17.66796
G1 F1200 X110.966 Y104.05 E17.68791
G1 X111.948 Y104.05 E17.72058
G1 X111.949 Y104.65 E17.74053
G1 X110.959 Y104.65 E17.77346
G0 F6000 X110.555 Y105.05
G1 F1200 X110.571 Y103.65 E17.82003
G1 X112.348 Y103.65 E17.87913
G1 X112.349 Y105.05 E17.92569
G1 X110.555 Y105.05 E17.98536
G0 F6000 X110.15 Y105.45
G1 F1200 X110.175 Y103.25 E18.05854
G1 X112.748 Y103.25 E18.14412
G1 X112.749 Y105.45 E18.21729
G1 X110.15 Y105.45 E18.30373
G0 F6000 X109.745 Y105.85
G1 F1200 X109.78 Y102.85 E18.40352
G1 X113.148 Y102.85 E18.51554
G1 X113.149 Y105.85 E18.61532
G1 X109.745 Y105.85 E18.72854
G0 F6000 X109.34 Y106.25
G1 F1200 X109.385 Y102.45 E18.85494
G1 X113.548 Y102.45 E18.9934
G1 X113.549 Y106.25 E19.11979
G1 X109.34 Y106.25 E19.25978
G1 F1500 E12.75978
G0 F6000 X103.371 Y103.65
G1 F1500 E19.25978
G1 F1200 X103.528 Y103.65 E19.265
G1 X103.516 Y105.05 E19.31157
G1 X103.373 Y105.05 E19.31632
G1 X103.371 Y103.65 E19.36289
G0 F6000 X102.971 Y103.25
G1 F1200 X103.931 Y103.25 E19.39482
G1 X103.913 Y105.45 E19.46799
G1 X102.973 Y105.45 E19.49926
G1 X102.971 Y103.25 E19.57243
G0 F6000 X102.571 Y102.85
G1 F1200 X104.334 Y102.85 E19.63107
G1 X104.309 Y105.85 E19.73085
G1 X102.573 Y105.85 E19.78859
G1 X102.571 Y102.85 E19.88837
G0 F6000 X102.17 Y102.45
G1 F1200 X104.729 Y102.45 E19.97348
G1 X104.734 Y102.878 E19.98772
G1 X104.706 Y106.25 E20.09988
G1 X102.174 Y106.25 E20.18409
G1 X102.17 Y102.45 E20.31048
G1 F1500 E13.81048
G0 F6000 X91.024 Y110.759
G1 F1500 E20.31048
G1 F1200 X91.073 Y110.571 E20.31694
G1 X91.245 Y110.428 E20.32438
G1 X91.393 Y110.422 E20.32931
G1 X91.591 Y110.519 E20.33664
G1 X91.666 Y110.63 E20.3411
G1 X91.697 Y110.839 E20.34812
G1 X91.483 Y111.066 E20.3585
G1 X91.242 Y111.075 E20.36652
G1 X91.146 Y111.007 E20.37043
G1 X91.038 Y110.849 E20.3768
G1 X91.024 Y110.759 E20.37983
G0 F6000 X90.622 Y110.718
G1 F1200 X90.7 Y110.415 E20.39024
