;FLAVOR:Marlin
;TIME:4934
;Filament used: 2.70531m
;Layer height: 0.2
;MINX:79.771
;MINY:76.498
;MINZ:0.2
;MAXX:140.224
;MAXY:143.502
;MAXZ:29.6
;Generated with Cura_SteamEngine main
M82 ;absolute extrusion mode
; Ender 3 Custom Start G-code
G92 E0 ; Reset Extruder
G28 ; Home all axes
M104 S175 ; Start heating up the nozzle most of the way
M190 S60 ; Start heating the bed, wait until target temperature reached
M109 S195.0 ; Finish heating the nozzle
G1 Z2.0 F3000 ; Move Z Axis up little to prevent scratching of Heat Bed
G1 X0.1 Y20 Z0.3 F5000.0 ; Move to start position
G1 X0.1 Y200.0 Z0.3 F1500.0 E15 ; Draw the first line
G1 X0.4 Y200.0 Z0.3 F5000.0 ; Move to side a little
G1 X0.4 Y20 Z0.3 F1500.0 E30 ; Draw the second line
G92 E0 ; Reset Extruder
G1 Z2.0 F3000 ; Move Z Axis up little to prevent scratching of Heat Bed
G1 X5 Y20 Z0.3 F5000.0 ; Move over to prevent blob squish
G92 E0
G92 E0
G1 F1500 E-6.5
;LAYER_COUNT:148
;LAYER:0
M107
G0 F6000 X96.299 Y80.655 Z0.2
G0 X93.14 Y85.959
;TYPE:SKIRT
G1 F1500 E0
G1 F1200 X94.398 Y83.787 E0.08348
G1 X95.261 Y82.215 E0.14313
G1 X95.747 Y81.413 E0.17432
G1 X96.299 Y80.655 E0.20551
G1 X96.914 Y79.947 E0.2367
G1 X97.587 Y79.294 E0.26789
G1 X98.314 Y78.701 E0.29909
G1 X99.088 Y78.171 E0.33029
G1 X99.904 Y77.71 E0.36146
G1 X100.757 Y77.32 E0.39266
G1 X101.64 Y77.003 E0.42386
G1 X102.547 Y76.764 E0.45506
G1 X103.471 Y76.602 E0.48626
G1 X104.565 Y76.513 E0.52277
G1 X105.228 Y76.498 E0.54483
G1 X121.346 Y76.499 E1.08091
G1 X122.045 Y76.509 E1.10416
G1 X122.982 Y76.563 E1.13538
G1 X123.91 Y76.695 E1.16656
G1 X124.824 Y76.907 E1.19776
G1 X125.716 Y77.196 E1.22895
G1 X126.581 Y77.559 E1.26015
G1 X127.411 Y77.995 E1.29133
G1 X128.201 Y78.5 E1.32252
G1 X128.946 Y79.071 E1.35374
G1 X129.639 Y79.703 E1.38493
G1 X130.276 Y80.391 E1.41612
G1 X130.851 Y81.132 E1.44731
G1 X131.362 Y81.918 E1.47849
G1 X131.804 Y82.746 E1.50971
G1 X132.173 Y83.607 E1.54087
G1 X132.529 Y84.72 E1.57973
G1 X132.678 Y85.289 E1.5993
G1 X133.37 Y87.791 E1.68564
G1 X134.103 Y90.174 E1.76856
G1 X134.907 Y92.549 E1.85196
G1 X135.791 Y94.936 E1.93662
G1 X136.724 Y97.25 E2.0196
G1 X138.023 Y100.203 E2.1269
G1 X138.268 Y100.733 E2.14632
G1 X138.628 Y101.609 E2.17782
G1 X138.963 Y102.545 E2.21089
G1 X139.373 Y103.764 E2.25367
G1 X139.634 Y104.665 E2.28487
G1 X139.835 Y105.705 E2.3201
G1 X139.977 Y106.692 E2.35326
G1 X140.147 Y108.142 E2.40182
G1 X140.217 Y109.236 E2.43828
G1 X140.224 Y109.905 E2.46053
G1 X140.196 Y113.505 E2.58027
G1 X140.175 Y114.418 E2.61065
G1 X140.116 Y115.309 E2.64035
G1 X140.048 Y115.902 E2.6602
G1 X139.943 Y116.653 E2.68542
G1 X139.832 Y117.368 E2.70949
G1 X139.649 Y118.288 E2.74069
G1 X139.424 Y119.078 E2.76801
G1 X139.191 Y119.791 E2.79295
G1 X138.888 Y120.672 E2.82394
G1 X138.65 Y121.336 E2.8474
G1 X138.296 Y122.204 E2.87858
G1 X138.089 Y122.632 E2.89439
G1 X136.826 Y125.102 E2.98666
G1 X135.751 Y127.357 E3.06975
G1 X134.731 Y129.666 E3.15371
G1 X133.771 Y132.01 E3.23795
G1 X132.886 Y134.366 E3.32166
G1 X132.274 Y136.119 E3.38342
G1 X131.927 Y136.99 E3.4146
G1 X131.508 Y137.829 E3.44579
G1 X131.018 Y138.629 E3.477
G1 X130.462 Y139.384 E3.50818
G1 X129.844 Y140.09 E3.53939
G1 X129.168 Y140.74 E3.57058
G1 X128.439 Y141.33 E3.60177
G1 X127.662 Y141.855 E3.63296
G1 X126.843 Y142.313 E3.66417
G1 X125.989 Y142.699 E3.69534
G1 X125.104 Y143.012 E3.72657
G1 X124.197 Y143.247 E3.75773
G1 X123.272 Y143.405 E3.78894
G1 X122.229 Y143.487 E3.82374
G1 X121.566 Y143.502 E3.84579
G1 X105.448 Y143.501 E4.38188
G1 X104.747 Y143.491 E4.4052
G1 X103.811 Y143.438 E4.43638
G1 X102.882 Y143.305 E4.46759
G1 X101.969 Y143.093 E4.49877
G1 X101.076 Y142.805 E4.52998
G1 X100.212 Y142.441 E4.56116
G1 X99.381 Y142.005 E4.59237
G1 X98.591 Y141.5 E4.62356
G1 X97.847 Y140.93 E4.65473
G1 X97.154 Y140.298 E4.68592
G1 X96.517 Y139.609 E4.71713
G1 X95.874 Y138.774 E4.75219
G1 X94.155 Y136.302 E4.85233
G1 X92.662 Y134.286 E4.93577
G1 X91.106 Y132.304 E5.01958
G1 X89.509 Y130.385 E5.10261
G1 X87.836 Y128.486 E5.18679
G1 X86.129 Y126.655 E5.27005
G1 X83.63 Y124.145 E5.38785
G1 X83.232 Y123.728 E5.40703
G1 X82.621 Y123.017 E5.43821
G1 X82.239 Y122.501 E5.45956
G1 X82.032 Y122.204 E5.4716
G1 X81.529 Y121.412 E5.50281
G1 X81.12 Y120.633 E5.53207
G1 X80.978 Y120.334 E5.54308
G1 X80.612 Y119.47 E5.57429
G1 X80.334 Y118.624 E5.60391
G1 X80.239 Y118.29 E5.61546
G1 X80.021 Y117.378 E5.64664
G1 X79.882 Y116.458 E5.67759
G1 X79.851 Y116.17 E5.68723
G1 X79.79 Y115.184 E5.72008
G1 X79.771 Y114.015 E5.75897
G1 X79.772 Y108.82 E5.93176
G1 X79.78 Y108.233 E5.95128
G1 X79.81 Y107.555 E5.97385
G1 X79.843 Y107.118 E5.98843
G1 X79.954 Y106.186 E6.01965
G1 X80.173 Y105.153 E6.05477
G1 X80.262 Y104.814 E6.06643
G1 X80.538 Y103.918 E6.09761
G1 X80.926 Y102.971 E6.13165
G1 X81.084 Y102.631 E6.14412
G1 X81.515 Y101.798 E6.17531
G1 X82.056 Y100.947 E6.20885
G1 X82.268 Y100.645 E6.22112
G1 X82.93 Y99.794 E6.25698
G1 X83.496 Y99.136 E6.28585
G1 X84.328 Y98.194 E6.32765
G1 X85.932 Y96.27 E6.41097
G1 X87.497 Y94.281 E6.49514
G1 X88.979 Y92.284 E6.57786
G1 X90.441 Y90.191 E6.66277
G1 X91.813 Y88.106 E6.74579
G1 X93.14 Y85.959 E6.82973
G1 F1500 E0.32973
G0 F6000 X90.771 Y90.418
G1 F1500 E6.82973
G1 F1200 X92.144 Y88.33 E6.91285
G1 X93.483 Y86.163 E6.99757
G1 X94.766 Y83.949 E7.08268
G1 X95.612 Y82.408 E7.14115
G1 X96.089 Y81.621 E7.17176
G1 X96.633 Y80.878 E7.20239
G1 X97.24 Y80.185 E7.23303
G1 X97.904 Y79.548 E7.26363
G1 X98.621 Y78.971 E7.29424
G1 X99.386 Y78.458 E7.32488
G1 X100.192 Y78.013 E7.3555
G1 X101.034 Y77.64 E7.38613
G1 X101.904 Y77.341 E7.41673
G1 X102.798 Y77.119 E7.44737
G1 X103.707 Y76.976 E7.47797
G1 X104.577 Y76.913 E7.50698
G1 X105.228 Y76.898 E7.52864
G1 X121.189 Y76.898 E8.05951
G1 X122.04 Y76.909 E8.08781
G1 X122.959 Y76.962 E8.11843
G1 X123.87 Y77.095 E8.14905
G1 X124.766 Y77.306 E8.17967
G1 X125.64 Y77.594 E8.21028
G1 X126.486 Y77.957 E8.24089
G1 X127.298 Y78.392 E8.27153
G1 X128.068 Y78.896 E8.30214
G1 X128.792 Y79.465 E8.33277
G1 X129.464 Y80.094 E8.36338
G1 X130.079 Y80.78 E8.39403
G1 X130.632 Y81.516 E8.42465
G1 X131.119 Y82.297 E8.45526
G1 X131.536 Y83.118 E8.48589
G1 X131.881 Y83.972 E8.51652
G1 X132.142 Y84.822 E8.54609
G1 X132.293 Y85.399 E8.56593
G1 X132.979 Y87.877 E8.65145
G1 X133.726 Y90.309 E8.73607
G1 X134.529 Y92.679 E8.8193
G1 X135.416 Y95.075 E8.90427
G1 X136.361 Y97.419 E8.98833
G1 X137.653 Y100.355 E9.09502
G1 X137.905 Y100.901 E9.11502
G1 X138.252 Y101.745 E9.14537
G1 X138.507 Y102.451 E9.17034
G1 X138.994 Y103.892 E9.22093
G1 X139.249 Y104.776 E9.25153
G1 X139.439 Y105.762 E9.28493
G1 X139.621 Y107.057 E9.32842
G1 X139.75 Y108.188 E9.36629
G1 X139.817 Y109.241 E9.40138
G1 X139.824 Y109.901 E9.42333
G1 X139.796 Y113.501 E9.54307
G1 X139.775 Y114.408 E9.57325
G1 X139.719 Y115.266 E9.60184
G1 X139.652 Y115.847 E9.6213
G1 X139.548 Y116.592 E9.64632
G1 X139.437 Y117.307 E9.67038
G1 X139.256 Y118.21 E9.70101
G1 X139.044 Y118.954 E9.72674
G1 X138.813 Y119.661 E9.75148
G1 X138.559 Y120.401 E9.7775
G1 X138.273 Y121.201 E9.80576
G1 X137.733 Y122.45 E9.85102
G1 X136.466 Y124.927 E9.94356
G1 X135.389 Y127.189 E10.02688
G1 X134.353 Y129.533 E10.11212
G1 X133.41 Y131.837 E10.19492
G1 X132.5 Y134.257 E10.28091
G1 X131.896 Y135.987 E10.34186
G1 X131.555 Y136.842 E10.37248
G1 X131.141 Y137.665 E10.40312
G1 X130.658 Y138.448 E10.43372
G1 X130.108 Y139.186 E10.46433
G1 X129.496 Y139.874 E10.49496
G1 X128.827 Y140.506 E10.52557
G1 X128.105 Y141.078 E10.5562
G1 X127.336 Y141.585 E10.58684
G1 X126.527 Y142.024 E10.61745
G1 X125.682 Y142.39 E10.64808
G1 X124.809 Y142.682 E10.6787
G1 X123.914 Y142.897 E10.70931
G1 X123.003 Y143.033 E10.73995
G1 X122.217 Y143.087 E10.76615
G1 X121.566 Y143.102 E10.78781
G1 X105.454 Y143.101 E11.3237
G1 X104.753 Y143.091 E11.34701
G1 X103.834 Y143.038 E11.37763
G1 X102.923 Y142.905 E11.40825
G1 X102.027 Y142.694 E11.43887
G1 X101.152 Y142.406 E11.46951
G1 X100.306 Y142.043 E11.50013
G1 X99.495 Y141.608 E11.53074
G1 X98.724 Y141.104 E11.56137
G1 X98 Y140.535 E11.592
G1 X97.328 Y139.906 E11.62261
G1 X96.713 Y139.221 E11.65323
G1 X96.202 Y138.545 E11.68142
G1 X94.488 Y136.081 E11.78125
G1 X92.966 Y134.025 E11.86633
G1 X91.429 Y132.068 E11.94909
G1 X89.798 Y130.108 E12.0339
G1 X88.131 Y128.214 E12.11782
G1 X86.437 Y126.398 E12.20042
G1 X83.913 Y123.863 E12.3194
G1 X83.524 Y123.455 E12.33815
G1 X82.925 Y122.756 E12.36877
G1 X82.567 Y122.272 E12.38879
G1 X82.36 Y121.975 E12.40083
G1 X81.867 Y121.198 E12.43144
G1 X81.481 Y120.461 E12.45911
G1 X81.339 Y120.162 E12.47012
G1 X80.98 Y119.314 E12.50075
G1 X80.718 Y118.515 E12.52871
G1 X80.623 Y118.181 E12.54026
G1 X80.41 Y117.285 E12.57089
G1 X80.28 Y116.415 E12.60015
G1 X80.249 Y116.127 E12.60979
G1 X80.19 Y115.177 E12.64144
G1 X80.171 Y114.015 E12.6801
G1 X80.172 Y108.826 E12.85268
G1 X80.18 Y108.239 E12.87221
G1 X80.209 Y107.585 E12.89398
G1 X80.242 Y107.148 E12.90856
G1 X80.351 Y106.234 E12.93917
G1 X80.559 Y105.254 E12.9725
G1 X80.648 Y104.915 E12.98415
G1 X80.921 Y104.036 E13.01477
G1 X81.288 Y103.14 E13.04697
G1 X81.446 Y102.8 E13.05944
G1 X81.87 Y101.983 E13.09006
G1 X82.383 Y101.177 E13.12183
G1 X82.595 Y100.875 E13.1341
G1 X83.233 Y100.055 E13.16866
G1 X83.796 Y99.401 E13.19736
G1 X84.637 Y98.449 E13.23961
G1 X86.238 Y96.528 E13.32279
G1 X87.8 Y94.543 E13.4068
G1 X89.312 Y92.505 E13.4912
G1 X90.771 Y90.418 E13.57589
G1 F1500 E7.07589
G0 F6000 X88.133 Y94.766
G1 F1500 E13.57589
G1 F1200 X89.633 Y92.744 E13.65963
G1 X91.1 Y90.645 E13.7448
G1 X92.475 Y88.555 E13.82801
G1 X93.836 Y86.353 E13.91411
G1 X95.095 Y84.18 E13.99764
G1 X95.962 Y82.6 E14.05758
G1 X96.431 Y81.829 E14.0876
G1 X96.967 Y81.101 E14.11767
G1 X97.565 Y80.425 E14.14768
G1 X98.22 Y79.803 E14.17773
G1 X98.928 Y79.242 E14.20777
G1 X99.682 Y78.746 E14.23779
G1 X100.478 Y78.318 E14.26785
G1 X101.308 Y77.963 E14.29787
G1 X102.166 Y77.682 E14.3279
G1 X103.046 Y77.479 E14.35794
G1 X103.941 Y77.354 E14.388
G1 X104.589 Y77.313 E14.40959
G1 X105.228 Y77.298 E14.43085
G1 X121.189 Y77.298 E14.96172
G1 X122.034 Y77.309 E14.98982
G1 X122.935 Y77.362 E15.01984
G1 X123.829 Y77.494 E15.0499
G1 X124.707 Y77.705 E15.07993
G1 X125.563 Y77.993 E15.10997
G1 X126.39 Y78.355 E15.14
G1 X127.182 Y78.789 E15.17004
G1 X127.933 Y79.292 E15.2001
G1 X128.636 Y79.859 E15.23014
G1 X129.286 Y80.486 E15.26018
G1 X129.878 Y81.168 E15.29021
G1 X130.407 Y81.899 E15.32023
G1 X130.87 Y82.675 E15.35028
G1 X131.262 Y83.488 E15.3803
G1 X131.581 Y84.333 E15.41034
G1 X131.755 Y84.923 E15.4308
G1 X131.9 Y85.476 E15.44982
G1 X132.597 Y87.996 E15.53678
G1 X133.35 Y90.445 E15.622
G1 X134.15 Y92.81 E15.70503
G1 X135.046 Y95.228 E15.7908
G1 X135.988 Y97.564 E15.87458
G1 X137.291 Y100.527 E15.98223
G1 X137.542 Y101.069 E16.0021
G1 X137.875 Y101.881 E16.03129
G1 X138.205 Y102.8 E16.06377
G1 X138.615 Y104.019 E16.10654
G1 X138.865 Y104.887 E16.13659
G1 X139.043 Y105.818 E16.16811
G1 X139.185 Y106.805 E16.20128
G1 X139.352 Y108.233 E16.2491
G1 X139.417 Y109.247 E16.28289
G1 X139.424 Y109.898 E16.30455
G1 X139.396 Y113.498 E16.42429
G1 X139.375 Y114.398 E16.45423
G1 X139.321 Y115.224 E16.48176
G1 X139.256 Y115.792 E16.50077
G1 X139.178 Y116.358 E16.51978
G1 X139.041 Y117.246 E16.54966
G1 X138.863 Y118.131 E16.57969
G1 X138.663 Y118.831 E16.6039
G1 X138.435 Y119.531 E16.62839
G1 X137.897 Y121.066 E16.68249
G1 X137.377 Y122.268 E16.72605
G1 X136.107 Y124.752 E16.81884
G1 X135.02 Y127.034 E16.90291
G1 X133.988 Y129.368 E16.98779
G1 X133.035 Y131.695 E17.07142
G1 X132.136 Y134.087 E17.15641
G1 X131.519 Y135.855 E17.21869
G1 X131.183 Y136.694 E17.24875
G1 X130.775 Y137.499 E17.27877
G1 X130.298 Y138.266 E17.30881
G1 X129.754 Y138.987 E17.33885
G1 X129.149 Y139.657 E17.36888
G1 X128.486 Y140.271 E17.39893
G1 X127.772 Y140.824 E17.42897
G1 X127.012 Y141.312 E17.45901
G1 X126.212 Y141.731 E17.48905
G1 X125.378 Y142.077 E17.51908
G1 X124.516 Y142.348 E17.54913
G1 X123.634 Y142.542 E17.57917
G1 X122.739 Y142.657 E17.60918
G1 X122.205 Y142.687 E17.62697
G1 X121.566 Y142.702 E17.64823
G1 X105.46 Y142.701 E18.18392
G1 X104.759 Y142.691 E18.20724
G1 X103.857 Y142.638 E18.23729
G1 X102.964 Y142.506 E18.26731
G1 X102.085 Y142.295 E18.29738
G1 X101.229 Y142.007 E18.32742
G1 X100.402 Y141.645 E18.35744
G1 X99.61 Y141.211 E18.38748
G1 X98.86 Y140.708 E18.41752
G1 X98.157 Y140.141 E18.44756
G1 X97.507 Y139.515 E18.47757
G1 X96.914 Y138.833 E18.50763
G1 X96.531 Y138.317 E18.529
G1 X94.811 Y135.844 E18.62919
G1 X93.303 Y133.807 E18.71349
G1 X91.732 Y131.807 E18.79808
G1 X90.107 Y129.854 E18.88258
G1 X88.423 Y127.941 E18.96735
G1 X86.702 Y126.095 E19.05129
G1 X84.197 Y123.58 E19.16935
G1 X83.816 Y123.181 E19.1877
G1 X83.229 Y122.495 E19.21773
G1 X82.895 Y122.043 E19.23642
G1 X82.688 Y121.746 E19.24846
G1 X82.205 Y120.983 E19.2785
G1 X81.842 Y120.29 E19.30452
G1 X81.7 Y119.991 E19.31553
G1 X81.349 Y119.159 E19.34556
G1 X81.103 Y118.406 E19.37191
G1 X81.008 Y118.072 E19.38346
G1 X80.8 Y117.193 E19.4135
G1 X80.678 Y116.373 E19.44108
G1 X80.647 Y116.085 E19.45071
G1 X80.59 Y115.17 E19.4812
G1 X80.571 Y114.015 E19.51962
G1 X80.572 Y108.831 E19.69204
G1 X80.58 Y108.244 E19.71157
G1 X80.608 Y107.615 E19.73251
G1 X80.641 Y107.178 E19.74709
G1 X80.749 Y106.281 E19.77714
G1 X80.946 Y105.356 E19.80859
G1 X81.035 Y105.017 E19.82025
G1 X81.303 Y104.154 E19.8503
G1 X81.651 Y103.308 E19.88073
G1 X81.809 Y102.968 E19.8932
G1 X82.225 Y102.167 E19.92322
G1 X82.711 Y101.407 E19.95322
G1 X82.923 Y101.105 E19.9655
G1 X83.537 Y100.315 E19.99877
G1 X84.096 Y99.666 E20.02726
G1 X84.928 Y98.724 E20.06907
G1 X86.544 Y96.785 E20.15302
G1 X88.133 Y94.766 E20.23847
G1 F1500 E13.73847
G0 F6000 X113.344 Y111.418
G0 X113.279 Y111.544
G1 F1500 E20.23847
G1 F1200 X113.344 Y111.418 E20.24319
G1 X113.403 Y111.403 E20.24521
G1 X113.5 Y111.458 E20.24892
G1 X113.361 Y111.558 E20.25462
G1 X113.279 Y111.544 E20.25738
G0 F6000 X112.868 Y111.533
G1 F1200 X112.897 Y111.346 E20.26368
G1 X113.11 Y111.066 E20.27538
G1 X113.439 Y110.979 E20.2867
G1 X113.789 Y111.14 E20.29951
G1 X113.88 Y111.324 E20.30634
G1 X113.909 Y111.514 E20.31273
G1 X113.863 Y111.688 E20.31872
G1 X113.511 Y111.943 E20.33317
G1 X113.291 Y111.968 E20.34054
G1 X113.079 Y111.9 E20.34794
G1 X112.955 Y111.806 E20.35312
G1 X112.868 Y111.533 E20.36265
G0 F6000 X112.466 Y111.506
G1 F1200 X112.517 Y111.186 E20.37343
G1 X112.874 Y110.715 E20.39308
G1 X113.405 Y110.575 E20.41135
G1 X113.585 Y110.606 E20.41742
G1 X113.949 Y110.773 E20.43074
G1 X114.119 Y110.914 E20.43809
G1 X114.259 Y111.188 E20.44832
G1 X114.311 Y111.392 E20.45533
G1 X114.308 Y111.57 E20.46125
G1 X114.234 Y111.851 E20.47091
G1 X114.159 Y111.968 E20.47553
G1 X113.662 Y112.327 E20.49593
G1 X113.249 Y112.376 E20.50976
G1 X112.893 Y112.26 E20.52221
G1 X112.665 Y112.089 E20.53169
G1 X112.516 Y111.806 E20.54233
G1 X112.466 Y111.506 E20.55244
G0 F6000 X112.054 Y111.556
G1 F1200 X112.137 Y111.024 E20.57035
G1 X112.575 Y110.447 E20.59445
G1 X112.78 Y110.326 E20.60236
G1 X113.386 Y110.167 E20.6232
G1 X113.707 Y110.221 E20.63403
G1 X114.162 Y110.43 E20.65068
G1 X114.449 Y110.669 E20.6631
G1 X114.636 Y111.05 E20.67722
G1 X114.711 Y111.346 E20.68738
G1 X114.708 Y111.622 E20.69656
G1 X114.604 Y112.014 E20.71005
G1 X114.453 Y112.248 E20.71931
G1 X113.811 Y112.713 E20.74567
G1 X113.21 Y112.784 E20.7658
G1 X112.705 Y112.619 E20.78347
G1 X112.395 Y112.387 E20.79635
G1 X112.23 Y112.158 E20.80574
G1 X112.133 Y111.926 E20.8141
G1 X112.054 Y111.556 E20.82669
G0 F6000 X111.648 Y111.566
G1 F1200 X111.731 Y111.035 E20.84456
G1 X111.809 Y110.794 E20.85299
G1 X112.308 Y110.137 E20.88043
G1 X112.628 Y109.952 E20.89272
G1 X113.364 Y109.758 E20.91804
G1 X113.826 Y109.836 E20.93362
G1 X114.38 Y110.091 E20.9539
G1 X114.695 Y110.353 E20.96753
G1 X114.816 Y110.506 E20.97402
G1 X115.013 Y110.91 E20.98897
G1 X115.112 Y111.297 E21.00225
G1 X115.107 Y111.678 E21.01493
G1 X114.974 Y112.18 E21.0322
G1 X114.75 Y112.527 E21.04594
G1 X113.962 Y113.098 E21.0783
G1 X113.17 Y113.191 E21.10483
G1 X112.518 Y112.979 E21.12763
G1 X112.066 Y112.64 E21.14642
G1 X111.874 Y112.346 E21.1581
G1 X111.75 Y112.049 E21.16881
G1 X111.648 Y111.566 E21.18523
G0 F6000 X111.263 Y111.442
G1 F1200 X111.341 Y110.943 E21.20202
