;FLAVOR:Marlin
;TIME:307
;Filament used: 0.139264m
;Layer height: 0.2
;MINX:88.351
;MINY:88.35
;MINZ:0.2
;MAXX:131.652
;MAXY:131.652
;MAXZ:2.2
;Generated with Cura_SteamEngine main
M82 ;absolute extrusion mode
; Ender 3 Custom Start G-code
G92 E0 ; Reset Extruder
G28 ; Home all axes
M104 S175 ; Start heating up the nozzle most of the way
M190 S60 ; Start heating the bed, wait until target temperature reached
M109 S195.0 ; Finish heating the nozzle
G1 Z2.0 F3000 ; Move Z Axis up little to prevent scratching of Heat Bed
G1 X0.1 Y20 Z0.3 F5000.0 ; Move to start position
G1 X0.1 Y200.0 Z0.3 F1500.0 E15 ; Draw the first line
G1 X0.4 Y200.0 Z0.3 F5000.0 ; Move to side a little
G1 X0.4 Y20 Z0.3 F1500.0 E30 ; Draw the second line
G92 E0 ; Reset Extruder
G1 Z2.0 F3000 ; Move Z Axis up little to prevent scratching of Heat Bed
G1 X5 Y20 Z0.3 F5000.0 ; Move over to prevent blob squish
G92 E0
G92 E0
G1 F1500 E-6.5
;LAYER_COUNT:11
;LAYER:0
M107
G0 F6000 X92.918 Y92.568 Z0.2
G0 X88.351 Y103.421
;TYPE:SKIRT
G1 F1500 E0
G1 F1200 X88.371 Y102.575 E0.02815
G1 X88.39 Y102.265 E0.03848
G1 X88.473 Y101.431 E0.06635
G1 X88.512 Y101.149 E0.07582
G1 X88.66 Y100.315 E0.10399
G1 X88.731 Y99.989 E0.11509
G1 X88.925 Y99.231 E0.14111
G1 X88.999 Y98.979 E0.14985
G1 X89.258 Y98.202 E0.17709
G1 X89.354 Y97.947 E0.18615
G1 X89.821 Y96.882 E0.22483
G1 X90.096 Y96.335 E0.24519
G1 X90.553 Y95.516 E0.27639
G1 X90.933 Y94.939 E0.29937
G1 X91.26 Y94.475 E0.31825
G1 X92.081 Y93.447 E0.362
G1 X92.319 Y93.183 E0.37383
G1 X92.918 Y92.568 E0.40238
G1 X93.133 Y92.364 E0.41224
G1 X93.754 Y91.818 E0.43974
G1 X93.992 Y91.624 E0.44995
G1 X94.603 Y91.16 E0.47547
G1 X94.82 Y91.007 E0.4843
G1 X95.552 Y90.528 E0.5134
G1 X96.255 Y90.131 E0.54025
G1 X96.503 Y90.001 E0.54956
G1 X97.301 Y89.623 E0.57893
G1 X97.658 Y89.471 E0.59184
G1 X98.59 Y89.123 E0.62493
G1 X98.869 Y89.033 E0.63468
G1 X99.627 Y88.818 E0.66088
G1 X99.937 Y88.742 E0.6715
G1 X100.775 Y88.571 E0.69994
G1 X101.031 Y88.529 E0.70857
G1 X101.795 Y88.431 E0.73419
G1 X102.129 Y88.4 E0.74535
G1 X102.982 Y88.354 E0.77376
G1 X103.251 Y88.35 E0.78271
G1 X104.035 Y88.367 E0.80879
G1 X104.725 Y88.406 E0.83178
G1 X107.4 Y88.522 E0.92083
G1 X109.925 Y88.561 E1.00482
G1 X112.394 Y88.528 E1.08695
G1 X115.792 Y88.369 E1.20009
G1 X116.579 Y88.351 E1.22627
G1 X117.425 Y88.371 E1.25442
G1 X117.735 Y88.39 E1.26475
G1 X118.569 Y88.473 E1.29263
G1 X118.851 Y88.512 E1.30209
G1 X119.685 Y88.66 E1.33027
G1 X120.011 Y88.731 E1.34136
G1 X120.769 Y88.925 E1.36739
G1 X121.021 Y88.999 E1.37612
G1 X121.798 Y89.258 E1.40336
G1 X122.053 Y89.354 E1.41243
G1 X123.111 Y89.818 E1.45085
G1 X123.655 Y90.091 E1.47109
G1 X124.474 Y90.547 E1.50227
G1 X125.056 Y90.929 E1.52543
G1 X125.523 Y91.258 E1.54443
G1 X126.527 Y92.057 E1.5871
G1 X126.786 Y92.289 E1.59867
G1 X127.41 Y92.894 E1.62758
G1 X127.613 Y93.107 E1.63736
G1 X128.185 Y93.757 E1.66616
G1 X128.385 Y94.003 E1.67671
G1 X128.826 Y94.584 E1.70097
G1 X128.979 Y94.8 E1.70977
G1 X129.481 Y95.566 E1.74023
G1 X129.906 Y96.327 E1.76922
G1 X130.065 Y96.636 E1.78078
G1 X130.44 Y97.443 E1.81038
G1 X130.564 Y97.741 E1.82111
G1 X130.863 Y98.546 E1.84967
G1 X130.952 Y98.818 E1.85919
G1 X131.192 Y99.667 E1.88854
G1 X131.268 Y99.983 E1.89935
G1 X131.421 Y100.733 E1.92481
G1 X131.464 Y100.989 E1.93344
G1 X131.569 Y101.791 E1.96034
G1 X131.6 Y102.124 E1.97147
G1 X131.652 Y103.002 E2.00072
G1 X131.607 Y104.337 E2.04515
G1 X131.545 Y105.024 E2.06809
G1 X131.334 Y106.396 E2.11426
G1 X131.265 Y106.71 E2.12495
G1 X131.075 Y107.448 E2.1503
G1 X131.001 Y107.7 E2.15903
G1 X130.748 Y108.459 E2.18564
G1 X130.66 Y108.694 E2.19399
G1 X130.187 Y109.776 E2.23327
G1 X129.899 Y110.349 E2.2546
G1 X129.267 Y111.446 E2.2967
G1 X129.095 Y111.708 E2.30713
G1 X128.582 Y112.431 E2.33661
G1 X128.032 Y113.101 E2.36544
G1 X127.774 Y113.394 E2.37843
G1 X127.065 Y114.128 E2.41237
G1 X124.953 Y116.12 E2.50893
G1 X123.146 Y117.921 E2.59379
G1 X121.819 Y119.309 E2.65766
G1 X120.896 Y120.295 E2.70258
G1 X120.409 Y120.783 E2.72551
G1 X118.346 Y122.726 E2.81977
G1 X116.519 Y124.546 E2.90554
G1 X115.256 Y125.87 E2.9664
G1 X114.214 Y126.979 E3.01701
G1 X113.786 Y127.41 E3.03721
G1 X113.573 Y127.613 E3.047
G1 X112.906 Y128.199 E3.07653
G1 X112.659 Y128.399 E3.0871
G1 X112.084 Y128.834 E3.11108
G1 X111.866 Y128.988 E3.11996
G1 X111.121 Y129.471 E3.14949
G1 X110.854 Y129.629 E3.15981
G1 X110.171 Y130.001 E3.18567
G1 X109.919 Y130.127 E3.19505
G1 X109.231 Y130.442 E3.22021
G1 X108.943 Y130.562 E3.23059
G1 X108.089 Y130.877 E3.26086
G1 X107.81 Y130.967 E3.27062
G1 X107.052 Y131.182 E3.29682
G1 X106.742 Y131.258 E3.30744
G1 X105.904 Y131.429 E3.33588
G1 X105.648 Y131.471 E3.34451
G1 X104.875 Y131.57 E3.37043
G1 X104.549 Y131.6 E3.38132
G1 X103.625 Y131.652 E3.4121
G1 X102.286 Y131.604 E3.45667
G1 X101.629 Y131.543 E3.47861
G1 X100.299 Y131.337 E3.52337
G1 X99.983 Y131.268 E3.53413
G1 X99.231 Y131.075 E3.55995
G1 X98.979 Y131.001 E3.56869
G1 X98.22 Y130.748 E3.5953
G1 X97.985 Y130.66 E3.60365
G1 X96.903 Y130.187 E3.64292
G1 X96.33 Y129.899 E3.66425
G1 X95.225 Y129.261 E3.70669
G1 X94.962 Y129.088 E3.71716
G1 X94.254 Y128.586 E3.74603
G1 X93.576 Y128.03 E3.77519
G1 X93.282 Y127.771 E3.78822
G1 X92.587 Y127.102 E3.82031
G1 X92.388 Y126.893 E3.82991
G1 X91.878 Y126.319 E3.85544
G1 X91.701 Y126.105 E3.86468
G1 X91.007 Y125.169 E3.90344
G1 X90.695 Y124.698 E3.92223
G1 X90.21 Y123.894 E3.95346
G1 X89.88 Y123.238 E3.97788
G1 X89.605 Y122.643 E3.99968
G1 X89.117 Y121.392 E4.04434
G1 X89.029 Y121.118 E4.05392
G1 X88.818 Y120.373 E4.07967
G1 X88.742 Y120.063 E4.09029
G1 X88.571 Y119.226 E4.1187
G1 X88.528 Y118.964 E4.12753
G1 X88.425 Y118.146 E4.15495
G1 X88.395 Y117.805 E4.16634
G1 X88.354 Y116.956 E4.19461
G1 X88.351 Y116.669 E4.20415
G1 X88.367 Y115.951 E4.22804
G1 X88.423 Y114.938 E4.26178
G1 X88.53 Y112.298 E4.34966
G1 X88.56 Y109.816 E4.43222
G1 X88.519 Y107.284 E4.51645
G1 X88.37 Y104.226 E4.61828
G1 X88.351 Y103.421 E4.64506
G0 F6000 X88.751 Y103.415
G1 F1200 X88.77 Y102.6 E4.67217
G1 X88.789 Y102.29 E4.6825
G1 X88.869 Y101.486 E4.70938
G1 X88.908 Y101.204 E4.71885
G1 X89.051 Y100.4 E4.74601
G1 X89.122 Y100.074 E4.7571
G1 X89.308 Y99.343 E4.78219
G1 X89.382 Y99.091 E4.79093
G1 X89.633 Y98.343 E4.81717
G1 X89.729 Y98.088 E4.82623
G1 X90.178 Y97.062 E4.86348
G1 X90.453 Y96.515 E4.88384
G1 X90.902 Y95.711 E4.91447
G1 X91.259 Y95.17 E4.93603
G1 X91.586 Y94.706 E4.95491
G1 X92.378 Y93.714 E4.99713
G1 X92.616 Y93.45 E5.00895
G1 X93.193 Y92.859 E5.03642
G1 X93.408 Y92.655 E5.04628
G1 X94.007 Y92.128 E5.07282
G1 X94.245 Y91.934 E5.08303
G1 X94.834 Y91.487 E5.10762
G1 X95.051 Y91.334 E5.11645
G1 X95.76 Y90.869 E5.14465
G1 X96.441 Y90.486 E5.17064
G1 X96.689 Y90.356 E5.17995
G1 X97.458 Y89.991 E5.20827
G1 X97.815 Y89.839 E5.22117
G1 X98.713 Y89.504 E5.25305
G1 X98.992 Y89.414 E5.2628
G1 X99.722 Y89.207 E5.28804
G1 X100.032 Y89.131 E5.29865
G1 X100.84 Y88.966 E5.32608
G1 X101.096 Y88.924 E5.33471
G1 X101.832 Y88.829 E5.35939
G1 X102.166 Y88.798 E5.37055
G1 X102.988 Y88.754 E5.39793
G1 X103.257 Y88.75 E5.40688
G1 X104.013 Y88.766 E5.43203
G1 X104.765 Y88.808 E5.45708
G1 X107.377 Y88.922 E5.54404
G1 X109.924 Y88.961 E5.62876
G1 X112.419 Y88.928 E5.71175
G1 X115.811 Y88.769 E5.82469
G1 X116.585 Y88.751 E5.85044
G1 X117.4 Y88.77 E5.87756
G1 X117.71 Y88.789 E5.88789
G1 X118.514 Y88.869 E5.91476
G1 X118.796 Y88.908 E5.92423
G1 X119.6 Y89.051 E5.95139
G1 X119.926 Y89.122 E5.96249
G1 X120.657 Y89.308 E5.98757
G1 X120.909 Y89.382 E5.99631
G1 X121.657 Y89.633 E6.02255
G1 X121.912 Y89.729 E6.03161
G1 X122.931 Y90.175 E6.06861
G1 X123.475 Y90.448 E6.08885
G1 X124.28 Y90.896 E6.1195
G1 X124.826 Y91.256 E6.14125
G1 X125.293 Y91.585 E6.16025
G1 X126.26 Y92.355 E6.20136
G1 X126.519 Y92.587 E6.21293
G1 X127.12 Y93.17 E6.24078
G1 X127.323 Y93.383 E6.25056
G1 X127.875 Y94.009 E6.27832
G1 X128.075 Y94.255 E6.28887
G1 X128.5 Y94.815 E6.31225
G1 X128.653 Y95.031 E6.32105
G1 X129.14 Y95.774 E6.3506
G1 X129.55 Y96.51 E6.37862
G1 X129.709 Y96.819 E6.39018
G1 X130.071 Y97.597 E6.41872
G1 X130.195 Y97.895 E6.42946
G1 X130.482 Y98.671 E6.45697
G1 X130.571 Y98.943 E6.46649
G1 X130.803 Y99.76 E6.49474
G1 X130.879 Y100.076 E6.50555
G1 X131.027 Y100.799 E6.5301
G1 X131.07 Y101.055 E6.53873
G1 X131.17 Y101.828 E6.56465
G1 X131.201 Y102.161 E6.57578
G1 X131.252 Y103.011 E6.6041
G1 X131.209 Y104.301 E6.64703
G1 X131.147 Y104.988 E6.66997
G1 X130.943 Y106.31 E6.71446
G1 X130.874 Y106.624 E6.72516
G1 X130.692 Y107.336 E6.7496
G1 X130.618 Y107.588 E6.75833
G1 X130.374 Y108.318 E6.78393
G1 X130.286 Y108.553 E6.79228
G1 X129.83 Y109.596 E6.83014
G1 X129.542 Y110.169 E6.85147
G1 X128.932 Y111.226 E6.89206
G1 X128.76 Y111.488 E6.90249
G1 X128.264 Y112.188 E6.93102
G1 X127.731 Y112.837 E6.95895
G1 X127.473 Y113.13 E6.97194
G1 X126.79 Y113.837 E7.00463
G1 X124.659 Y115.846 E7.10204
G1 X122.877 Y117.622 E7.18572
G1 X121.578 Y118.982 E7.24827
G1 X120.604 Y120.022 E7.29566
G1 X120.135 Y120.492 E7.31775
G1 X118.036 Y122.47 E7.41367
G1 X116.248 Y124.249 E7.49756
G1 X114.911 Y125.652 E7.56202
G1 X113.922 Y126.705 E7.61007
G1 X113.51 Y127.12 E7.62952
G1 X113.297 Y127.323 E7.63931
G1 X112.654 Y127.888 E7.66778
G1 X112.407 Y128.088 E7.67835
G1 X111.853 Y128.508 E7.70147
G1 X111.635 Y128.662 E7.71035
G1 X110.917 Y129.126 E7.73878
G1 X110.65 Y129.284 E7.7491
G1 X109.992 Y129.643 E7.77403
G1 X109.74 Y129.769 E7.7834
G1 X109.077 Y130.073 E7.80766
G1 X108.789 Y130.193 E7.81804
G1 X107.966 Y130.496 E7.84721
G1 X107.687 Y130.586 E7.85696
G1 X106.957 Y130.793 E7.8822
G1 X106.647 Y130.869 E7.89281
G1 X105.839 Y131.034 E7.92024
G1 X105.583 Y131.076 E7.92887
G1 X104.838 Y131.171 E7.95385
G1 X104.512 Y131.201 E7.96474
G1 X103.619 Y131.252 E7.99449
G1 X102.323 Y131.206 E8.03762
G1 X101.666 Y131.145 E8.05957
G1 X100.385 Y130.946 E8.10268
G1 X100.069 Y130.877 E8.11344
G1 X99.343 Y130.692 E8.13836
G1 X99.091 Y130.618 E8.14709
G1 X98.361 Y130.374 E8.17269
G1 X98.126 Y130.286 E8.18104
G1 X97.083 Y129.83 E8.2189
G1 X96.51 Y129.542 E8.24023
G1 X95.445 Y128.927 E8.28114
G1 X95.182 Y128.754 E8.29161
G1 X94.498 Y128.269 E8.31949
G1 X93.84 Y127.73 E8.34778
G1 X93.546 Y127.471 E8.36082
G1 X92.876 Y126.826 E8.39175
G1 X92.677 Y126.617 E8.40135
G1 X92.186 Y126.064 E8.42594
G1 X92.009 Y125.85 E8.43518
G1 X91.34 Y124.948 E8.47253
G1 X91.028 Y124.477 E8.49132
G1 X90.553 Y123.688 E8.52195
G1 X90.243 Y123.07 E8.54495
G1 X89.968 Y122.475 E8.56675
G1 X89.498 Y121.269 E8.6098
G1 X89.41 Y120.995 E8.61937
G1 X89.207 Y120.278 E8.64416
G1 X89.131 Y119.968 E8.65477
G1 X88.966 Y119.161 E8.68217
G1 X88.923 Y118.899 E8.691
G1 X88.824 Y118.111 E8.71742
G1 X88.794 Y117.77 E8.7288
G1 X88.754 Y116.952 E8.75604
G1 X88.751 Y116.665 E8.76559
G1 X88.766 Y115.973 E8.78861
G1 X88.825 Y114.906 E8.82415
G1 X88.93 Y112.319 E8.91027
G1 X88.96 Y109.814 E8.99359
G1 X88.918 Y107.259 E9.07858
G1 X88.77 Y104.207 E9.18021
G1 X88.751 Y103.415 E9.20656
G0 F6000 X89.151 Y103.409
G1 F1200 X89.169 Y102.624 E9.23267
G1 X89.188 Y102.314 E9.243
G1 X89.265 Y101.541 E9.26884
G1 X89.304 Y101.259 E9.27831
G1 X89.442 Y100.485 E9.30446
G1 X89.513 Y100.159 E9.31556
G1 X89.692 Y99.456 E9.33968
G1 X89.766 Y99.204 E9.34842
G1 X90.007 Y98.484 E9.37367
G1 X90.103 Y98.229 E9.38274
G1 X90.536 Y97.241 E9.41861
G1 X90.811 Y96.694 E9.43898
G1 X91.252 Y95.906 E9.46901
G1 X91.586 Y95.4 E9.48918
G1 X91.913 Y94.936 E9.50806
G1 X92.675 Y93.982 E9.54867
G1 X92.913 Y93.718 E9.56049
G1 X93.468 Y93.149 E9.58693
G1 X93.683 Y92.945 E9.59678
G1 X94.259 Y92.438 E9.6223
G1 X94.497 Y92.244 E9.63252
G1 X95.064 Y91.814 E9.65619
G1 X95.281 Y91.661 E9.66502
G1 X95.967 Y91.212 E9.69229
G1 X96.626 Y90.84 E9.71746
G1 X96.874 Y90.71 E9.72677
G1 X97.614 Y90.359 E9.75401
G1 X97.971 Y90.207 E9.76691
G1 X98.836 Y89.885 E9.79761
G1 X99.115 Y89.795 E9.80736
G1 X99.817 Y89.595 E9.83164
G1 X100.127 Y89.519 E9.84226
G1 X100.905 Y89.361 E9.86866
G1 X101.161 Y89.319 E9.87729
G1 X101.869 Y89.228 E9.90103
G1 X102.203 Y89.197 E9.91219
G1 X102.994 Y89.154 E9.93854
G1 X103.263 Y89.15 E9.94748
G1 X103.99 Y89.165 E9.97167
G1 X104.799 Y89.211 E9.99862
G1 X107.354 Y89.322 E10.08368
G1 X109.924 Y89.361 E10.16917
G1 X112.413 Y89.328 E10.25196
G1 X115.83 Y89.168 E10.36574
G1 X116.591 Y89.151 E10.39105
G1 X117.376 Y89.169 E10.41717
G1 X117.686 Y89.188 E10.4275
G1 X118.459 Y89.265 E10.45334
G1 X118.741 Y89.304 E10.4628
G1 X119.515 Y89.442 E10.48895
G1 X119.841 Y89.513 E10.50005
G1 X120.544 Y89.692 E10.52418
G1 X120.796 Y89.766 E10.53291
G1 X121.516 Y90.007 E10.55817
G1 X121.771 Y90.103 E10.56723
G1 X122.752 Y90.533 E10.60285
G1 X123.296 Y90.806 E10.6231
G1 X124.084 Y91.246 E10.65312
G1 X124.595 Y91.583 E10.67348
G1 X125.062 Y91.912 E10.69248
G1 X125.994 Y92.653 E10.73208
G1 X126.253 Y92.885 E10.74364
G1 X126.831 Y93.446 E10.77043
G1 X127.034 Y93.659 E10.78022
G1 X127.564 Y94.262 E10.80692
G1 X127.764 Y94.508 E10.81747
G1 X128.173 Y95.046 E10.83994
G1 X128.326 Y95.262 E10.84875
G1 X128.796 Y95.979 E10.87726
G1 X129.195 Y96.693 E10.90447
G1 X129.354 Y97.002 E10.91602
G1 X129.701 Y97.75 E10.94345
G1 X129.825 Y98.048 E10.95419
G1 X130.102 Y98.795 E10.98068
G1 X130.191 Y99.067 E10.9902
G1 X130.414 Y99.854 E11.01741
G1 X130.49 Y100.17 E11.02822
G1 X130.632 Y100.865 E11.05181
G1 X130.675 Y101.121 E11.06045
G1 X130.772 Y101.866 E11.08543
G1 X130.803 Y102.199 E11.09656
G1 X130.852 Y103.021 E11.12395
G1 X130.811 Y104.265 E11.16534
G1 X130.749 Y104.952 E11.18829
G1 X130.552 Y106.224 E11.2311
G1 X130.483 Y106.538 E11.24179
G1 X130.308 Y107.223 E11.26531
G1 X130.234 Y107.475 E11.27404
G1 X129.999 Y108.178 E11.29869
G1 X129.911 Y108.413 E11.30704
G1 X129.473 Y109.417 E11.34347
G1 X129.185 Y109.99 E11.3648
G1 X128.598 Y111.007 E11.40386
G1 X128.426 Y111.269 E11.41428
G1 X127.946 Y111.945 E11.44186
G1 X127.431 Y112.573 E11.46887
G1 X127.173 Y112.866 E11.48186
G1 X126.516 Y113.546 E11.5133
G1 X124.386 Y115.555 E11.61069
G1 X122.568 Y117.366 E11.69604
G1 X121.312 Y118.681 E11.75652
G1 X120.312 Y119.749 E11.80518
G1 X119.86 Y120.201 E11.82644
G1 X117.78 Y122.16 E11.92148
G1 X115.96 Y123.973 E12.00692
G1 X114.622 Y125.376 E12.0714
G1 X113.631 Y126.431 E12.11954
G1 X113.234 Y126.831 E12.13829
G1 X113.021 Y127.034 E12.14808
G1 X112.403 Y127.577 E12.17544
G1 X112.156 Y127.777 E12.18601
G1 X111.622 Y128.181 E12.20828
G1 X111.404 Y128.335 E12.21716
G1 X110.714 Y128.782 E12.2445
G1 X110.447 Y128.94 E12.25482
G1 X109.814 Y129.285 E12.2788
G1 X109.562 Y129.411 E12.28817
G1 X108.923 Y129.703 E12.31154
G1 X108.635 Y129.823 E12.32191
G1 X107.843 Y130.115 E12.34999
G1 X107.564 Y130.205 E12.35974
G1 X106.862 Y130.405 E12.38402
G1 X106.552 Y130.481 E12.39463
G1 X105.774 Y130.639 E12.42104
G1 X105.518 Y130.681 E12.42966
G1 X104.802 Y130.773 E12.45367
G1 X104.476 Y130.803 E12.46456
G1 X103.609 Y130.852 E12.49345
G1 X102.36 Y130.807 E12.53501
G1 X101.703 Y130.746 E12.55696
G1 X100.47 Y130.555 E12.59846
G1 X100.154 Y130.486 E12.60922
G1 X99.456 Y130.308 E12.63318
G1 X99.204 Y130.234 E12.64191
G1 X98.501 Y129.999 E12.66657
G1 X98.266 Y129.911 E12.67491
G1 X97.262 Y129.473 E12.71134
G1 X96.689 Y129.185 E12.73267
G1 X95.665 Y128.593 E12.77201
G1 X95.402 Y128.42 E12.78248
G1 X94.74 Y127.951 E12.80947
G1 X94.104 Y127.43 E12.83681
G1 X93.81 Y127.171 E12.84984
G1 X93.166 Y126.551 E12.87958
G1 X92.967 Y126.342 E12.88918
G1 X92.494 Y125.809 E12.91288
G1 X92.317 Y125.595 E12.92211
G1 X91.673 Y124.727 E12.95806
G1 X91.361 Y124.256 E12.97685
G1 X90.897 Y123.482 E13.00687
G1 X90.606 Y122.902 E13.02845
G1 X90.331 Y122.307 E13.05025
G1 X89.879 Y121.147 E13.09166
G1 X89.791 Y120.873 E13.10123
G1 X89.595 Y120.183 E13.12509
G1 X89.519 Y119.873 E13.1357
G1 X89.361 Y119.096 E13.16208
G1 X89.318 Y118.834 E13.17091
G1 X89.222 Y118.076 E13.19632
G1 X89.192 Y117.735 E13.20771
G1 X89.154 Y116.948 E13.23391
G1 X89.151 Y116.661 E13.24346
G1 X89.165 Y115.995 E13.26561
G1 X89.223 Y114.945 E13.30059
G1 X89.33 Y112.305 E13.38847
G1 X89.36 Y109.812 E13.47139
G1 X89.319 Y107.262 E13.55622
G1 X89.169 Y104.187 E13.65861
G1 X89.151 Y103.409 E13.6845
G1 F1500 E7.1845
;MESH:spacer2.stl(3)
G0 F6000 X98.677 Y103.364
G0 X99.761 Y103.328
G0 X100.417 Y102.312
G1 F1500 E13.6845
G0 F6000 X100.166 Y102.222
