;FLAVOR:Marlin
;TIME:1370
;Filament used: 0.729623m
;Layer height: 0.2
;MINX:81.302
;MINY:85.112
;MINZ:0.2
;MAXX:146.402
;MAXY:146.017
;MAXZ:8
;Generated with Cura_SteamEngine main
M82 ;absolute extrusion mode
; Ender 3 Custom Start G-code
G92 E0 ; Reset Extruder
G28 ; Home all axes
M104 S175 ; Start heating up the nozzle most of the way
M190 S60 ; Start heating the bed, wait until target temperature reached
M109 S195.0 ; Finish heating the nozzle
G1 Z2.0 F3000 ; Move Z Axis up little to prevent scratching of Heat Bed
G1 X0.1 Y20 Z0.3 F5000.0 ; Move to start position
G1 X0.1 Y200.0 Z0.3 F1500.0 E15 ; Draw the first line
G1 X0.4 Y200.0 Z0.3 F5000.0 ; Move to side a little
G1 X0.4 Y20 Z0.3 F1500.0 E30 ; Draw the second line
G92 E0 ; Reset Extruder
G1 Z2.0 F3000 ; Move Z Axis up little to prevent scratching of Heat Bed
G1 X5 Y20 Z0.3 F5000.0 ; Move over to prevent blob squish
G92 E0
G92 E0
G1 F1500 E-6.5
;LAYER_COUNT:40
;LAYER:0
M107
G0 F6000 X89.692 Y89.314 Z0.2
G0 X85.902 Y95.286
;TYPE:SKIRT
G1 F1500 E0
G1 F1200 X86.113 Y94.729 E0.01981
G1 X86.352 Y94.146 E0.04077
G1 X86.9 Y93.001 E0.08299
G1 X87.059 Y92.713 E0.09393
G1 X87.532 Y91.928 E0.12441
G1 X88.054 Y91.184 E0.15464
G1 X88.284 Y90.881 E0.16729
G1 X88.87 Y90.173 E0.19786
G1 X89.068 Y89.953 E0.2077
G1 X89.692 Y89.314 E0.23741
G1 X89.925 Y89.094 E0.24807
G1 X90.562 Y88.538 E0.27619
G1 X90.776 Y88.365 E0.28534
G1 X91.41 Y87.888 E0.31173
G1 X91.676 Y87.703 E0.32251
G1 X92.375 Y87.256 E0.3501
G1 X92.611 Y87.117 E0.35921
G1 X93.289 Y86.749 E0.38487
G1 X93.552 Y86.618 E0.39465
G1 X94.315 Y86.273 E0.4225
G1 X94.598 Y86.158 E0.43266
G1 X95.342 Y85.887 E0.45899
G1 X95.613 Y85.799 E0.46847
G1 X96.361 Y85.585 E0.49435
G1 X96.627 Y85.519 E0.50346
G1 X97.829 Y85.291 E0.54415
G1 X98.432 Y85.211 E0.56438
G1 X99.743 Y85.116 E0.6081
G1 X100.066 Y85.112 E0.61885
G1 X101.07 Y85.145 E0.65226
G1 X102.661 Y85.271 E0.70534
G1 X105.203 Y85.445 E0.79009
G1 X107.734 Y85.547 E0.87434
G1 X110.253 Y85.577 E0.95812
G1 X112.746 Y85.536 E1.04105
G1 X115.233 Y85.425 E1.12385
G1 X117.516 Y85.243 E1.20003
G1 X118.887 Y85.144 E1.24574
G1 X119.543 Y85.116 E1.26758
G1 X119.867 Y85.112 E1.27836
G1 X120.646 Y85.13 E1.30428
G1 X120.902 Y85.145 E1.31281
G1 X122.064 Y85.275 E1.3517
G1 X122.665 Y85.375 E1.37196
G1 X123.943 Y85.667 E1.41556
G1 X124.217 Y85.747 E1.42506
G1 X125.305 Y86.128 E1.4634
G1 X125.854 Y86.353 E1.48313
G1 X126.938 Y86.86 E1.52293
G1 X127.778 Y87.35 E1.55528
G1 X128.051 Y87.523 E1.56603
G1 X128.8 Y88.042 E1.59634
G1 X129.104 Y88.272 E1.60901
G1 X129.832 Y88.873 E1.64041
G1 X130.045 Y89.065 E1.64995
G1 X130.671 Y89.676 E1.67905
G1 X130.899 Y89.917 E1.69008
G1 X131.451 Y90.548 E1.71796
G1 X133.099 Y92.58 E1.80498
G1 X134.755 Y94.517 E1.88974
G1 X136.426 Y96.361 E1.97251
G1 X138.16 Y98.17 E2.05585
G1 X139.671 Y99.641 E2.12599
G1 X139.886 Y99.869 E2.13642
G1 X140.78 Y100.745 E2.17804
G1 X141.388 Y101.382 E2.20733
G1 X141.771 Y101.814 E2.22654
G1 X142.083 Y102.186 E2.24268
G1 X142.504 Y102.721 E2.26533
G1 X142.775 Y103.088 E2.2805
G1 X143.087 Y103.532 E2.29855
G1 X143.319 Y103.881 E2.31249
G1 X143.628 Y104.374 E2.33184
G1 X143.839 Y104.731 E2.34563
G1 X144.125 Y105.247 E2.36525
G1 X144.325 Y105.631 E2.37966
G1 X144.574 Y106.14 E2.3985
G1 X144.749 Y106.523 E2.41251
G1 X144.973 Y107.048 E2.43149
G1 X145.136 Y107.46 E2.44623
G1 X145.327 Y107.981 E2.46468
G1 X145.461 Y108.377 E2.47859
G1 X145.631 Y108.928 E2.49777
G1 X145.731 Y109.284 E2.51007
G1 X145.871 Y109.837 E2.52904
G1 X145.985 Y110.342 E2.54626
G1 X146.098 Y110.913 E2.56562
G1 X146.162 Y111.288 E2.57827
G1 X146.243 Y111.848 E2.59709
G1 X146.291 Y112.254 E2.61069
G1 X146.343 Y112.812 E2.62933
G1 X146.372 Y113.246 E2.6438
G1 X146.395 Y113.802 E2.6623
G1 X146.402 Y114.237 E2.67677
G1 X146.389 Y114.964 E2.70096
G1 X146.363 Y115.483 E2.71824
G1 X146.327 Y115.984 E2.73495
G1 X146.291 Y116.359 E2.74748
G1 X146.224 Y116.908 E2.76587
G1 X146.164 Y117.316 E2.77959
G1 X146.051 Y117.952 E2.80107
G1 X145.947 Y118.453 E2.81809
G1 X145.814 Y119.021 E2.8375
G1 X145.722 Y119.37 E2.8495
G1 X145.578 Y119.866 E2.86668
G1 X145.45 Y120.273 E2.88087
G1 X145.274 Y120.787 E2.89894
G1 X144.953 Y121.62 E2.92863
G1 X144.764 Y122.063 E2.94465
G1 X144.511 Y122.613 E2.96479
G1 X144.325 Y122.99 E2.97877
G1 X144.053 Y123.507 E2.9982
G1 X143.833 Y123.899 E3.01315
G1 X143.507 Y124.441 E3.03418
G1 X143.248 Y124.846 E3.05017
G1 X142.926 Y125.322 E3.06929
G1 X142.707 Y125.628 E3.0818
G1 X142.392 Y126.046 E3.09921
G1 X141.855 Y126.707 E3.12754
G1 X141.524 Y127.088 E3.14432
G1 X141.059 Y127.591 E3.16711
G1 X140.741 Y127.914 E3.18218
G1 X140.352 Y128.29 E3.20018
G1 X140.075 Y128.545 E3.2127
G1 X139.64 Y128.925 E3.23191
G1 X138.874 Y129.559 E3.26498
G1 X136.916 Y131.223 E3.35045
G1 X135.013 Y132.935 E3.43559
G1 X133.218 Y134.644 E3.51802
G1 X131.426 Y136.451 E3.60266
G1 X129.69 Y138.301 E3.68704
G1 X128.373 Y139.773 E3.75274
G1 X128.015 Y140.155 E3.77015
G1 X127.759 Y140.415 E3.78229
G1 X127.38 Y140.782 E3.79983
G1 X127.057 Y141.08 E3.81445
G1 X126.63 Y141.454 E3.83333
G1 X126.298 Y141.73 E3.84769
G1 X125.808 Y142.114 E3.86839
G1 X125.443 Y142.384 E3.88349
G1 X124.997 Y142.698 E3.90164
G1 X124.653 Y142.927 E3.91538
G1 X124.171 Y143.23 E3.93432
G1 X123.807 Y143.446 E3.94839
G1 X123.254 Y143.752 E3.96942
G1 X122.87 Y143.951 E3.9838
G1 X122.374 Y144.193 E4.00216
G1 X121.986 Y144.37 E4.01634
G1 X121.181 Y144.706 E4.04535
G1 X120.636 Y144.909 E4.0647
G1 X120.239 Y145.045 E4.07865
G1 X119.681 Y145.22 E4.09811
G1 X119.213 Y145.353 E4.11429
G1 X118.568 Y145.515 E4.13641
G1 X118.095 Y145.619 E4.15251
G1 X117.57 Y145.722 E4.17031
G1 X117.198 Y145.785 E4.18286
G1 X116.606 Y145.868 E4.20274
G1 X116.176 Y145.917 E4.21713
G1 X115.6 Y145.968 E4.23637
G1 X115.173 Y145.994 E4.2506
G1 X114.399 Y146.017 E4.27635
G1 X113.869 Y146.014 E4.29398
G1 X113.323 Y145.997 E4.31215
G1 X112.57 Y145.947 E4.33725
G1 X112.08 Y145.898 E4.35363
G1 X111.561 Y145.834 E4.37102
G1 X111.197 Y145.78 E4.38326
G1 X110.364 Y145.629 E4.41142
G1 X109.784 Y145.5 E4.43118
G1 X109.299 Y145.378 E4.44781
G1 X108.721 Y145.215 E4.46779
G1 X108.357 Y145.102 E4.48046
G1 X107.861 Y144.935 E4.49787
G1 X107.462 Y144.79 E4.51199
G1 X106.911 Y144.573 E4.53169
G1 X106.474 Y144.387 E4.54748
G1 X105.872 Y144.109 E4.56954
G1 X105.439 Y143.893 E4.58563
G1 X104.945 Y143.631 E4.60423
G1 X104.617 Y143.446 E4.61675
G1 X104.15 Y143.168 E4.63483
G1 X103.841 Y142.973 E4.64698
G1 X103.402 Y142.681 E4.66452
G1 X102.995 Y142.396 E4.68104
G1 X102.481 Y142.012 E4.70238
G1 X102.146 Y141.747 E4.71659
G1 X101.707 Y141.381 E4.7356
G1 X101.376 Y141.09 E4.75026
G1 X100.942 Y140.688 E4.76994
G1 X100.651 Y140.403 E4.78348
G1 X100.281 Y140.022 E4.80115
G1 X99.273 Y138.934 E4.85048
G1 X98.693 Y138.291 E4.87928
G1 X96.965 Y136.478 E4.96258
G1 X95.182 Y134.711 E5.04607
G1 X93.35 Y132.995 E5.12956
G1 X91.434 Y131.301 E5.21462
G1 X90.974 Y130.913 E5.23464
G1 X90.442 Y130.441 E5.25829
G1 X89.857 Y129.873 E5.28541
G1 X89.641 Y129.647 E5.29581
G1 X89.068 Y128.999 E5.32458
G1 X88.9 Y128.793 E5.33342
G1 X88.236 Y127.887 E5.37078
G1 X87.909 Y127.39 E5.39057
G1 X87.228 Y126.2 E5.43617
G1 X87.074 Y125.887 E5.44777
G1 X86.782 Y125.243 E5.47129
G1 X86.115 Y123.633 E5.52926
G1 X85.095 Y121.288 E5.61431
G1 X83.402 Y117.745 E5.74491
G1 X82.808 Y116.558 E5.78906
G1 X82.461 Y115.792 E5.81703
G1 X82.356 Y115.535 E5.82626
G1 X82.079 Y114.78 E5.85301
G1 X81.995 Y114.522 E5.86204
G1 X81.76 Y113.688 E5.89085
G1 X81.679 Y113.351 E5.90238
G1 X81.519 Y112.561 E5.92919
G1 X81.477 Y112.305 E5.93782
G1 X81.374 Y111.488 E5.96521
G1 X81.347 Y111.181 E5.97546
G1 X81.306 Y110.36 E6.0028
G1 X81.302 Y110.052 E6.01304
G1 X81.323 Y109.214 E6.04093
G1 X81.342 Y108.914 E6.05092
G1 X81.421 Y108.119 E6.0775
G1 X81.459 Y107.841 E6.08683
G1 X81.602 Y107.029 E6.11425
G1 X81.669 Y106.716 E6.1249
G1 X81.874 Y105.89 E6.1532
G1 X82.144 Y105.054 E6.18242
G1 X82.427 Y104.31 E6.2089
G1 X82.744 Y103.549 E6.23632
G1 X83.265 Y102.359 E6.27952
G1 X84.219 Y100 E6.36416
G1 X85.091 Y97.66 E6.44721
G1 X85.902 Y95.286 E6.53065
G1 F1500 E0.03065
G0 F6000 X84.593 Y100.142
G1 F1500 E6.53065
G1 F1200 X85.466 Y97.802 E6.61372
G1 X85.995 Y96.236 E6.6687
G1 X86.28 Y95.417 E6.69754
G1 X86.483 Y94.88 E6.71664
G1 X86.722 Y94.297 E6.73759
G1 X87.25 Y93.195 E6.77824
G1 X87.409 Y92.907 E6.78918
G1 X87.867 Y92.145 E6.81875
G1 X88.373 Y91.426 E6.84799
G1 X88.603 Y91.123 E6.86064
G1 X89.167 Y90.441 E6.89008
G1 X89.365 Y90.221 E6.89992
G1 X89.967 Y89.605 E6.92857
G1 X90.2 Y89.385 E6.93923
G1 X90.813 Y88.849 E6.96631
G1 X91.027 Y88.676 E6.97546
G1 X91.639 Y88.217 E7.00091
G1 X91.905 Y88.032 E7.01168
G1 X92.578 Y87.6 E7.03828
G1 X92.814 Y87.461 E7.04739
G1 X93.467 Y87.107 E7.0721
G1 X93.73 Y86.976 E7.08187
G1 X94.465 Y86.644 E7.10869
G1 X94.748 Y86.529 E7.11885
G1 X95.465 Y86.267 E7.14424
G1 X95.736 Y86.179 E7.15372
G1 X96.457 Y85.973 E7.17866
G1 X96.723 Y85.907 E7.18778
G1 X97.882 Y85.687 E7.22701
G1 X98.485 Y85.607 E7.24724
G1 X99.748 Y85.516 E7.28936
G1 X100.071 Y85.512 E7.30011
G1 X101.039 Y85.544 E7.33232
G1 X102.611 Y85.669 E7.38477
G1 X105.193 Y85.845 E7.47085
G1 X107.713 Y85.947 E7.55473
G1 X110.22 Y85.977 E7.63812
G1 X112.807 Y85.934 E7.72417
G1 X115.254 Y85.825 E7.80564
G1 X117.545 Y85.642 E7.88208
G1 X118.916 Y85.543 E7.9278
G1 X119.548 Y85.516 E7.94884
G1 X119.872 Y85.512 E7.95962
G1 X120.623 Y85.529 E7.9846
G1 X120.879 Y85.544 E7.99313
G1 X121.999 Y85.67 E8.03062
G1 X122.6 Y85.77 E8.05088
G1 X123.831 Y86.051 E8.09288
G1 X124.105 Y86.131 E8.10237
G1 X125.154 Y86.498 E8.13934
G1 X125.703 Y86.723 E8.15907
G1 X126.748 Y87.214 E8.19747
G1 X127.564 Y87.687 E8.22884
G1 X127.837 Y87.86 E8.23959
G1 X128.559 Y88.361 E8.26882
G1 X128.863 Y88.591 E8.2815
G1 X129.564 Y89.171 E8.31176
G1 X129.777 Y89.363 E8.3213
G1 X130.38 Y89.951 E8.34931
G1 X130.608 Y90.192 E8.36035
G1 X131.141 Y90.8 E8.38724
G1 X132.805 Y92.851 E8.47508
G1 X134.438 Y94.762 E8.55869
G1 X136.158 Y96.66 E8.64388
G1 X137.875 Y98.451 E8.7264
G1 X139.392 Y99.928 E8.79682
G1 X139.608 Y100.157 E8.80729
G1 X140.5 Y101.031 E8.84883
G1 X141.096 Y101.654 E8.87751
G1 X141.465 Y102.071 E8.89603
G1 X141.777 Y102.443 E8.91217
G1 X142.182 Y102.958 E8.93397
G1 X142.453 Y103.325 E8.94914
G1 X142.754 Y103.754 E8.96657
G1 X142.986 Y104.103 E8.98051
G1 X143.283 Y104.578 E8.99914
G1 X143.494 Y104.935 E9.01293
G1 X143.77 Y105.431 E9.03181
G1 X143.97 Y105.815 E9.04621
G1 X144.21 Y106.307 E9.06442
G1 X144.385 Y106.69 E9.07843
G1 X144.601 Y107.195 E9.09669
G1 X144.764 Y107.607 E9.11143
G1 X144.948 Y108.109 E9.12921
G1 X145.082 Y108.505 E9.14312
G1 X145.246 Y109.036 E9.1616
G1 X145.346 Y109.392 E9.1739
G1 X145.481 Y109.925 E9.19219
G1 X145.595 Y110.43 E9.20941
G1 X145.704 Y110.981 E9.22809
G1 X145.768 Y111.356 E9.24074
G1 X145.846 Y111.894 E9.25882
G1 X145.894 Y112.3 E9.27242
G1 X145.943 Y112.838 E9.29039
G1 X145.972 Y113.272 E9.30486
G1 X145.995 Y113.808 E9.3227
G1 X146.002 Y114.243 E9.33717
G1 X145.99 Y114.944 E9.36049
G1 X145.964 Y115.463 E9.37777
G1 X145.892 Y116.321 E9.40641
G1 X145.828 Y116.85 E9.42413
G1 X145.768 Y117.258 E9.43785
G1 X145.66 Y117.87 E9.45852
G1 X145.556 Y118.371 E9.47554
G1 X145.427 Y118.919 E9.49426
G1 X145.197 Y119.746 E9.52281
G1 X145.069 Y120.153 E9.537
G1 X144.899 Y120.649 E9.55444
G1 X144.585 Y121.463 E9.58346
G1 X144.396 Y121.906 E9.59948
G1 X144.152 Y122.436 E9.61888
G1 X143.966 Y122.813 E9.63287
G1 X143.704 Y123.311 E9.65158
G1 X143.484 Y123.703 E9.66653
G1 X143.17 Y124.226 E9.68682
G1 X142.911 Y124.631 E9.70281
G1 X142.601 Y125.089 E9.72121
G1 X142.382 Y125.395 E9.73372
G1 X142.079 Y125.798 E9.75049
G1 X141.553 Y126.445 E9.77823
G1 X141.222 Y126.826 E9.79501
G1 X140.774 Y127.311 E9.81697
G1 X140.456 Y127.634 E9.83205
G1 X140.081 Y127.996 E9.84938
G1 X139.804 Y128.251 E9.86191
G1 X139.385 Y128.617 E9.88041
G1 X138.601 Y129.266 E9.91426
G1 X136.651 Y130.923 E9.99937
G1 X134.754 Y132.629 E10.08423
G1 X132.923 Y134.373 E10.16833
G1 X131.151 Y136.159 E10.25201
G1 X129.383 Y138.045 E10.33799
G1 X128.075 Y139.506 E10.40321
G1 X127.73 Y139.874 E10.41999
G1 X127.109 Y140.488 E10.44904
G1 X126.786 Y140.786 E10.46365
G1 X126.374 Y141.146 E10.48185
G1 X126.042 Y141.422 E10.49621
G1 X125.57 Y141.793 E10.51618
G1 X125.205 Y142.063 E10.53128
G1 X124.775 Y142.365 E10.54876
G1 X124.431 Y142.594 E10.5625
G1 X123.966 Y142.886 E10.58076
G1 X123.602 Y143.102 E10.59484
G1 X123.07 Y143.397 E10.61507
G1 X122.686 Y143.596 E10.62946
G1 X122.208 Y143.829 E10.64715
G1 X121.82 Y144.006 E10.66133
G1 X121.032 Y144.335 E10.68973
G1 X120.506 Y144.531 E10.7084
G1 X120.109 Y144.667 E10.72236
G1 X119.572 Y144.835 E10.74107
G1 X119.104 Y144.968 E10.75726
G1 X118.482 Y145.125 E10.77859
G1 X118.009 Y145.229 E10.7947
G1 X117.503 Y145.327 E10.81184
G1 X117.131 Y145.39 E10.82439
G1 X116.561 Y145.471 E10.84354
G1 X116.131 Y145.52 E10.85793
G1 X115.575 Y145.568 E10.8765
G1 X115.148 Y145.594 E10.89072
G1 X114.392 Y145.617 E10.91588
G1 X113.881 Y145.614 E10.93288
G1 X113.335 Y145.597 E10.95105
G1 X112.61 Y145.549 E10.97521
G1 X112.12 Y145.5 E10.99159
G1 X111.619 Y145.438 E11.00838
G1 X111.255 Y145.384 E11.02062
G1 X110.441 Y145.236 E11.04814
G1 X109.881 Y145.112 E11.06721
G1 X109.396 Y144.99 E11.08385
G1 X108.839 Y144.833 E11.1031
G1 X107.998 Y144.56 E11.1325
G1 X107.599 Y144.415 E11.14662
G1 X107.068 Y144.205 E11.16562
G1 X106.631 Y144.019 E11.18141
G1 X106.05 Y143.751 E11.20269
G1 X105.617 Y143.535 E11.21879
G1 X105.142 Y143.283 E11.23667
G1 X104.814 Y143.098 E11.2492
G1 X104.364 Y142.829 E11.26663
G1 X103.632 Y142.353 E11.29568
G1 X103.225 Y142.068 E11.3122
G1 X102.729 Y141.698 E11.33278
G1 X102.394 Y141.433 E11.34699
G1 X101.971 Y141.081 E11.36529
G1 X101.64 Y140.79 E11.37995
G1 X101.222 Y140.402 E11.39892
G1 X100.931 Y140.117 E11.41247
G1 X100.574 Y139.75 E11.4295
G1 X99.673 Y138.778 E11.47358
G1 X98.998 Y138.03 E11.50709
G1 X97.271 Y136.219 E11.59032
G1 X95.453 Y134.418 E11.67544
G1 X93.606 Y132.686 E11.75965
G1 X91.697 Y130.999 E11.84439
G1 X91.232 Y130.607 E11.86461
G1 X90.709 Y130.144 E11.88785
G1 X90.146 Y129.597 E11.91395
G1 X89.93 Y129.371 E11.92435
G1 X89.378 Y128.746 E11.95209
G1 X89.21 Y128.54 E11.96093
G1 X88.57 Y127.667 E11.99693
G1 X88.243 Y127.17 E12.01672
G1 X87.587 Y126.024 E12.06064
G1 X87.433 Y125.711 E12.07224
G1 X87.152 Y125.09 E12.09491
G1 X86.484 Y123.478 E12.15295
G1 X85.459 Y121.121 E12.23843
G1 X83.753 Y117.55 E12.37006
G1 X83.166 Y116.378 E12.41366
G1 X82.831 Y115.641 E12.44059
G1 X82.726 Y115.384 E12.44982
G1 X82.46 Y114.657 E12.47557
G1 X82.376 Y114.399 E12.48459
G1 X82.149 Y113.594 E12.51241
G1 X82.068 Y113.257 E12.52394
G1 X81.914 Y112.496 E12.54976
G1 X81.872 Y112.24 E12.55839
G1 X81.773 Y111.453 E12.58477
G1 X81.746 Y111.146 E12.59502
G1 X81.706 Y110.355 E12.62136
G1 X81.702 Y110.047 E12.63161
G1 X81.722 Y109.239 E12.65849
G1 X81.741 Y108.939 E12.66849
G1 X81.818 Y108.173 E12.6941
G1 X81.856 Y107.895 E12.70343
G1 X81.993 Y107.112 E12.72987
G1 X82.06 Y106.799 E12.74051
G1 X82.259 Y105.998 E12.76796
G1 X82.521 Y105.19 E12.79622
G1 X82.796 Y104.464 E12.82204
G1 X83.113 Y103.703 E12.84946
G1 X83.638 Y102.504 E12.89299
G1 X84.593 Y100.142 E12.97773
G1 F1500 E6.47773
G0 F6000 X82.102 Y110.041
G1 F1500 E12.97773
G1 F1200 X82.121 Y109.264 E13.00358
G1 X82.14 Y108.964 E13.01358
G1 X82.214 Y108.228 E13.03818
G1 X82.252 Y107.95 E13.04751
G1 X82.384 Y107.196 E13.07297
G1 X82.451 Y106.883 E13.08362
G1 X82.645 Y106.108 E13.11019
G1 X82.897 Y105.326 E13.13752
G1 X83.165 Y104.618 E13.1627
G1 X83.482 Y103.857 E13.19012
G1 X84.011 Y102.649 E13.23398
G1 X84.968 Y100.283 E13.31886
G1 X85.84 Y97.943 E13.40192
G1 X86.658 Y95.549 E13.48607
G1 X86.853 Y95.032 E13.50444
G1 X87.092 Y94.449 E13.5254
G1 X87.6 Y93.388 E13.56453
G1 X87.759 Y93.1 E13.57547
G1 X88.203 Y92.362 E13.60411
G1 X88.692 Y91.668 E13.63235
G1 X88.922 Y91.365 E13.645
G1 X89.464 Y90.709 E13.67331
G1 X89.662 Y90.489 E13.68315
G1 X90.241 Y89.896 E13.71072
G1 X90.474 Y89.676 E13.72137
G1 X91.065 Y89.16 E13.74747
G1 X91.279 Y88.987 E13.75662
G1 X91.867 Y88.545 E13.78109
G1 X92.133 Y88.36 E13.79186
G1 X92.781 Y87.945 E13.81746
G1 X93.017 Y87.806 E13.82657
G1 X93.645 Y87.465 E13.85033
G1 X93.908 Y87.334 E13.86011
