;FLAVOR:Marlin
;TIME:495
;Filament used: 0.185915m
;Layer height: 0.2
;MINX:90.819
;MINY:90.325
;MINZ:0.2
;MAXX:129.181
;MAXY:128.686
;MAXZ:8
;Generated with Cura_SteamEngine main
M82 ;absolute extrusion mode
; Ender 3 Custom Start G-code
G92 E0 ; Reset Extruder
G28 ; Home all axes
M104 S175 ; Start heating up the nozzle most of the way
M190 S60 ; Start heating the bed, wait until target temperature reached
M109 S195.0 ; Finish heating the nozzle
G1 Z2.0 F3000 ; Move Z Axis up little to prevent scratching of Heat Bed
G1 X0.1 Y20 Z0.3 F5000.0 ; Move to start position
G1 X0.1 Y200.0 Z0.3 F1500.0 E15 ; Draw the first line
G1 X0.4 Y200.0 Z0.3 F5000.0 ; Move to side a little
G1 X0.4 Y20 Z0.3 F1500.0 E30 ; Draw the second line
G92 E0 ; Reset Extruder
G1 Z2.0 F3000 ; Move Z Axis up little to prevent scratching of Heat Bed
G1 X5 Y20 Z0.3 F5000.0 ; Move over to prevent blob squish
G92 E0
G92 E0
G1 F1500 E-6.5
;LAYER_COUNT:40
;LAYER:0
M107
G0 F6000 X96.221 Y96.163 Z0.2
G0 X90.819 Y109.551
;TYPE:SKIRT
G1 F1500 E0
G1 F1200 X90.831 Y108.863 E0.02289
G1 X90.856 Y108.347 E0.04007
G1 X90.926 Y107.489 E0.0687
G1 X91.004 Y106.857 E0.08988
G1 X91.08 Y106.364 E0.10647
G1 X91.236 Y105.526 E0.13482
G1 X91.38 Y104.897 E0.15628
G1 X91.482 Y104.505 E0.16976
G1 X91.632 Y103.982 E0.18785
G1 X91.76 Y103.574 E0.20208
G1 X91.945 Y103.034 E0.22106
G1 X92.1 Y102.617 E0.23586
G1 X92.314 Y102.085 E0.25493
G1 X92.48 Y101.701 E0.26884
G1 X92.704 Y101.215 E0.28664
G1 X92.874 Y100.869 E0.29946
G1 X93.138 Y100.366 E0.31836
G1 X93.362 Y99.964 E0.33366
G1 X93.71 Y99.383 E0.35619
G1 X93.983 Y98.957 E0.37302
G1 X94.285 Y98.51 E0.39096
G1 X94.493 Y98.218 E0.40288
G1 X94.822 Y97.779 E0.42113
G1 X95.086 Y97.445 E0.43529
G1 X95.487 Y96.966 E0.45607
G1 X95.817 Y96.594 E0.47261
G1 X96.221 Y96.163 E0.49226
G1 X96.8 Y95.591 E0.51933
G1 X97.086 Y95.325 E0.53232
G1 X97.506 Y94.954 E0.55096
G1 X97.873 Y94.646 E0.56689
G1 X98.41 Y94.223 E0.58963
G1 X98.777 Y93.952 E0.6048
G1 X99.209 Y93.648 E0.62237
G1 X99.524 Y93.438 E0.63496
G1 X100.002 Y93.138 E0.65373
G1 X100.397 Y92.903 E0.66902
G1 X100.887 Y92.627 E0.68773
G1 X101.194 Y92.465 E0.69927
G1 X101.709 Y92.211 E0.71837
G1 X102.165 Y92 E0.73508
G1 X102.737 Y91.754 E0.75579
G1 X103.149 Y91.591 E0.77053
G1 X103.67 Y91.4 E0.78898
G1 X104.066 Y91.266 E0.80289
G1 X104.615 Y91.096 E0.822
G1 X104.985 Y90.992 E0.83479
G1 X105.479 Y90.866 E0.85174
G1 X105.889 Y90.771 E0.86574
G1 X106.508 Y90.646 E0.88674
G1 X106.985 Y90.564 E0.90284
G1 X107.567 Y90.48 E0.9224
G1 X107.959 Y90.434 E0.93553
G1 X108.521 Y90.383 E0.9543
G1 X108.948 Y90.355 E0.96853
G1 X109.489 Y90.332 E0.98654
G1 X109.92 Y90.325 E1.00088
G1 X110.55 Y90.333 E1.02183
G1 X111.43 Y90.38 E1.05114
G1 X111.919 Y90.422 E1.06747
G1 X112.602 Y90.503 E1.09034
G1 X113.024 Y90.566 E1.10453
G1 X113.562 Y90.66 E1.1227
G1 X114.001 Y90.748 E1.13759
G1 X114.577 Y90.879 E1.15724
G1 X114.97 Y90.98 E1.17073
G1 X115.513 Y91.135 E1.18952
G1 X115.913 Y91.26 E1.20345
G1 X116.473 Y91.451 E1.22313
G1 X116.897 Y91.609 E1.23818
G1 X117.421 Y91.82 E1.25697
G1 X117.805 Y91.986 E1.27089
G1 X118.341 Y92.235 E1.29054
G1 X118.763 Y92.445 E1.30622
G1 X119.269 Y92.714 E1.32528
G1 X119.595 Y92.898 E1.33773
G1 X120.053 Y93.171 E1.35546
G1 X120.364 Y93.367 E1.36769
G1 X120.809 Y93.662 E1.38545
G1 X121.216 Y93.947 E1.40197
G1 X121.727 Y94.328 E1.42317
G1 X122.061 Y94.592 E1.43733
G1 X122.522 Y94.978 E1.45733
G1 X122.882 Y95.296 E1.47331
G1 X123.348 Y95.732 E1.49453
G1 X123.913 Y96.305 E1.5213
G1 X124.18 Y96.592 E1.53434
G1 X124.554 Y97.015 E1.55312
G1 X124.861 Y97.381 E1.56901
G1 X125.27 Y97.9 E1.59098
G1 X125.542 Y98.267 E1.60618
G1 X125.866 Y98.727 E1.62489
G1 X126.098 Y99.076 E1.63883
G1 X126.407 Y99.569 E1.65818
G1 X126.618 Y99.926 E1.67197
G1 X126.899 Y100.432 E1.69122
G1 X127.088 Y100.794 E1.70481
G1 X127.333 Y101.294 E1.72333
G1 X127.519 Y101.699 E1.73815
G1 X127.738 Y102.209 E1.75661
G1 X127.897 Y102.607 E1.77086
G1 X128.126 Y103.236 E1.79313
G1 X128.282 Y103.708 E1.80966
G1 X128.44 Y104.227 E1.82771
G1 X128.536 Y104.574 E1.83968
G1 X128.66 Y105.068 E1.85662
G1 X128.753 Y105.477 E1.87057
G1 X128.866 Y106.043 E1.88977
G1 X128.932 Y106.425 E1.90266
G1 X129.013 Y106.972 E1.92105
G1 X129.068 Y107.425 E1.93623
G1 X129.125 Y108.04 E1.95677
G1 X129.154 Y108.488 E1.97171
G1 X129.176 Y109.065 E1.99091
G1 X129.181 Y109.475 E2.00455
G1 X129.173 Y110.045 E2.02351
G1 X129.157 Y110.448 E2.03692
G1 X129.124 Y110.974 E2.05445
G1 X129.086 Y111.407 E2.06891
G1 X129.015 Y112.021 E2.08947
G1 X128.949 Y112.477 E2.10479
G1 X128.849 Y113.054 E2.12427
G1 X128.759 Y113.505 E2.13956
G1 X128.618 Y114.122 E2.16062
G1 X128.516 Y114.514 E2.17409
G1 X128.356 Y115.069 E2.1933
G1 X128.213 Y115.52 E2.20903
G1 X128.035 Y116.036 E2.22719
G1 X127.899 Y116.401 E2.24014
G1 X127.68 Y116.944 E2.25962
G1 X127.514 Y117.326 E2.27347
G1 X127.278 Y117.832 E2.29204
G1 X127.078 Y118.235 E2.30701
G1 X126.805 Y118.752 E2.32645
G1 X126.599 Y119.117 E2.34039
G1 X126.317 Y119.588 E2.35865
G1 X126.109 Y119.917 E2.3716
G1 X125.799 Y120.381 E2.39016
G1 X125.533 Y120.758 E2.4055
G1 X125.164 Y121.25 E2.42596
G1 X124.896 Y121.588 E2.4403
G1 X124.524 Y122.033 E2.4596
G1 X124.223 Y122.374 E2.47472
G1 X123.822 Y122.804 E2.49428
G1 X123.225 Y123.395 E2.52222
G1 X122.846 Y123.746 E2.5394
G1 X122.382 Y124.152 E2.55991
G1 X122.047 Y124.429 E2.57436
G1 X121.545 Y124.82 E2.59553
G1 X121.158 Y125.104 E2.61149
G1 X120.44 Y125.596 E2.64044
G1 X119.941 Y125.909 E2.66004
G1 X119.187 Y126.343 E2.68897
G1 X118.881 Y126.506 E2.7005
G1 X118.349 Y126.77 E2.72026
G1 X117.831 Y127.011 E2.73926
G1 X117.276 Y127.251 E2.75937
G1 X116.931 Y127.389 E2.77173
G1 X116.403 Y127.585 E2.79046
G1 X115.584 Y127.852 E2.81911
G1 X115.031 Y128.012 E2.83826
G1 X114.395 Y128.175 E2.8601
G1 X114.005 Y128.263 E2.87339
G1 X113.344 Y128.391 E2.89579
G1 X112.838 Y128.473 E2.91284
G1 X112 Y128.582 E2.94094
G1 X111.413 Y128.634 E2.96054
G1 X110.977 Y128.661 E2.97507
G1 X110.43 Y128.681 E2.99328
G1 X110.018 Y128.686 E3.00698
G1 X109.439 Y128.678 E3.02624
G1 X108.995 Y128.66 E3.04102
G1 X108.453 Y128.625 E3.05909
G1 X108.065 Y128.59 E3.07204
G1 X107.497 Y128.523 E3.09107
G1 X107.112 Y128.468 E3.104
G1 X106.556 Y128.374 E3.12276
G1 X106.055 Y128.276 E3.13973
G1 X105.441 Y128.138 E3.16067
G1 X105.05 Y128.038 E3.17409
G1 X104.523 Y127.889 E3.1923
G1 X103.707 Y127.624 E3.22084
G1 X103.221 Y127.448 E3.23803
G1 X102.601 Y127.201 E3.26023
G1 X102.194 Y127.025 E3.27498
G1 X101.659 Y126.777 E3.29459
G1 X101.237 Y126.567 E3.31027
G1 X100.734 Y126.3 E3.32921
G1 X100.406 Y126.115 E3.34173
G1 X99.939 Y125.837 E3.35981
G1 X99.63 Y125.642 E3.37196
G1 X99.191 Y125.35 E3.3895
G1 X98.784 Y125.065 E3.40602
G1 X98.27 Y124.681 E3.42736
G1 X97.935 Y124.416 E3.44157
G1 X97.496 Y124.05 E3.46058
G1 X97.165 Y123.759 E3.47524
G1 X96.731 Y123.357 E3.49492
G1 X96.44 Y123.072 E3.50846
G1 X95.843 Y122.447 E3.53721
G1 X95.462 Y122.016 E3.55634
G1 X95.132 Y121.622 E3.57344
G1 X94.73 Y121.112 E3.59504
G1 X94.46 Y120.748 E3.61011
G1 X94.134 Y120.285 E3.62894
G1 X93.902 Y119.936 E3.64288
G1 X93.598 Y119.451 E3.66192
G1 X93.386 Y119.093 E3.67576
G1 X93.115 Y118.607 E3.69427
G1 X92.952 Y118.297 E3.70591
G1 X92.701 Y117.789 E3.72476
G1 X92.49 Y117.332 E3.7415
G1 X92.252 Y116.776 E3.76162
G1 X92.089 Y116.365 E3.77632
G1 X91.889 Y115.82 E3.79563
G1 X91.756 Y115.425 E3.8095
G1 X91.593 Y114.896 E3.82791
G1 X91.486 Y114.516 E3.84104
G1 X91.35 Y113.985 E3.85927
G1 X91.249 Y113.543 E3.87435
G1 X91.135 Y112.976 E3.89358
G1 X91.005 Y112.152 E3.92133
G1 X90.937 Y111.608 E3.93956
G1 X90.876 Y110.967 E3.96098
G1 X90.848 Y110.542 E3.97515
G1 X90.825 Y109.975 E3.99402
G1 X90.819 Y109.551 E4.00812
G0 F6000 X91.219 Y109.545
G1 F1200 X91.23 Y108.882 E4.03018
G1 X91.255 Y108.366 E4.04736
G1 X91.324 Y107.527 E4.07536
G1 X91.4 Y106.918 E4.09577
G1 X91.476 Y106.425 E4.11236
G1 X91.629 Y105.604 E4.14014
G1 X91.768 Y104.998 E4.16082
G1 X91.87 Y104.606 E4.17429
G1 X92.014 Y104.102 E4.19172
G1 X92.142 Y103.694 E4.20595
G1 X92.32 Y103.174 E4.22423
G1 X92.475 Y102.757 E4.23902
G1 X92.681 Y102.244 E4.25741
G1 X92.847 Y101.86 E4.27133
G1 X93.063 Y101.392 E4.28847
G1 X93.233 Y101.046 E4.30129
G1 X93.487 Y100.56 E4.31953
G1 X93.711 Y100.158 E4.33484
G1 X94.046 Y99.599 E4.35651
G1 X94.319 Y99.173 E4.37334
G1 X94.61 Y98.742 E4.39064
G1 X94.818 Y98.45 E4.40256
G1 X95.136 Y98.027 E4.42016
G1 X95.4 Y97.693 E4.43432
G1 X95.786 Y97.232 E4.45432
G1 X96.116 Y96.86 E4.47086
G1 X96.505 Y96.444 E4.4898
G1 X97.072 Y95.884 E4.51631
G1 X97.358 Y95.618 E4.5293
G1 X97.763 Y95.26 E4.54728
G1 X98.13 Y94.952 E4.56321
G1 X98.647 Y94.545 E4.5851
G1 X99.014 Y94.274 E4.60027
G1 X99.431 Y93.981 E4.61722
G1 X99.746 Y93.771 E4.62981
G1 X100.206 Y93.481 E4.6479
G1 X100.601 Y93.246 E4.66319
G1 X101.074 Y92.981 E4.68122
G1 X101.381 Y92.819 E4.69277
G1 X101.877 Y92.574 E4.71117
G1 X102.333 Y92.363 E4.72788
G1 X102.884 Y92.126 E4.74783
G1 X103.296 Y91.963 E4.76256
G1 X103.798 Y91.779 E4.78035
G1 X104.194 Y91.645 E4.79425
G1 X104.724 Y91.481 E4.8127
G1 X105.094 Y91.377 E4.82549
G1 X105.979 Y91.161 E4.85579
G1 X106.576 Y91.04 E4.87605
G1 X107.053 Y90.958 E4.89214
G1 X107.614 Y90.877 E4.911
G1 X108.006 Y90.831 E4.92412
G1 X108.547 Y90.782 E4.94219
G1 X108.974 Y90.754 E4.95642
G1 X109.496 Y90.732 E4.9738
G1 X109.927 Y90.725 E4.98814
G1 X110.534 Y90.733 E5.00833
G1 X111.396 Y90.779 E5.03704
G1 X111.885 Y90.821 E5.05336
G1 X112.543 Y90.898 E5.0754
G1 X112.965 Y90.961 E5.08959
G1 X113.483 Y91.052 E5.10708
G1 X113.922 Y91.14 E5.12197
G1 X114.477 Y91.267 E5.14091
G1 X114.87 Y91.368 E5.15441
G1 X115.394 Y91.517 E5.17253
G1 X115.794 Y91.642 E5.18646
G1 X116.333 Y91.826 E5.20541
G1 X116.757 Y91.984 E5.22046
G1 X117.262 Y92.187 E5.23856
G1 X117.646 Y92.353 E5.25247
G1 X118.162 Y92.593 E5.2714
G1 X118.584 Y92.803 E5.28708
G1 X119.072 Y93.062 E5.30545
G1 X119.84 Y93.509 E5.33501
G1 X120.151 Y93.705 E5.34724
G1 X120.579 Y93.99 E5.36434
G1 X120.986 Y94.275 E5.38086
G1 X121.479 Y94.642 E5.40131
G1 X121.813 Y94.906 E5.41547
G1 X122.258 Y95.278 E5.43476
G1 X122.618 Y95.596 E5.45073
G1 X123.066 Y96.016 E5.47116
G1 X123.62 Y96.577 E5.49738
G1 X123.887 Y96.864 E5.51042
G1 X124.247 Y97.272 E5.52852
G1 X124.554 Y97.638 E5.54441
G1 X124.949 Y98.138 E5.5656
G1 X125.221 Y98.505 E5.58079
G1 X125.533 Y98.949 E5.59884
G1 X125.765 Y99.298 E5.61278
G1 X126.062 Y99.773 E5.63141
G1 X126.273 Y100.13 E5.64521
G1 X126.544 Y100.617 E5.66374
G1 X126.733 Y100.979 E5.67732
G1 X126.97 Y101.461 E5.69519
G1 X127.156 Y101.866 E5.71001
G1 X127.367 Y102.358 E5.72782
G1 X127.526 Y102.756 E5.74207
G1 X127.747 Y103.362 E5.76353
G1 X127.903 Y103.834 E5.78006
G1 X128.054 Y104.334 E5.79743
G1 X128.27 Y105.157 E5.82573
G1 X128.363 Y105.566 E5.83968
G1 X128.472 Y106.111 E5.85817
G1 X128.538 Y106.493 E5.87106
G1 X128.616 Y107.02 E5.88878
G1 X128.671 Y107.473 E5.90396
G1 X128.726 Y108.066 E5.92377
G1 X128.755 Y108.514 E5.9387
G1 X128.776 Y109.07 E5.9572
G1 X128.781 Y109.48 E5.97084
G1 X128.774 Y110.03 E5.98914
G1 X128.758 Y110.433 E6.00255
G1 X128.725 Y110.939 E6.01942
G1 X128.687 Y111.372 E6.03387
G1 X128.619 Y111.963 E6.05366
G1 X128.553 Y112.419 E6.06898
G1 X128.457 Y112.975 E6.08775
G1 X128.367 Y113.426 E6.10305
G1 X128.23 Y114.021 E6.12335
G1 X128.128 Y114.413 E6.13683
G1 X127.974 Y114.948 E6.15534
G1 X127.831 Y115.399 E6.17108
G1 X127.66 Y115.896 E6.18856
G1 X127.524 Y116.261 E6.20152
G1 X127.313 Y116.785 E6.2203
G1 X127.147 Y117.167 E6.23416
G1 X126.92 Y117.654 E6.25203
G1 X126.72 Y118.057 E6.26699
G1 X126.456 Y118.555 E6.28574
G1 X126.25 Y118.92 E6.29968
G1 X125.979 Y119.374 E6.31726
G1 X125.771 Y119.703 E6.33021
G1 X125.472 Y120.15 E6.3481
G1 X125.206 Y120.527 E6.36344
G1 X124.851 Y121.002 E6.38317
G1 X124.583 Y121.34 E6.39751
G1 X124.224 Y121.769 E6.41612
G1 X123.923 Y122.11 E6.43125
G1 X123.537 Y122.524 E6.45007
G1 X122.954 Y123.101 E6.47736
G1 X122.575 Y123.452 E6.49454
G1 X122.127 Y123.844 E6.51434
G1 X121.792 Y124.121 E6.52879
G1 X121.308 Y124.498 E6.5492
G1 X120.921 Y124.782 E6.56516
G1 X120.218 Y125.263 E6.5935
G1 X119.738 Y125.565 E6.61236
G1 X119.408 Y125.76 E6.62511
G1 X118.692 Y126.152 E6.65226
G1 X118.18 Y126.408 E6.6713
G1 X117.662 Y126.649 E6.6903
G1 X117.128 Y126.88 E6.70965
G1 X116.783 Y127.018 E6.72201
G1 X116.273 Y127.207 E6.7401
G1 X115.954 Y127.316 E6.75131
G1 X115.473 Y127.467 E6.76808
G1 X114.92 Y127.627 E6.78722
G1 X114.307 Y127.785 E6.80828
G1 X113.917 Y127.873 E6.82158
G1 X113.28 Y127.996 E6.84316
G1 X112.774 Y128.078 E6.8602
G1 X111.954 Y128.184 E6.8877
G1 X111.388 Y128.235 E6.90661
G1 X110.952 Y128.262 E6.92114
G1 X110.426 Y128.281 E6.93864
G1 X110.014 Y128.286 E6.95235
G1 X109.456 Y128.278 E6.97091
G1 X109.012 Y128.26 E6.98569
G1 X108.489 Y128.226 E7.00312
G1 X108.101 Y128.191 E7.01608
G1 X107.554 Y128.127 E7.03439
G1 X107.169 Y128.072 E7.04733
G1 X106.633 Y127.982 E7.06541
G1 X106.132 Y127.884 E7.08238
G1 X105.541 Y127.75 E7.10254
G1 X105.15 Y127.65 E7.11596
G1 X104.641 Y127.507 E7.13355
G1 X103.844 Y127.248 E7.16142
G1 X103.358 Y127.072 E7.17861
G1 X102.76 Y126.834 E7.20002
G1 X102.353 Y126.658 E7.21477
G1 X101.838 Y126.419 E7.23365
G1 X101.416 Y126.209 E7.24933
G1 X100.931 Y125.952 E7.26759
G1 X100.603 Y125.767 E7.28011
G1 X100.153 Y125.498 E7.29755
G1 X99.421 Y125.022 E7.32659
G1 X99.014 Y124.737 E7.34311
G1 X98.518 Y124.367 E7.3637
G1 X98.183 Y124.102 E7.3779
G1 X97.76 Y123.75 E7.39621
G1 X97.429 Y123.459 E7.41086
G1 X97.011 Y123.071 E7.42983
G1 X96.72 Y122.786 E7.44338
G1 X96.136 Y122.175 E7.47149
G1 X95.769 Y121.759 E7.48994
G1 X95.439 Y121.365 E7.50704
G1 X95.051 Y120.874 E7.52785
G1 X94.781 Y120.51 E7.54293
G1 X94.467 Y120.063 E7.56109
G1 X94.235 Y119.714 E7.57503
G1 X93.942 Y119.247 E7.59337
G1 X93.73 Y118.889 E7.60721
G1 X93.469 Y118.421 E7.62503
G1 X93.306 Y118.111 E7.63668
G1 X93.064 Y117.621 E7.65486
G1 X92.853 Y117.164 E7.6716
G1 X92.624 Y116.629 E7.69095
G1 X92.461 Y116.218 E7.70566
G1 X92.268 Y115.693 E7.72426
G1 X92.135 Y115.298 E7.73813
G1 X91.978 Y114.788 E7.75587
G1 X91.871 Y114.408 E7.769
G1 X91.74 Y113.896 E7.78658
G1 X91.639 Y113.454 E7.80166
G1 X91.53 Y112.908 E7.82018
G1 X91.402 Y112.103 E7.84729
G1 X91.334 Y111.559 E7.86553
G1 X91.275 Y110.941 E7.88617
G1 X91.247 Y110.516 E7.90034
G1 X91.225 Y109.969 E7.91855
G1 X91.219 Y109.545 E7.93265
G0 F6000 X91.619 Y109.539
G1 F1200 X91.63 Y108.901 E7.95387
G1 X91.655 Y108.385 E7.97106
G1 X91.722 Y107.565 E7.99842
G1 X91.795 Y106.979 E8.01806
G1 X91.871 Y106.486 E8.03465
G1 X92.021 Y105.682 E8.06186
G1 X92.155 Y105.098 E8.08178
G1 X92.257 Y104.706 E8.09526
G1 X92.396 Y104.222 E8.11201
G1 X92.524 Y103.814 E8.12623
G1 X92.695 Y103.313 E8.14383
G1 X92.85 Y102.896 E8.15863
G1 X93.048 Y102.403 E8.1763
G1 X93.214 Y102.019 E8.19022
G1 X93.422 Y101.568 E8.20673
G1 X93.592 Y101.222 E8.21956
G1 X93.837 Y100.755 E8.2371
G1 X94.061 Y100.353 E8.2524
G1 X94.383 Y99.815 E8.27326
G1 X94.656 Y99.389 E8.29009
G1 X94.936 Y98.974 E8.30674
G1 X95.144 Y98.682 E8.31866
G1 X95.45 Y98.275 E8.3356
G1 X95.714 Y97.941 E8.34976
G1 X96.086 Y97.497 E8.36902
G1 X96.416 Y97.125 E8.38556
G1 X96.79 Y96.726 E8.40375
G1 X97.344 Y96.177 E8.42969
G1 X97.63 Y95.911 E8.44268
G1 X98.02 Y95.567 E8.45998
G1 X98.387 Y95.259 E8.47592
G1 X98.885 Y94.867 E8.49699
G1 X99.252 Y94.596 E8.51217
G1 X99.653 Y94.314 E8.52847
G1 X99.968 Y94.104 E8.54106
G1 X100.411 Y93.825 E8.55848
G1 X100.806 Y93.59 E8.57376
G1 X101.261 Y93.335 E8.59111
G1 X101.568 Y93.173 E8.60266
G1 X102.045 Y92.937 E8.62036
G1 X102.501 Y92.726 E8.63707
G1 X103.032 Y92.498 E8.65629
G1 X103.444 Y92.335 E8.67103
G1 X103.927 Y92.158 E8.68814
G1 X104.323 Y92.024 E8.70204
G1 X104.832 Y91.867 E8.71976
G1 X105.66 Y91.645 E8.74827
G1 X106.07 Y91.55 E8.76227
G1 X106.644 Y91.434 E8.78175
G1 X107.121 Y91.352 E8.79784
G1 X107.66 Y91.275 E8.81595
G1 X108.052 Y91.229 E8.82908
G1 X108.574 Y91.181 E8.84651
G1 X109.001 Y91.153 E8.86075
G1 X109.502 Y91.132 E8.87743
G1 X109.933 Y91.125 E8.89176
G1 X110.517 Y91.133 E8.91119
G1 X111.362 Y91.177 E8.93933
G1 X111.851 Y91.219 E8.95565
G1 X112.484 Y91.294 E8.97686
G1 X112.906 Y91.357 E8.99105
G1 X113.405 Y91.444 E9.00789
G1 X113.844 Y91.532 E9.02279
G1 X114.378 Y91.654 E9.041
