;FLAVOR:Marlin
;TIME:1669
;Filament used: 0.771213m
;Layer height: 0.2
;MINX:94.018
;MINY:89.018
;MINZ:0.2
;MAXX:137.839
;MAXY:131.044
;MAXZ:10
;Generated with Cura_SteamEngine main
M82 ;absolute extrusion mode
; Ender 3 Custom Start G-code
G92 E0 ; Reset Extruder
G28 ; Home all axes
M104 S175 ; Start heating up the nozzle most of the way
M190 S60 ; Start heating the bed, wait until target temperature reached
M109 S195.0 ; Finish heating the nozzle
G1 Z2.0 F3000 ; Move Z Axis up little to prevent scratching of Heat Bed
G1 X0.1 Y20 Z0.3 F5000.0 ; Move to start position
G1 X0.1 Y200.0 Z0.3 F1500.0 E15 ; Draw the first line
G1 X0.4 Y200.0 Z0.3 F5000.0 ; Move to side a little
G1 X0.4 Y20 Z0.3 F1500.0 E30 ; Draw the second line
G92 E0 ; Reset Extruder
G1 Z2.0 F3000 ; Move Z Axis up little to prevent scratching of Heat Bed
G1 X5 Y20 Z0.3 F5000.0 ; Move over to prevent blob squish
G92 E0
G92 E0
G1 F1500 E-6.5
;LAYER_COUNT:50
;LAYER:0
M107
G0 F6000 X98.496 Y93.911 Z0.2
G0 X94.018 Y104.91
;TYPE:SKIRT
G1 F1500 E0
G1 F1200 X94.024 Y104.441 E0.0156
G1 X94.076 Y103.505 E0.04678
G1 X94.14 Y102.981 E0.06434
G1 X94.233 Y102.349 E0.08558
G1 X94.409 Y101.427 E0.1168
G1 X94.547 Y100.901 E0.13489
G1 X94.667 Y100.485 E0.14929
G1 X94.902 Y99.764 E0.17451
G1 X95.072 Y99.298 E0.19101
G1 X95.336 Y98.641 E0.21456
G1 X95.5 Y98.268 E0.22811
G1 X95.914 Y97.426 E0.25932
G1 X96.196 Y96.94 E0.27801
G1 X96.487 Y96.466 E0.29651
G1 X96.939 Y95.777 E0.32392
G1 X97.488 Y95.057 E0.35403
G1 X97.73 Y94.762 E0.36672
G1 X98.204 Y94.223 E0.39059
G1 X98.496 Y93.911 E0.40481
G1 X99.072 Y93.333 E0.43195
G1 X99.692 Y92.786 E0.45945
G1 X99.921 Y92.597 E0.46932
G1 X100.543 Y92.12 E0.49539
G1 X100.977 Y91.811 E0.51311
G1 X101.64 Y91.375 E0.53951
G1 X101.949 Y91.187 E0.55154
G1 X103.178 Y90.541 E0.59772
G1 X103.545 Y90.377 E0.61109
G1 X104.255 Y90.089 E0.63657
G1 X104.728 Y89.916 E0.65332
G1 X105.527 Y89.654 E0.68129
G1 X106.321 Y89.449 E0.70856
G1 X106.714 Y89.361 E0.72196
G1 X107.585 Y89.197 E0.75144
G1 X108.404 Y89.1 E0.77887
G1 X108.816 Y89.064 E0.79262
G1 X109.566 Y89.024 E0.8176
G1 X109.883 Y89.018 E0.82815
G1 X110.601 Y89.028 E0.85203
G1 X112.168 Y89.101 E0.90421
G1 X114.739 Y89.184 E0.98976
G1 X117.263 Y89.193 E1.07371
G1 X119.849 Y89.13 E1.15975
G1 X120.765 Y89.088 E1.19025
G1 X121.682 Y89.065 E1.22076
G1 X122.471 Y89.076 E1.247
G1 X122.87 Y89.096 E1.26029
G1 X123.69 Y89.164 E1.28765
G1 X124.49 Y89.282 E1.31455
G1 X124.933 Y89.362 E1.32952
G1 X125.756 Y89.544 E1.35756
G1 X126.005 Y89.609 E1.36612
G1 X126.641 Y89.795 E1.38816
G1 X126.984 Y89.907 E1.40016
G1 X127.67 Y90.157 E1.42444
G1 X127.914 Y90.255 E1.43319
G1 X128.581 Y90.549 E1.45743
G1 X128.974 Y90.738 E1.47194
G1 X129.691 Y91.115 E1.49888
G1 X129.964 Y91.272 E1.50935
G1 X130.524 Y91.618 E1.53125
G1 X130.784 Y91.789 E1.5416
G1 X131.352 Y92.188 E1.56468
G1 X131.582 Y92.361 E1.57426
G1 X132.183 Y92.847 E1.59996
G1 X132.449 Y93.078 E1.61168
G1 X133.014 Y93.605 E1.63738
G1 X133.38 Y93.971 E1.65459
G1 X134.014 Y94.662 E1.68579
G1 X134.335 Y95.061 E1.70282
G1 X134.747 Y95.599 E1.72536
G1 X135.285 Y96.367 E1.75654
G1 X135.568 Y96.836 E1.77476
G1 X135.847 Y97.325 E1.79349
G1 X136.195 Y97.986 E1.81833
G1 X136.314 Y98.232 E1.82742
G1 X136.594 Y98.86 E1.85029
G1 X136.78 Y99.315 E1.86664
G1 X137.098 Y100.197 E1.89783
G1 X137.254 Y100.748 E1.91687
G1 X137.37 Y101.201 E1.93242
G1 X137.524 Y101.892 E1.95597
G1 X137.593 Y102.258 E1.96836
G1 X137.705 Y102.988 E1.99292
G1 X137.751 Y103.372 E2.00579
G1 X137.822 Y104.289 E2.03638
G1 X137.839 Y104.767 E2.05229
G1 X137.809 Y106.06 E2.0953
G1 X137.771 Y106.522 E2.11072
G1 X137.689 Y107.236 E2.13462
G1 X137.644 Y107.539 E2.14481
G1 X137.499 Y108.318 E2.17117
G1 X137.414 Y108.699 E2.18415
G1 X137.247 Y109.352 E2.20657
G1 X137.114 Y109.813 E2.22253
G1 X136.427 Y112.312 E2.30873
G1 X135.823 Y114.781 E2.39327
G1 X135.303 Y117.201 E2.4756
G1 X134.606 Y121.094 E2.60714
G1 X134.401 Y122.01 E2.63836
G1 X134.12 Y122.904 E2.66952
G1 X133.763 Y123.771 E2.70071
G1 X133.333 Y124.605 E2.73192
G1 X132.944 Y125.238 E2.75663
G1 X132.735 Y125.553 E2.7692
G1 X132.184 Y126.311 E2.80037
G1 X131.57 Y127.02 E2.83157
G1 X130.897 Y127.674 E2.86278
G1 X130.177 Y128.265 E2.89376
G1 X129.523 Y128.748 E2.9208
G1 X129.086 Y129.053 E2.93853
G1 X128.294 Y129.557 E2.96975
G1 X127.463 Y129.991 E3.00093
G1 X126.598 Y130.353 E3.03212
G1 X125.705 Y130.64 E3.06332
G1 X124.791 Y130.85 E3.09451
G1 X123.862 Y130.981 E3.12571
G1 X122.95 Y131.032 E3.15609
G1 X121.685 Y131.044 E3.19817
G1 X120.703 Y131.021 E3.23084
G1 X119.941 Y130.985 E3.25621
G1 X117.368 Y130.898 E3.34184
G1 X114.854 Y130.886 E3.42546
G1 X112.156 Y130.949 E3.51522
G1 X111.111 Y130.989 E3.55
G1 X110.108 Y131.001 E3.58336
G1 X109.2 Y130.987 E3.61357
G1 X108.263 Y130.929 E3.64479
G1 X107.336 Y130.792 E3.67596
G1 X106.423 Y130.576 E3.70716
G1 X105.532 Y130.283 E3.73836
G1 X104.901 Y130.023 E3.76106
G1 X104.153 Y129.687 E3.78833
G1 X103.51 Y129.378 E3.81206
G1 X102.687 Y128.928 E3.84326
G1 X101.906 Y128.409 E3.87444
G1 X101.171 Y127.826 E3.90565
G1 X100.489 Y127.182 E3.93685
G1 X100.051 Y126.704 E3.95841
G1 X99.854 Y126.476 E3.96843
G1 X99.271 Y125.741 E3.99963
G1 X98.754 Y124.958 E4.03084
G1 X98.304 Y124.135 E4.06204
G1 X97.778 Y122.871 E4.10757
G1 X97.679 Y122.584 E4.11767
G1 X97.412 Y121.685 E4.14886
G1 X97.244 Y120.903 E4.17547
G1 X96.762 Y118.161 E4.26806
G1 X96.258 Y115.702 E4.35155
G1 X95.702 Y113.333 E4.43249
G1 X94.733 Y109.755 E4.55578
G1 X94.578 Y109.208 E4.57469
G1 X94.452 Y108.724 E4.59132
G1 X94.188 Y107.366 E4.63733
G1 X94.134 Y106.949 E4.65132
G1 X94.059 Y106.125 E4.67884
G1 X94.033 Y105.64 E4.69499
G1 X94.018 Y104.91 E4.71928
G0 F6000 X94.418 Y104.915
G1 F1200 X94.424 Y104.446 E4.73488
G1 X94.476 Y103.527 E4.76549
G1 X94.536 Y103.039 E4.78185
G1 X94.629 Y102.407 E4.80309
G1 X94.802 Y101.503 E4.83371
G1 X94.931 Y101.012 E4.85059
G1 X95.051 Y100.596 E4.86499
G1 X95.278 Y99.901 E4.88931
G1 X95.448 Y99.435 E4.90581
G1 X95.703 Y98.802 E4.92851
G1 X95.867 Y98.429 E4.94206
G1 X96.273 Y97.603 E4.97267
G1 X96.537 Y97.149 E4.99014
G1 X96.828 Y96.675 E5.00864
G1 X97.267 Y96.007 E5.03522
G1 X97.798 Y95.311 E5.06434
G1 X98.04 Y95.016 E5.07703
G1 X98.496 Y94.496 E5.10003
G1 X98.788 Y94.184 E5.11425
G1 X99.347 Y93.622 E5.14061
G1 X99.947 Y93.095 E5.16717
G1 X100.176 Y92.906 E5.17705
G1 X100.775 Y92.446 E5.20217
G1 X101.209 Y92.137 E5.21989
G1 X101.847 Y91.716 E5.24531
G1 X102.156 Y91.528 E5.25734
G1 X103.341 Y90.906 E5.30185
G1 X103.708 Y90.742 E5.31522
G1 X104.392 Y90.465 E5.33977
G1 X104.865 Y90.292 E5.35652
G1 X105.639 Y90.038 E5.38361
G1 X106.409 Y89.839 E5.41006
G1 X106.802 Y89.751 E5.42346
G1 X107.644 Y89.594 E5.45195
G1 X108.439 Y89.498 E5.47858
G1 X108.851 Y89.462 E5.49234
G1 X109.573 Y89.424 E5.51638
G1 X109.89 Y89.418 E5.52693
G1 X110.583 Y89.427 E5.54998
G1 X112.139 Y89.499 E5.60179
G1 X114.76 Y89.584 E5.68901
G1 X117.27 Y89.593 E5.77249
G1 X119.831 Y89.531 E5.8577
G1 X121.043 Y89.478 E5.89805
G1 X121.691 Y89.464 E5.9196
G1 X122.451 Y89.475 E5.94488
G1 X122.85 Y89.495 E5.95817
G1 X123.646 Y89.561 E5.98474
G1 X124.419 Y89.676 E6.01073
G1 X124.862 Y89.756 E6.0257
G1 X125.655 Y89.931 E6.05271
G1 X125.904 Y89.996 E6.06127
G1 X126.517 Y90.176 E6.08252
G1 X126.86 Y90.288 E6.09452
G1 X127.521 Y90.528 E6.11791
G1 X127.765 Y90.626 E6.12666
G1 X128.408 Y90.909 E6.15002
G1 X128.801 Y91.098 E6.16453
G1 X129.491 Y91.462 E6.19047
G1 X129.764 Y91.619 E6.20095
G1 X130.305 Y91.952 E6.22208
G1 X130.565 Y92.123 E6.23243
G1 X131.112 Y92.508 E6.25468
G1 X131.342 Y92.681 E6.26425
G1 X131.92 Y93.149 E6.28899
G1 X132.186 Y93.38 E6.3007
G1 X132.731 Y93.888 E6.32548
G1 X133.097 Y94.254 E6.3427
G1 X133.719 Y94.932 E6.3733
G1 X134.018 Y95.304 E6.38917
G1 X134.43 Y95.842 E6.41171
G1 X134.957 Y96.597 E6.44234
G1 X135.221 Y97.034 E6.45932
G1 X135.5 Y97.523 E6.47804
G1 X135.835 Y98.16 E6.50198
G1 X135.954 Y98.406 E6.51107
G1 X136.224 Y99.011 E6.53311
G1 X136.41 Y99.466 E6.54945
G1 X136.721 Y100.333 E6.58009
G1 X136.867 Y100.847 E6.59786
G1 X136.983 Y101.3 E6.61342
G1 X137.131 Y101.966 E6.63611
G1 X137.2 Y102.332 E6.64849
G1 X137.308 Y103.035 E6.67215
G1 X137.354 Y103.419 E6.68501
G1 X137.422 Y104.303 E6.7145
G1 X137.439 Y104.781 E6.73041
G1 X137.41 Y106.027 E6.77186
G1 X137.372 Y106.489 E6.78728
G1 X137.293 Y107.177 E6.81032
G1 X137.248 Y107.48 E6.8205
G1 X137.109 Y108.231 E6.84591
G1 X137.024 Y108.612 E6.85889
G1 X136.863 Y109.241 E6.88049
G1 X136.028 Y112.256 E6.98454
G1 X135.438 Y114.673 E7.06729
G1 X134.909 Y117.13 E7.15088
G1 X134.212 Y121.024 E7.28246
G1 X134.011 Y121.922 E7.31306
G1 X133.732 Y122.8 E7.3437
G1 X133.378 Y123.65 E7.37433
G1 X132.952 Y124.466 E7.40494
G1 X132.611 Y125.016 E7.42647
G1 X132.402 Y125.331 E7.43904
G1 X131.86 Y126.076 E7.46968
G1 X131.255 Y126.77 E7.50031
G1 X130.593 Y127.41 E7.53093
G1 X129.937 Y127.945 E7.55909
G1 X129.294 Y128.42 E7.58568
G1 X128.857 Y128.725 E7.6034
G1 X128.08 Y129.219 E7.63402
G1 X127.263 Y129.643 E7.66464
G1 X126.412 Y129.995 E7.69527
G1 X125.534 Y130.272 E7.72589
G1 X124.635 Y130.471 E7.75651
G1 X123.722 Y130.592 E7.78715
G1 X122.944 Y130.632 E7.81306
G1 X121.693 Y130.644 E7.85467
G1 X120.722 Y130.621 E7.88697
G1 X119.975 Y130.585 E7.91185
G1 X117.383 Y130.498 E7.99811
G1 X114.846 Y130.486 E8.08249
G1 X112.131 Y130.55 E8.17281
G1 X110.759 Y130.597 E8.21847
G1 X110.106 Y130.601 E8.24019
G1 X109.207 Y130.587 E8.2701
G1 X108.288 Y130.53 E8.30072
G1 X107.378 Y130.393 E8.33133
G1 X106.483 Y130.177 E8.36195
G1 X105.61 Y129.885 E8.39257
G1 X105.065 Y129.658 E8.41221
G1 X104.317 Y129.322 E8.43948
G1 X103.687 Y129.019 E8.46273
G1 X102.88 Y128.577 E8.49333
G1 X102.114 Y128.066 E8.52396
G1 X101.395 Y127.49 E8.5546
G1 X100.729 Y126.855 E8.58521
G1 X100.353 Y126.442 E8.60378
G1 X100.156 Y126.214 E8.61381
G1 X99.585 Y125.492 E8.64442
G1 X99.079 Y124.723 E8.67504
G1 X98.641 Y123.913 E8.70567
G1 X98.156 Y122.741 E8.74785
G1 X98.057 Y122.454 E8.75795
G1 X97.795 Y121.571 E8.78858
G1 X97.638 Y120.834 E8.81365
G1 X97.154 Y118.083 E8.90655
G1 X96.651 Y115.628 E8.9899
G1 X96.088 Y113.227 E9.07193
G1 X95.129 Y109.686 E9.19394
G1 X94.965 Y109.107 E9.21396
G1 X94.839 Y108.623 E9.23059
G1 X94.585 Y107.314 E9.27494
G1 X94.531 Y106.897 E9.28893
G1 X94.458 Y106.103 E9.31545
G1 X94.432 Y105.618 E9.3316
G1 X94.418 Y104.915 E9.35499
G0 F6000 X94.818 Y104.921
G1 F1200 X94.824 Y104.452 E9.37059
G1 X94.875 Y103.55 E9.40064
G1 X94.932 Y103.097 E9.41582
G1 X95.025 Y102.465 E9.43707
G1 X95.196 Y101.578 E9.46711
G1 X95.316 Y101.123 E9.48276
G1 X95.436 Y100.707 E9.49716
G1 X95.654 Y100.038 E9.52057
G1 X95.824 Y99.572 E9.53707
G1 X96.069 Y98.963 E9.5589
G1 X96.233 Y98.59 E9.57245
G1 X96.632 Y97.78 E9.60248
G1 X96.877 Y97.358 E9.61871
G1 X97.168 Y96.884 E9.63721
G1 X97.596 Y96.236 E9.66304
G1 X98.107 Y95.565 E9.69109
G1 X98.349 Y95.27 E9.70378
G1 X98.788 Y94.769 E9.72594
G1 X99.08 Y94.457 E9.74015
G1 X99.62 Y93.914 E9.76562
G1 X100.201 Y93.403 E9.79136
G1 X100.43 Y93.214 E9.80123
G1 X101.007 Y92.772 E9.82541
G1 X101.441 Y92.463 E9.84313
G1 X102.055 Y92.058 E9.86759
G1 X102.364 Y91.87 E9.87962
G1 X103.505 Y91.272 E9.92247
G1 X103.872 Y91.108 E9.93584
G1 X104.529 Y90.841 E9.95943
G1 X105.002 Y90.668 E9.97618
G1 X105.749 Y90.423 E10.00232
G1 X106.496 Y90.229 E10.02799
G1 X106.889 Y90.141 E10.04139
G1 X107.707 Y89.988 E10.06907
G1 X108.474 Y89.897 E10.09476
G1 X108.886 Y89.861 E10.10851
G1 X109.581 Y89.824 E10.13166
G1 X109.898 Y89.818 E10.14221
G1 X110.564 Y89.827 E10.16436
G1 X112.107 Y89.899 E10.21574
G1 X114.745 Y89.984 E10.30352
G1 X117.279 Y89.993 E10.3878
G1 X119.86 Y89.93 E10.47367
G1 X121.052 Y89.878 E10.51336
G1 X121.7 Y89.864 E10.53492
G1 X122.431 Y89.875 E10.55923
G1 X122.83 Y89.895 E10.57252
G1 X123.492 Y89.95 E10.59461
G1 X124.348 Y90.069 E10.62336
G1 X124.791 Y90.149 E10.63833
G1 X125.554 Y90.318 E10.66432
G1 X125.803 Y90.383 E10.67288
G1 X126.393 Y90.556 E10.69333
G1 X126.736 Y90.668 E10.70533
G1 X127.372 Y90.899 E10.72784
G1 X127.616 Y90.997 E10.73658
G1 X128.235 Y91.27 E10.75908
G1 X128.628 Y91.459 E10.77359
G1 X129.292 Y91.809 E10.79855
G1 X129.565 Y91.966 E10.80903
G1 X130.085 Y92.286 E10.82934
G1 X130.345 Y92.457 E10.83969
G1 X130.871 Y92.828 E10.86109
G1 X131.101 Y93.001 E10.87067
G1 X131.658 Y93.451 E10.89448
G1 X131.924 Y93.682 E10.9062
G1 X132.448 Y94.171 E10.93004
G1 X132.814 Y94.537 E10.94726
G1 X133.7 Y95.547 E10.99194
G1 X134.112 Y96.085 E11.01448
G1 X134.629 Y96.826 E11.04453
G1 X134.873 Y97.232 E11.06029
G1 X135.152 Y97.721 E11.07901
G1 X135.475 Y98.334 E11.10206
G1 X135.594 Y98.58 E11.11115
G1 X135.854 Y99.162 E11.13235
G1 X136.04 Y99.617 E11.1487
G1 X136.344 Y100.468 E11.17875
G1 X136.479 Y100.947 E11.1953
G1 X136.595 Y101.4 E11.21086
G1 X136.737 Y102.04 E11.23266
G1 X136.806 Y102.406 E11.24505
G1 X136.911 Y103.083 E11.26784
G1 X136.957 Y103.467 E11.2807
G1 X137.023 Y104.317 E11.30905
G1 X137.04 Y104.795 E11.32496
G1 X137.012 Y105.994 E11.36485
G1 X136.974 Y106.456 E11.38027
G1 X136.897 Y107.118 E11.40244
G1 X136.852 Y107.421 E11.41263
G1 X136.718 Y108.144 E11.43708
G1 X136.633 Y108.525 E11.45007
G1 X136.479 Y109.13 E11.47083
G1 X135.648 Y112.127 E11.57427
G1 X135.044 Y114.6 E11.65894
G1 X134.514 Y117.065 E11.7428
G1 X133.818 Y120.953 E11.87417
G1 X133.62 Y121.834 E11.90421
G1 X133.345 Y122.694 E11.93424
G1 X132.994 Y123.527 E11.9643
G1 X132.571 Y124.325 E11.99434
G1 X132.277 Y124.795 E12.01278
G1 X132.068 Y125.11 E12.02535
G1 X131.536 Y125.84 E12.0554
G1 X130.942 Y126.52 E12.08543
G1 X130.289 Y127.144 E12.11547
G1 X129.697 Y127.625 E12.14084
G1 X129.065 Y128.092 E12.16697
G1 X128.628 Y128.397 E12.1847
G1 X127.865 Y128.881 E12.21475
G1 X127.063 Y129.295 E12.24477
G1 X126.227 Y129.637 E12.27481
G1 X125.364 Y129.903 E12.30485
G1 X124.48 Y130.092 E12.33492
G1 X123.584 Y130.202 E12.36494
G1 X122.939 Y130.232 E12.38642
G1 X122.047 Y130.245 E12.41609
G1 X121.029 Y130.231 E12.44995
G1 X120.008 Y130.186 E12.48394
G1 X117.398 Y130.098 E12.5708
G1 X114.839 Y130.086 E12.65591
G1 X112.175 Y130.148 E12.74454
G1 X111.08 Y130.19 E12.78099
G1 X110.103 Y130.201 E12.81349
G1 X109.215 Y130.187 E12.84302
G1 X108.313 Y130.13 E12.87309
G1 X107.421 Y129.994 E12.9031
G1 X106.544 Y129.779 E12.93313
G1 X105.689 Y129.487 E12.96318
G1 X105.228 Y129.293 E12.97981
G1 X104.48 Y128.957 E13.00709
G1 X103.864 Y128.661 E13.02982
G1 X103.072 Y128.226 E13.05987
G1 X102.322 Y127.723 E13.08991
G1 X101.62 Y127.155 E13.11994
G1 X100.97 Y126.528 E13.14998
G1 X100.459 Y125.953 E13.17557
G1 X99.899 Y125.244 E13.20562
G1 X99.405 Y124.488 E13.23565
G1 X98.979 Y123.692 E13.26568
G1 X98.535 Y122.61 E13.30458
G1 X98.436 Y122.323 E13.31468
G1 X98.179 Y121.457 E13.34472
G1 X98.032 Y120.764 E13.36828
G1 X97.548 Y118.012 E13.46122
G1 X97.046 Y115.562 E13.5444
G1 X96.467 Y113.094 E13.62872
G1 X95.529 Y109.63 E13.74808
G1 X95.352 Y109.007 E13.76962
G1 X95.226 Y108.523 E13.78625
G1 X94.981 Y107.263 E13.82895
G1 X94.927 Y106.846 E13.84293
G1 X94.858 Y106.082 E13.86845
G1 X94.832 Y105.597 E13.8846
G1 X94.818 Y104.921 E13.90709
G1 F1500 E7.40709
G0 F6000 X109.87 Y112.597
G1 F1500 E13.90709
G1 F1200 X110.131 Y112.597 E13.91577
G1 X110.132 Y118.201 E14.10216
G1 X109.868 Y118.2 E14.11094
G1 X109.87 Y112.597 E14.2973
G0 F6000 X109.47 Y112.179
G1 F1200 X109.803 Y112.197 E14.30839
G1 X110.184 Y112.197 E14.32106
G1 X110.531 Y112.178 E14.33262
G1 X110.532 Y118.561 E14.54492
G1 X110.477 Y118.6 E14.54716
G1 X109.695 Y118.6 E14.57317
G1 X109.468 Y118.492 E14.58153
G1 X109.47 Y112.179 E14.7915
G0 F6000 X109.07 Y111.734
G1 F1200 X109.372 Y111.772 E14.80163
G1 X109.803 Y111.797 E14.81599
G1 X110.246 Y111.795 E14.83072
G1 X110.63 Y111.771 E14.84352
G1 X110.931 Y111.733 E14.85361
G1 X110.932 Y118.767 E15.08756
G1 X110.605 Y119 E15.10091
G1 X109.603 Y118.999 E15.13424
G1 X109.068 Y118.745 E15.15394
G1 X109.07 Y111.734 E15.38713
G0 F6000 X108.67 Y111.258
G1 F1200 X108.962 Y111.316 E15.39703
G1 X109.353 Y111.369 E15.41015
G1 X109.766 Y111.396 E15.42392
G1 X110.221 Y111.396 E15.43905
G1 X110.648 Y111.368 E15.45328
G1 X111.036 Y111.316 E15.4663
G1 X111.331 Y111.257 E15.47631
G1 X111.332 Y118.932 E15.73158
G1 X111.281 Y119.009 E15.73465
G1 X110.732 Y119.4 E15.75707
