;FLAVOR:Marlin
;TIME:744
;Filament used: 0.434629m
;Layer height: 0.2
;MINX:82.616
;MINY:82.469
;MINZ:0.2
;MAXX:126.13
;MAXY:137.469
;MAXZ:4
;Generated with Cura_SteamEngine main
M82 ;absolute extrusion mode
; Ender 3 Custom Start G-code
G92 E0 ; Reset Extruder
G28 ; Home all axes
M104 S175 ; Start heating up the nozzle most of the way
M190 S60 ; Start heating the bed, wait until target temperature reached
M109 S195.0 ; Finish heating the nozzle
G1 Z2.0 F3000 ; Move Z Axis up little to prevent scratching of Heat Bed
G1 X0.1 Y20 Z0.3 F5000.0 ; Move to start position
G1 X0.1 Y200.0 Z0.3 F1500.0 E15 ; Draw the first line
G1 X0.4 Y200.0 Z0.3 F5000.0 ; Move to side a little
G1 X0.4 Y20 Z0.3 F1500.0 E30 ; Draw the second line
G92 E0 ; Reset Extruder
G1 Z2.0 F3000 ; Move Z Axis up little to prevent scratching of Heat Bed
G1 X5 Y20 Z0.3 F5000.0 ; Move over to prevent blob squish
G92 E0
G92 E0
G1 F1500 E-6.5
;LAYER_COUNT:20
;LAYER:0
M107
G0 F6000 X97.525 Y86.548 Z0.2
G0 X94.14 Y90.669
;TYPE:SKIRT
G1 F1500 E0
G1 F1200 X96.339 Y87.988 E0.11533
G1 X96.914 Y87.259 E0.14621
G1 X97.525 Y86.548 E0.17739
G1 X98.195 Y85.892 E0.20858
G1 X98.978 Y85.251 E0.24223
G1 X99.394 Y84.941 E0.25949
G1 X100.169 Y84.413 E0.29068
G1 X101.36 Y83.772 E0.33567
G1 X101.837 Y83.552 E0.35314
G1 X102.705 Y83.196 E0.38434
G1 X103.599 Y82.915 E0.41551
G1 X104.515 Y82.711 E0.44672
G1 X105.201 Y82.611 E0.46978
G1 X105.755 Y82.548 E0.48832
G1 X106.796 Y82.48 E0.52302
G1 X107.487 Y82.469 E0.54601
G1 X112.579 Y82.47 E0.71537
G1 X113.183 Y82.479 E0.73546
G1 X114.486 Y82.576 E0.77892
G1 X114.969 Y82.641 E0.79513
G1 X115.892 Y82.806 E0.82631
G1 X116.798 Y83.049 E0.85751
G1 X117.78 Y83.409 E0.8923
G1 X118.223 Y83.596 E0.90829
G1 X119.071 Y83.997 E0.93949
G1 X120.255 Y84.72 E0.98563
G1 X120.582 Y84.949 E0.99891
G1 X121.327 Y85.519 E1.03011
G1 X122.301 Y86.44 E1.07469
G1 X122.596 Y86.755 E1.08905
G1 X123.207 Y87.466 E1.12023
G1 X123.973 Y88.571 E1.16495
G1 X124.184 Y88.919 E1.17848
G1 X124.636 Y89.741 E1.20968
G1 X125.173 Y91.025 E1.25597
G1 X125.3 Y91.392 E1.26889
G1 X125.569 Y92.29 E1.30007
G1 X125.728 Y93.021 E1.32495
G1 X125.798 Y93.406 E1.33797
G1 X125.926 Y94.335 E1.36916
G1 X125.969 Y95.023 E1.39209
G1 X125.984 Y95.654 E1.41308
G1 X125.985 Y101.54 E1.60885
G1 X125.993 Y101.678 E1.61344
G1 X125.989 Y102.578 E1.64338
G1 X126.051 Y105.108 E1.72755
G1 X126.092 Y105.948 E1.75552
G1 X126.128 Y107.205 E1.79735
G1 X126.13 Y112.575 E1.97596
G1 X126.12 Y113.263 E1.99884
G1 X126.069 Y114.562 E2.04208
G1 X125.993 Y117.242 E2.13125
G1 X125.984 Y118.542 E2.17449
G1 X125.983 Y124.072 E2.35842
G1 X125.974 Y124.717 E2.37988
G1 X125.921 Y125.654 E2.41109
G1 X125.776 Y126.648 E2.4445
G1 X125.683 Y127.13 E2.46083
G1 X125.466 Y128.042 E2.49201
G1 X125.027 Y129.298 E2.53626
G1 X124.869 Y129.675 E2.54986
G1 X124.47 Y130.524 E2.58106
G1 X124 Y131.335 E2.61223
G1 X123.722 Y131.75 E2.62885
G1 X123.478 Y132.097 E2.64296
G1 X122.906 Y132.841 E2.67417
G1 X122.005 Y133.794 E2.71779
G1 X121.603 Y134.171 E2.73612
G1 X120.892 Y134.782 E2.7673
G1 X120.131 Y135.332 E2.79853
G1 X119.327 Y135.814 E2.82971
G1 X118.596 Y136.176 E2.85684
G1 X118.172 Y136.367 E2.87231
G1 X117.301 Y136.716 E2.90352
G1 X116.157 Y137.049 E2.94314
G1 X115.682 Y137.16 E2.95937
G1 X114.761 Y137.335 E2.99055
G1 X113.395 Y137.447 E3.03614
G1 X112.16 Y137.469 E3.07722
G1 X107.386 Y137.468 E3.236
G1 X106.721 Y137.459 E3.25812
G1 X105.785 Y137.406 E3.2893
G1 X104.785 Y137.261 E3.32291
G1 X104.293 Y137.166 E3.33958
G1 X103.38 Y136.949 E3.37079
G1 X102.489 Y136.655 E3.402
G1 X101.957 Y136.437 E3.42112
G1 X101.613 Y136.286 E3.43361
G1 X100.771 Y135.873 E3.46481
G1 X99.696 Y135.205 E3.5069
G1 X99.225 Y134.873 E3.52607
G1 X98.483 Y134.3 E3.55725
G1 X97.587 Y133.458 E3.59814
G1 X96.924 Y132.76 E3.63016
G1 X96.256 Y132.037 E3.6629
G1 X94.498 Y130.238 E3.74656
G1 X92.679 Y128.477 E3.83077
G1 X90.842 Y126.798 E3.91355
G1 X88.925 Y125.145 E3.99774
G1 X87.67 Y124.12 E4.05163
G1 X87.264 Y123.778 E4.06929
G1 X86.328 Y122.891 E4.11218
G1 X86.01 Y122.552 E4.12763
G1 X85.398 Y121.841 E4.15884
G1 X84.627 Y120.729 E4.20384
G1 X84.416 Y120.381 E4.21738
G1 X83.964 Y119.559 E4.24858
G1 X83.426 Y118.274 E4.29491
G1 X83.298 Y117.904 E4.30793
G1 X83.03 Y117.006 E4.3391
G1 X82.869 Y116.263 E4.36439
G1 X82.8 Y115.881 E4.3773
G1 X82.673 Y114.952 E4.40849
G1 X82.631 Y114.277 E4.43098
G1 X82.616 Y113.644 E4.45204
G1 X82.617 Y108.224 E4.63231
G1 X82.626 Y107.582 E4.65367
G1 X82.679 Y106.645 E4.68488
G1 X82.824 Y105.652 E4.71826
G1 X82.917 Y105.17 E4.73458
G1 X83.134 Y104.258 E4.76576
G1 X83.573 Y103.002 E4.81002
G1 X83.731 Y102.625 E4.82361
G1 X84.13 Y101.776 E4.85481
G1 X84.6 Y100.965 E4.88599
G1 X85.113 Y100.215 E4.91621
G1 X85.683 Y99.471 E4.94739
G1 X86.598 Y98.504 E4.99166
G1 X87.161 Y97.977 E5.01731
G1 X89.001 Y96.207 E5.10223
G1 X90.783 Y94.39 E5.18688
G1 X92.492 Y92.549 E5.27043
G1 X94.14 Y90.669 E5.35358
G1 F1500 E-1.14642
G0 F6000 X91.058 Y94.681
G1 F1500 E5.35358
G1 F1200 X92.787 Y92.819 E5.43809
G1 X94.438 Y90.936 E5.52138
G1 X96.675 Y88.208 E5.63872
G1 X97.228 Y87.507 E5.66842
G1 X97.829 Y86.81 E5.69903
G1 X98.488 Y86.167 E5.72965
G1 X99.217 Y85.571 E5.76097
G1 X99.633 Y85.261 E5.77823
G1 X100.395 Y84.744 E5.80885
G1 X101.528 Y84.135 E5.85164
G1 X102.005 Y83.915 E5.86911
G1 X102.857 Y83.567 E5.89972
G1 X103.736 Y83.293 E5.93034
G1 X104.635 Y83.096 E5.96095
G1 X105.246 Y83.009 E5.98148
G1 X105.8 Y82.946 E6.00002
G1 X106.803 Y82.88 E6.03346
G1 X107.487 Y82.869 E6.05621
G1 X112.573 Y82.87 E6.22537
G1 X113.177 Y82.879 E6.24546
G1 X114.433 Y82.973 E6.28735
G1 X114.916 Y83.038 E6.30356
G1 X115.822 Y83.2 E6.33417
G1 X116.711 Y83.44 E6.3648
G1 X117.624 Y83.777 E6.39717
G1 X118.067 Y83.964 E6.41316
G1 X118.899 Y84.359 E6.4438
G1 X120.025 Y85.047 E6.48768
G1 X120.352 Y85.276 E6.50096
G1 X121.083 Y85.837 E6.53161
G1 X122.009 Y86.713 E6.57401
G1 X122.304 Y87.028 E6.58836
G1 X122.903 Y87.727 E6.61898
G1 X123.631 Y88.778 E6.6615
G1 X123.842 Y89.126 E6.67504
G1 X124.285 Y89.934 E6.70569
G1 X124.795 Y91.156 E6.74973
G1 X124.922 Y91.523 E6.76264
G1 X125.185 Y92.405 E6.79326
G1 X125.334 Y93.093 E6.81667
G1 X125.404 Y93.478 E6.82968
G1 X125.529 Y94.39 E6.8603
G1 X125.57 Y95.036 E6.88183
G1 X125.584 Y95.654 E6.90239
G1 X125.585 Y101.498 E7.09676
G1 X125.593 Y101.676 E7.10269
G1 X125.589 Y102.585 E7.13292
G1 X125.651 Y105.138 E7.21786
G1 X125.7 Y106.153 E7.25166
G1 X125.728 Y107.205 E7.28666
G1 X125.73 Y112.569 E7.46507
G1 X125.712 Y113.551 E7.49774
G1 X125.667 Y114.604 E7.53279
G1 X125.593 Y117.229 E7.62013
G1 X125.584 Y118.539 E7.6637
G1 X125.583 Y124.067 E7.84757
G1 X125.574 Y124.712 E7.86902
G1 X125.521 Y125.631 E7.89964
G1 X125.383 Y126.572 E7.93127
G1 X125.29 Y127.054 E7.9476
G1 X125.077 Y127.95 E7.97823
G1 X124.658 Y129.143 E8.02029
G1 X124.5 Y129.52 E8.03388
G1 X124.108 Y130.353 E8.0645
G1 X123.395 Y131.52 E8.10999
G1 X123.151 Y131.867 E8.1241
G1 X122.589 Y132.597 E8.15474
G1 X121.731 Y133.502 E8.19622
G1 X121.329 Y133.879 E8.21455
G1 X120.631 Y134.479 E8.24516
G1 X119.883 Y135.016 E8.27579
G1 X119.092 Y135.486 E8.30639
G1 X118.432 Y135.812 E8.33087
G1 X118.008 Y136.003 E8.34634
G1 X117.153 Y136.344 E8.37695
G1 X116.066 Y136.66 E8.4146
G1 X115.591 Y136.771 E8.43083
G1 X114.686 Y136.941 E8.46146
G1 X113.387 Y137.047 E8.5048
G1 X112.16 Y137.069 E8.54562
G1 X107.392 Y137.068 E8.70421
G1 X106.727 Y137.059 E8.72633
G1 X105.807 Y137.007 E8.75697
G1 X104.86 Y136.868 E8.78881
G1 X104.368 Y136.773 E8.80547
G1 X103.473 Y136.559 E8.83608
G1 X102.599 Y136.269 E8.86671
G1 X102.117 Y136.071 E8.88404
G1 X101.773 Y135.92 E8.89654
G1 X100.947 Y135.514 E8.92715
G1 X99.927 Y134.878 E8.96713
G1 X99.456 Y134.546 E8.98629
G1 X98.727 Y133.983 E9.01693
G1 X97.877 Y133.182 E9.05578
G1 X97.214 Y132.484 E9.0878
G1 X96.57 Y131.787 E9.11936
G1 X94.78 Y129.954 E9.20457
G1 X92.944 Y128.178 E9.28953
G1 X91.107 Y126.499 E9.37231
G1 X89.193 Y124.848 E9.45638
G1 X88.059 Y123.923 E9.50505
G1 X87.522 Y123.472 E9.52838
G1 X86.62 Y122.617 E9.56971
G1 X86.302 Y122.278 E9.58517
G1 X85.702 Y121.58 E9.61579
G1 X84.969 Y120.522 E9.65859
G1 X84.758 Y120.174 E9.67213
G1 X84.315 Y119.366 E9.70278
G1 X83.805 Y118.144 E9.74682
G1 X83.677 Y117.774 E9.75984
G1 X83.414 Y116.891 E9.79049
G1 X83.263 Y116.192 E9.81427
G1 X83.194 Y115.81 E9.82718
G1 X83.07 Y114.898 E9.85779
G1 X83.03 Y114.264 E9.87892
G1 X83.016 Y113.644 E9.89955
G1 X83.017 Y108.229 E10.07965
G1 X83.026 Y107.587 E10.10101
G1 X83.079 Y106.668 E10.13163
G1 X83.217 Y105.728 E10.16322
G1 X83.31 Y105.246 E10.17955
G1 X83.523 Y104.35 E10.21018
G1 X83.942 Y103.157 E10.25224
G1 X84.1 Y102.78 E10.26583
G1 X84.492 Y101.947 E10.29645
G1 X85.198 Y100.79 E10.34154
G1 X85.44 Y100.445 E10.35555
G1 X86.001 Y99.715 E10.38617
G1 X86.872 Y98.796 E10.42829
G1 X87.391 Y98.31 E10.45194
G1 X89.298 Y96.475 E10.53996
G1 X91.058 Y94.681 E10.62355
G1 F1500 E4.12355
G0 F6000 X84.311 Y103.311
G1 F1500 E10.62355
G1 F1200 X84.469 Y102.934 E10.63714
G1 X84.854 Y102.118 E10.66715
G1 X85.526 Y101.02 E10.70997
G1 X85.768 Y100.675 E10.72398
G1 X86.318 Y99.959 E10.75401
G1 X87.145 Y99.088 E10.79396
G1 X87.696 Y98.572 E10.81907
G1 X89.561 Y96.777 E10.90516
G1 X91.372 Y94.932 E10.99115
G1 X93.081 Y93.091 E11.0747
G1 X94.751 Y91.185 E11.15898
G1 X96.966 Y88.485 E11.27514
G1 X97.542 Y87.755 E11.30606
G1 X98.132 Y87.071 E11.33611
G1 X98.78 Y86.442 E11.36615
G1 X99.456 Y85.892 E11.39513
G1 X99.872 Y85.582 E11.41239
G1 X100.62 Y85.075 E11.44244
G1 X101.695 Y84.499 E11.483
G1 X102.172 Y84.279 E11.50048
G1 X103.008 Y83.937 E11.53052
G1 X103.871 Y83.671 E11.56055
G1 X104.754 Y83.482 E11.59059
G1 X105.292 Y83.406 E11.60866
G1 X105.846 Y83.343 E11.6272
G1 X106.81 Y83.28 E11.65934
G1 X107.487 Y83.269 E11.68186
G1 X112.567 Y83.27 E11.85082
G1 X113.171 Y83.279 E11.87091
G1 X114.379 Y83.369 E11.9112
G1 X114.862 Y83.434 E11.92741
G1 X115.751 Y83.594 E11.95745
G1 X116.622 Y83.832 E11.98748
G1 X117.469 Y84.146 E12.01753
G1 X117.912 Y84.333 E12.03352
G1 X118.727 Y84.721 E12.06354
G1 X119.796 Y85.375 E12.10522
G1 X120.123 Y85.604 E12.1185
G1 X120.839 Y86.154 E12.14853
G1 X121.717 Y86.987 E12.18879
G1 X122.012 Y87.302 E12.20314
G1 X122.599 Y87.988 E12.23317
G1 X123.289 Y88.986 E12.27352
G1 X123.5 Y89.334 E12.28706
G1 X123.934 Y90.126 E12.3171
G1 X124.417 Y91.286 E12.35889
G1 X124.544 Y91.653 E12.37181
G1 X124.801 Y92.519 E12.40185
G1 X124.94 Y93.164 E12.4238
G1 X125.01 Y93.549 E12.43681
G1 X125.133 Y94.444 E12.46686
G1 X125.17 Y95.049 E12.48702
G1 X125.184 Y95.654 E12.50715
G1 X125.185 Y101.414 E12.69873
G1 X125.193 Y101.674 E12.70738
G1 X125.189 Y102.593 E12.73794
G1 X125.251 Y105.128 E12.82228
G1 X125.3 Y106.165 E12.85681
G1 X125.328 Y107.205 E12.89142
G1 X125.33 Y112.563 E13.06962
G1 X125.312 Y113.534 E13.10192
G1 X125.268 Y114.577 E13.13665
G1 X125.193 Y117.213 E13.22435
G1 X125.184 Y118.537 E13.26839
G1 X125.183 Y124.061 E13.45212
G1 X125.174 Y124.706 E13.47358
G1 X125.121 Y125.608 E13.50363
G1 X124.99 Y126.496 E13.53348
G1 X124.897 Y126.978 E13.54981
G1 X124.687 Y127.857 E13.57987
G1 X124.289 Y128.989 E13.61978
G1 X124.131 Y129.366 E13.63337
G1 X123.746 Y130.182 E13.66338
G1 X123.068 Y131.29 E13.70659
G1 X122.824 Y131.637 E13.7207
G1 X122.272 Y132.352 E13.75074
G1 X121.457 Y133.21 E13.7901
G1 X121.055 Y133.587 E13.80843
G1 X120.37 Y134.175 E13.83846
G1 X119.635 Y134.7 E13.8685
G1 X118.857 Y135.158 E13.89852
G1 X118.267 Y135.447 E13.92038
G1 X117.843 Y135.638 E13.93584
G1 X117.004 Y135.972 E13.96588
G1 X115.975 Y136.27 E14.00151
G1 X115.5 Y136.381 E14.01773
G1 X114.612 Y136.548 E14.04779
G1 X113.379 Y136.647 E14.08893
G1 X112.16 Y136.669 E14.12948
G1 X107.397 Y136.668 E14.2879
G1 X106.732 Y136.659 E14.31002
G1 X105.83 Y136.607 E14.34007
G1 X104.936 Y136.475 E14.37012
G1 X104.444 Y136.38 E14.38679
G1 X103.566 Y136.17 E14.41682
G1 X102.71 Y135.883 E14.44684
G1 X101.934 Y135.554 E14.47488
G1 X101.124 Y135.155 E14.50491
G1 X100.157 Y134.551 E14.54283
G1 X99.686 Y134.219 E14.562
G1 X98.972 Y133.667 E14.59201
G1 X98.167 Y132.907 E14.62884
G1 X97.504 Y132.209 E14.66086
G1 X96.832 Y131.482 E14.69378
G1 X95.061 Y129.669 E14.77808
G1 X93.245 Y127.912 E14.86212
G1 X91.355 Y126.184 E14.9473
G1 X89.444 Y124.536 E15.03123
G1 X88.312 Y123.613 E15.07981
G1 X87.78 Y123.166 E15.10292
G1 X86.912 Y122.343 E15.1427
G1 X86.594 Y122.004 E15.15816
G1 X86.006 Y121.319 E15.18819
G1 X85.311 Y120.314 E15.22883
G1 X85.1 Y119.966 E15.24236
G1 X84.666 Y119.174 E15.2724
G1 X84.183 Y118.013 E15.31423
G1 X84.055 Y117.643 E15.32725
G1 X83.797 Y116.777 E15.3573
G1 X83.656 Y116.121 E15.37962
G1 X83.587 Y115.739 E15.39253
G1 X83.466 Y114.844 E15.42257
G1 X83.43 Y114.251 E15.44233
G1 X83.416 Y113.644 E15.46252
G1 X83.417 Y108.235 E15.64243
G1 X83.426 Y107.593 E15.66378
G1 X83.479 Y106.691 E15.69383
G1 X83.61 Y105.804 E15.72366
G1 X83.703 Y105.322 E15.73998
G1 X83.913 Y104.443 E15.77004
G1 X84.311 Y103.311 E15.80995
G1 F1500 E9.30995
;MESH:feet.stl(2)
G0 F6000 X104.629 Y102.702
G0 X106.892 Y102.869
;TYPE:WALL-INNER
G1 F1500 E15.80995
G1 F1200 X113.075 Y102.869 E16.0156
G1 X113.418 Y102.795 E16.02727
G1 X113.748 Y102.649 E16.03927
G1 X114.019 Y102.404 E16.05142
G1 X114.194 Y102.165 E16.06127
G1 X114.31 Y101.903 E16.0708
G1 X114.384 Y101.56 E16.08247
G1 X114.384 Y95.466 E16.28516
G1 X114.356 Y95.205 E16.29389
G1 X114.259 Y94.895 E16.3047
G1 X114.113 Y94.648 E16.31424
G1 X113.92 Y94.433 E16.32385
G1 X113.681 Y94.259 E16.33368
G1 X113.355 Y94.114 E16.34555
G1 X113.073 Y94.07 E16.35504
G1 X107.016 Y94.069 E16.5565
G1 X106.619 Y94.111 E16.56978
G1 X106.286 Y94.26 E16.58191
G1 X105.99 Y94.474 E16.59406
G1 X105.774 Y94.772 E16.6063
G1 X105.654 Y95.041 E16.6161
G1 X105.585 Y95.377 E16.62751
G1 X105.584 Y101.438 E16.82909
G1 X105.626 Y101.834 E16.84234
G1 X105.775 Y102.167 E16.85447
G1 X105.988 Y102.462 E16.86658
G1 X106.286 Y102.678 E16.87882
G1 X106.555 Y102.797 E16.8886
G1 X106.892 Y102.869 E16.90006
G0 F6000 X106.851 Y103.269
;TYPE:WALL-OUTER
G1 F1200 X113.117 Y103.269 E17.10847
G1 X113.542 Y103.178 E17.12293
G1 X113.969 Y102.989 E17.13846
G1 X114.318 Y102.673 E17.15412
G1 X114.542 Y102.367 E17.16673
G1 X114.693 Y102.027 E17.1791
G1 X114.784 Y101.602 E17.19356
G1 X114.784 Y95.466 E17.39764
G1 X114.746 Y95.113 E17.40945
G1 X114.627 Y94.731 E17.42276
G1 X114.437 Y94.41 E17.43517
G1 X114.19 Y94.134 E17.44748
G1 X113.882 Y93.911 E17.46013
G1 X113.469 Y93.727 E17.47517
G1 X113.104 Y93.67 E17.48746
G1 X106.996 Y93.669 E17.69061
G1 X106.514 Y93.719 E17.70673
G1 X106.085 Y93.912 E17.72237
G1 X105.704 Y94.187 E17.738
G1 X105.426 Y94.571 E17.75377
G1 X105.271 Y94.917 E17.76638
G1 X105.185 Y95.336 E17.78061
G1 X105.184 Y101.459 E17.98426
G1 X105.234 Y101.939 E18.00031
G1 X105.427 Y102.368 E18.01595
G1 X105.702 Y102.748 E18.03156
G1 X106.086 Y103.027 E18.04734
G1 X106.432 Y103.181 E18.05994
G1 X106.851 Y103.269 E18.07418
G0 F6000 X106.558 Y102.428
;TYPE:SKIN
G1 F1200 X106.933 Y102.509 E18.08694
G1 X113.035 Y102.508 E18.28989
G1 X113.308 Y102.449 E18.29918
G1 X113.55 Y102.343 E18.30797
G1 X113.748 Y102.162 E18.31689
G1 X113.964 Y101.793 E18.33111
G1 X114.023 Y101.519 E18.34044
G1 X114.024 Y95.518 E18.54003
G1 X114.024 Y95.351 E18.54558
G1 X113.926 Y95.04 E18.55643
G1 X113.681 Y94.704 E18.57026
G1 X113.498 Y94.572 E18.57777
G1 X113.253 Y94.464 E18.58667
G1 X113.044 Y94.431 E18.59371
G1 X107.036 Y94.43 E18.79353
G1 X106.713 Y94.463 E18.80433
G1 X106.469 Y94.573 E18.81324
G1 X106.248 Y94.732 E18.82229
G1 X106.021 Y95.049 E18.83526
G1 X105.946 Y95.416 E18.84772
G1 X105.944 Y101.42 E19.04741
G1 X105.978 Y101.741 E19.05815
G1 X106.087 Y101.984 E19.06701
G1 X106.247 Y102.203 E19.07603
G1 X106.558 Y102.428 E19.08879
G0 F6000 X106.802 Y102.276
G1 F1200 X106.168 Y101.643 E19.11859
G0 F6000 X106.143 Y101.051
G1 F1200 X107.399 Y102.308 E19.17769
G0 F6000 X107.965 Y102.308
G1 F1200 X106.143 Y100.486 E19.2634
G0 F6000 X106.143 Y99.92
G1 F1200 X108.53 Y102.308 E19.3757
G0 F6000 X109.096 Y102.308
G1 F1200 X106.143 Y99.355 E19.5146
G0 F6000 X106.143 Y98.789
G1 F1200 X109.662 Y102.308 E19.68012
G0 F6000 X110.227 Y102.307
G1 F1200 X106.143 Y98.224 E19.87219
G0 F6000 X106.143 Y97.658
G1 F1200 X110.793 Y102.307 E20.09089
G0 F6000 X111.358 Y102.307
