;FLAVOR:Marlin
;TIME:2986
;Filament used: 1.44148m
;Layer height: 0.2
;MINX:83.066
;MINY:89.565
;MINZ:0.2
;MAXX:136.932
;MAXY:141.934
;MAXZ:11
;Generated with Cura_SteamEngine main
M82 ;absolute extrusion mode
; Ender 3 Custom Start G-code
G92 E0 ; Reset Extruder
G28 ; Home all axes
M104 S175 ; Start heating up the nozzle most of the way
M190 S60 ; Start heating the bed, wait until target temperature reached
M109 S195.0 ; Finish heating the nozzle
G1 Z2.0 F3000 ; Move Z Axis up little to prevent scratching of Heat Bed
G1 X0.1 Y20 Z0.3 F5000.0 ; Move to start position
G1 X0.1 Y200.0 Z0.3 F1500.0 E15 ; Draw the first line
G1 X0.4 Y200.0 Z0.3 F5000.0 ; Move to side a little
G1 X0.4 Y20 Z0.3 F1500.0 E30 ; Draw the second line
G92 E0 ; Reset Extruder
G1 Z2.0 F3000 ; Move Z Axis up little to prevent scratching of Heat Bed
G1 X5 Y20 Z0.3 F5000.0 ; Move over to prevent blob squish
G92 E0
G92 E0
G1 F1500 E-6.5
;LAYER_COUNT:55
;LAYER:0
M107
G0 F6000 X86.517 Y93.436 Z0.2
G0 X83.067 Y102.526
;TYPE:SKIRT
G1 F1500 E0
G1 F1200 X83.076 Y101.906 E0.02062
G1 X83.171 Y100.619 E0.06355
G1 X83.231 Y100.167 E0.07871
G1 X83.394 Y99.243 E0.10992
G1 X83.635 Y98.337 E0.1411
G1 X83.887 Y97.616 E0.1665
G1 X84.006 Y97.311 E0.17739
G1 X84.384 Y96.452 E0.20861
G1 X84.834 Y95.629 E0.2398
G1 X85.352 Y94.847 E0.271
G1 X85.667 Y94.434 E0.28828
G1 X85.9 Y94.143 E0.30068
G1 X86.517 Y93.436 E0.33189
G1 X87.472 Y92.545 E0.37533
G1 X87.751 Y92.314 E0.38738
G1 X88.498 Y91.747 E0.41857
G1 X89.291 Y91.246 E0.44977
G1 X89.937 Y90.904 E0.47408
G1 X90.244 Y90.754 E0.48544
G1 X91.103 Y90.378 E0.51663
G1 X91.992 Y90.077 E0.54785
G1 X92.902 Y89.853 E0.57902
G1 X93.444 Y89.758 E0.59732
G1 X93.858 Y89.696 E0.61124
G1 X94.79 Y89.597 E0.64241
G1 X95.32 Y89.576 E0.66006
G1 X96.15 Y89.565 E0.68766
G1 X100.995 Y89.568 E0.84881
G1 X102.863 Y89.595 E0.91095
G1 X105.495 Y89.597 E0.99849
G1 X107.473 Y89.566 E1.06428
G1 X112.495 Y89.568 E1.23132
G1 X114.363 Y89.595 E1.29345
G1 X116.995 Y89.597 E1.38099
G1 X118.973 Y89.566 E1.44679
G1 X124.034 Y89.568 E1.61512
G1 X124.703 Y89.579 E1.63737
G1 X125.846 Y89.652 E1.67547
G1 X126.899 Y89.814 E1.7109
G1 X128.006 Y90.093 E1.74887
G1 X128.363 Y90.203 E1.7613
G1 X129.247 Y90.517 E1.7925
G1 X130.101 Y90.905 E1.8237
G1 X130.918 Y91.365 E1.85488
G1 X131.425 Y91.699 E1.87507
G1 X131.684 Y91.88 E1.88558
G1 X132.429 Y92.449 E1.91676
G1 X133.277 Y93.235 E1.95522
G1 X133.573 Y93.54 E1.96936
G1 X134.197 Y94.24 E2.00055
G1 X134.759 Y94.991 E2.03174
G1 X135.255 Y95.787 E2.06294
G1 X135.61 Y96.47 E2.08854
G1 X135.792 Y96.852 E2.10261
G1 X136.158 Y97.715 E2.13379
G1 X136.451 Y98.606 E2.16499
G1 X136.726 Y99.864 E2.20782
G1 X136.795 Y100.3 E2.2225
G1 X136.902 Y101.231 E2.25367
G1 X136.93 Y102.018 E2.27986
G1 X136.932 Y117.309 E2.78844
G1 X136.923 Y118.058 E2.81336
G1 X136.862 Y119.074 E2.84721
G1 X136.811 Y119.554 E2.86326
G1 X136.673 Y120.482 E2.89447
G1 X136.455 Y121.394 E2.92566
G1 X136.161 Y122.285 E2.95686
G1 X135.869 Y122.983 E2.98203
G1 X135.683 Y123.388 E2.99685
G1 X135.256 Y124.223 E3.02804
G1 X134.964 Y124.707 E3.04684
G1 X133.661 Y126.752 E3.12749
G1 X132.371 Y128.904 E3.21094
G1 X131.123 Y131.125 E3.29568
G1 X129.947 Y133.363 E3.37977
G1 X129.042 Y135.172 E3.44704
G1 X128.587 Y135.993 E3.47826
G1 X127.837 Y137.079 E3.52216
G1 X127.146 Y137.895 E3.55772
G1 X126.268 Y138.746 E3.59839
G1 X125.944 Y139.027 E3.61266
G1 X125.21 Y139.611 E3.64385
G1 X124.429 Y140.13 E3.67504
G1 X123.606 Y140.58 E3.70624
G1 X122.929 Y140.887 E3.73096
G1 X122.553 Y141.042 E3.74449
G1 X121.672 Y141.362 E3.77567
G1 X120.766 Y141.606 E3.80687
G1 X120.031 Y141.744 E3.83175
G1 X119.686 Y141.797 E3.84336
G1 X118.32 Y141.921 E3.88898
G1 X117.691 Y141.934 E3.9099
G1 X102.526 Y141.933 E4.41429
G1 X101.906 Y141.924 E4.43492
G1 X100.604 Y141.827 E4.47834
G1 X100.149 Y141.766 E4.49361
G1 X99.226 Y141.602 E4.52479
G1 X98.32 Y141.36 E4.55598
G1 X97.651 Y141.126 E4.57955
G1 X97.353 Y141.011 E4.59018
G1 X96.493 Y140.637 E4.62137
G1 X95.668 Y140.19 E4.65258
G1 X94.884 Y139.675 E4.68377
G1 X94.438 Y139.336 E4.70241
G1 X94.142 Y139.099 E4.71502
G1 X93.435 Y138.482 E4.74623
G1 X92.544 Y137.527 E4.78967
G1 X92.313 Y137.248 E4.80172
G1 X91.746 Y136.501 E4.83291
G1 X91.245 Y135.708 E4.86411
G1 X90.983 Y135.224 E4.88241
G1 X90.575 Y134.431 E4.91207
G1 X90.01 Y133.282 E4.95466
G1 X88.827 Y131.037 E5.03906
G1 X87.587 Y128.841 E5.12294
G1 X86.319 Y126.734 E5.20473
G1 X85.78 Y125.898 E5.23782
G1 X85.644 Y125.666 E5.24676
G1 X85.01 Y124.667 E5.28611
G1 X84.541 Y123.854 E5.31733
G1 X84.123 Y122.955 E5.35031
G1 X83.954 Y122.544 E5.36509
G1 X83.635 Y121.662 E5.39628
G1 X83.392 Y120.757 E5.42745
G1 X83.259 Y120.055 E5.45121
G1 X83.206 Y119.715 E5.46266
G1 X83.079 Y118.321 E5.50921
G1 X83.066 Y117.691 E5.53017
G1 X83.067 Y102.526 E6.03456
G0 F6000 X83.467 Y102.532
G1 F1200 X83.476 Y101.912 E6.05519
G1 X83.567 Y100.671 E6.09657
G1 X83.627 Y100.219 E6.11174
G1 X83.788 Y99.313 E6.14234
G1 X84.027 Y98.423 E6.17299
G1 X84.26 Y97.761 E6.19634
G1 X84.379 Y97.456 E6.20722
G1 X84.751 Y96.614 E6.23784
G1 X85.194 Y95.807 E6.26846
G1 X85.98 Y94.684 E6.31405
G1 X86.213 Y94.393 E6.32645
G1 X86.819 Y93.7 E6.35707
G1 X87.727 Y92.853 E6.39837
G1 X88.006 Y92.622 E6.41042
G1 X88.74 Y92.067 E6.44102
G1 X89.519 Y91.577 E6.47163
G1 X90.113 Y91.263 E6.49398
G1 X90.42 Y91.113 E6.50534
G1 X91.264 Y90.745 E6.53597
G1 X92.136 Y90.452 E6.56656
G1 X93.031 Y90.236 E6.59719
G1 X93.503 Y90.154 E6.61312
G1 X93.917 Y90.092 E6.62704
G1 X94.833 Y89.995 E6.65768
G1 X95.326 Y89.976 E6.67409
G1 X96.15 Y89.965 E6.7015
G1 X100.99 Y89.968 E6.86248
G1 X102.858 Y89.995 E6.92461
G1 X105.501 Y89.997 E7.01252
G1 X107.479 Y89.966 E7.07832
G1 X112.49 Y89.968 E7.24498
G1 X114.358 Y89.995 E7.30712
G1 X117.001 Y89.997 E7.39503
G1 X118.979 Y89.966 E7.46082
G1 X124.027 Y89.968 E7.62872
G1 X124.696 Y89.979 E7.65097
G1 X125.802 Y90.05 E7.68784
G1 X126.838 Y90.209 E7.7227
G1 X127.888 Y90.475 E7.75872
G1 X128.245 Y90.585 E7.77115
G1 X129.113 Y90.894 E7.80179
G1 X129.95 Y91.277 E7.83241
G1 X130.75 Y91.731 E7.863
G1 X131.196 Y92.026 E7.88079
G1 X131.455 Y92.207 E7.8913
G1 X132.186 Y92.767 E7.92192
G1 X132.99 Y93.514 E7.95843
G1 X133.286 Y93.819 E7.97256
G1 X133.898 Y94.507 E8.00319
G1 X134.447 Y95.245 E8.03378
G1 X134.931 Y96.028 E8.0644
G1 X135.248 Y96.642 E8.08738
G1 X135.43 Y97.024 E8.10145
G1 X135.79 Y97.871 E8.13206
G1 X136.075 Y98.747 E8.1627
G1 X136.331 Y99.926 E8.20283
G1 X136.4 Y100.362 E8.21751
G1 X136.504 Y101.277 E8.24814
G1 X136.53 Y102.018 E8.2728
G1 X136.532 Y117.309 E8.78138
G1 X136.523 Y118.053 E8.80613
G1 X136.465 Y119.032 E8.83875
G1 X136.414 Y119.512 E8.8548
G1 X136.277 Y120.422 E8.88541
G1 X136.061 Y121.317 E8.91603
G1 X135.769 Y122.19 E8.94665
G1 X135.506 Y122.816 E8.96923
G1 X135.32 Y123.221 E8.98406
G1 X134.9 Y124.04 E9.01467
G1 X134.627 Y124.492 E9.03223
G1 X133.314 Y126.553 E9.11351
G1 X132.022 Y128.709 E9.19711
G1 X130.778 Y130.922 E9.28155
G1 X129.582 Y133.196 E9.367
G1 X128.684 Y134.993 E9.43382
G1 X128.237 Y135.798 E9.46445
G1 X127.519 Y136.836 E9.50642
G1 X126.84 Y137.636 E9.54132
G1 X126.006 Y138.444 E9.57995
G1 X125.682 Y138.725 E9.59421
G1 X124.961 Y139.297 E9.62482
G1 X124.193 Y139.805 E9.65545
G1 X123.384 Y140.244 E9.68606
G1 X122.777 Y140.517 E9.7082
G1 X122.401 Y140.672 E9.72172
G1 X121.535 Y140.986 E9.75236
G1 X120.646 Y141.223 E9.78296
G1 X119.971 Y141.349 E9.8058
G1 X119.626 Y141.402 E9.81741
G1 X118.309 Y141.521 E9.86139
G1 X117.691 Y141.534 E9.88195
G1 X102.532 Y141.533 E10.38614
G1 X101.912 Y141.524 E10.40677
G1 X100.658 Y141.431 E10.44859
G1 X100.203 Y141.37 E10.46386
G1 X99.296 Y141.208 E10.4945
G1 X98.407 Y140.968 E10.52513
G1 X97.795 Y140.753 E10.5467
G1 X97.497 Y140.638 E10.55733
G1 X96.653 Y140.27 E10.58795
G1 X95.844 Y139.829 E10.6186
G1 X95.077 Y139.321 E10.6492
G1 X94.392 Y138.786 E10.6781
G1 X93.699 Y138.18 E10.70872
G1 X92.852 Y137.272 E10.75002
G1 X92.621 Y136.993 E10.76207
G1 X92.066 Y136.259 E10.79268
G1 X91.576 Y135.48 E10.82329
G1 X91.34 Y135.042 E10.83983
G1 X90.934 Y134.255 E10.86929
G1 X90.362 Y133.09 E10.91245
G1 X89.179 Y130.848 E10.99677
G1 X87.936 Y128.645 E11.0809
G1 X86.647 Y126.503 E11.16405
G1 X86.117 Y125.681 E11.19658
G1 X85.985 Y125.456 E11.20525
G1 X85.348 Y124.452 E11.2448
G1 X84.888 Y123.654 E11.27544
G1 X84.493 Y122.803 E11.30664
G1 X84.324 Y122.392 E11.32142
G1 X84.012 Y121.526 E11.35204
G1 X83.775 Y120.637 E11.38264
G1 X83.654 Y119.994 E11.4044
G1 X83.601 Y119.654 E11.41584
G1 X83.479 Y118.31 E11.46073
G1 X83.466 Y117.691 E11.48132
G1 X83.467 Y102.532 E11.98551
G0 F6000 X83.867 Y102.538
G1 F1200 X83.876 Y101.918 E12.00614
G1 X83.964 Y100.724 E12.04596
G1 X84.024 Y100.272 E12.06112
G1 X84.182 Y99.383 E12.09115
G1 X84.418 Y98.511 E12.1212
G1 X84.633 Y97.907 E12.14252
G1 X84.752 Y97.602 E12.15341
G1 X85.117 Y96.776 E12.18345
G1 X85.554 Y95.985 E12.21351
G1 X86.292 Y94.934 E12.25622
G1 X86.525 Y94.643 E12.26862
G1 X87.12 Y93.963 E12.29867
G1 X87.982 Y93.161 E12.33783
G1 X88.261 Y92.93 E12.34988
G1 X88.982 Y92.386 E12.37992
G1 X89.747 Y91.907 E12.40994
G1 X90.288 Y91.622 E12.43028
G1 X90.595 Y91.472 E12.44164
G1 X91.423 Y91.112 E12.47167
G1 X92.28 Y90.827 E12.50171
G1 X93.562 Y90.549 E12.54534
G1 X93.976 Y90.487 E12.55926
G1 X94.875 Y90.393 E12.58933
G1 X95.332 Y90.376 E12.60454
G1 X96.149 Y90.365 E12.63171
G1 X100.984 Y90.368 E12.79253
G1 X102.852 Y90.395 E12.85466
G1 X105.507 Y90.397 E12.94297
G1 X107.486 Y90.366 E13.0088
G1 X112.484 Y90.368 E13.17503
G1 X114.352 Y90.395 E13.23717
G1 X117.007 Y90.397 E13.32547
G1 X118.986 Y90.366 E13.3913
G1 X124.021 Y90.368 E13.55877
G1 X124.69 Y90.379 E13.58102
G1 X125.759 Y90.447 E13.61665
G1 X126.777 Y90.605 E13.65091
G1 X127.771 Y90.857 E13.68502
G1 X128.128 Y90.967 E13.69745
G1 X128.978 Y91.271 E13.72747
G1 X129.798 Y91.649 E13.7575
G1 X130.582 Y92.098 E13.78755
G1 X131.226 Y92.535 E13.81344
G1 X131.942 Y93.085 E13.84347
G1 X132.703 Y93.792 E13.87801
G1 X132.999 Y94.097 E13.89215
G1 X133.598 Y94.773 E13.92219
G1 X134.136 Y95.498 E13.95222
G1 X134.607 Y96.269 E13.98227
G1 X134.887 Y96.814 E14.00265
G1 X135.069 Y97.196 E14.01672
G1 X135.421 Y98.028 E14.04677
G1 X135.698 Y98.887 E14.07679
G1 X135.936 Y99.989 E14.11429
G1 X136.005 Y100.425 E14.12897
G1 X136.106 Y101.322 E14.15899
G1 X136.13 Y102.018 E14.18215
G1 X136.132 Y117.309 E14.69073
G1 X136.123 Y118.048 E14.71532
G1 X136.067 Y118.99 E14.7467
G1 X136.016 Y119.47 E14.76276
G1 X135.881 Y120.363 E14.7928
G1 X135.667 Y121.24 E14.82282
G1 X135.377 Y122.095 E14.85285
G1 X135.142 Y122.649 E14.87286
G1 X134.956 Y123.054 E14.88769
G1 X134.543 Y123.857 E14.91772
G1 X134.29 Y124.277 E14.93403
G1 X132.977 Y126.338 E15.01531
G1 X131.68 Y128.502 E15.09922
G1 X130.418 Y130.747 E15.18488
G1 X129.228 Y133.01 E15.26992
G1 X128.326 Y134.815 E15.33703
G1 X127.887 Y135.604 E15.36706
G1 X127.202 Y136.592 E15.40705
G1 X126.535 Y137.377 E15.44131
G1 X125.744 Y138.142 E15.47791
G1 X125.42 Y138.423 E15.49217
G1 X124.712 Y138.984 E15.52222
G1 X123.958 Y139.48 E15.55224
G1 X123.162 Y139.907 E15.58228
G1 X122.624 Y140.147 E15.60187
G1 X122.248 Y140.302 E15.6154
G1 X121.399 Y140.609 E15.64543
G1 X120.526 Y140.84 E15.67546
G1 X119.91 Y140.954 E15.6963
G1 X119.565 Y141.007 E15.70791
G1 X118.298 Y141.121 E15.75022
G1 X117.691 Y141.134 E15.77041
G1 X102.538 Y141.133 E16.2744
G1 X101.918 Y141.124 E16.29503
G1 X100.711 Y141.035 E16.33528
G1 X100.256 Y140.974 E16.35055
G1 X99.367 Y140.814 E16.38059
G1 X98.495 Y140.577 E16.41065
G1 X97.939 Y140.38 E16.43027
G1 X97.641 Y140.265 E16.44089
G1 X96.813 Y139.903 E16.47095
G1 X96.021 Y139.469 E16.50098
G1 X94.938 Y138.711 E16.54495
G1 X94.642 Y138.474 E16.55756
G1 X93.963 Y137.879 E16.58759
G1 X93.16 Y137.017 E16.62677
G1 X92.929 Y136.738 E16.63882
G1 X92.385 Y136.017 E16.66886
G1 X91.696 Y134.861 E16.71362
G1 X91.293 Y134.078 E16.74291
G1 X90.724 Y132.921 E16.7858
G1 X89.53 Y130.656 E16.87096
G1 X88.293 Y128.463 E16.9547
G1 X86.974 Y126.271 E17.03979
G1 X86.453 Y125.464 E17.07174
G1 X86.334 Y125.261 E17.07956
G1 X85.685 Y124.238 E17.11986
G1 X85.235 Y123.455 E17.14989
G1 X84.863 Y122.651 E17.17936
G1 X84.694 Y122.24 E17.19414
G1 X84.388 Y121.39 E17.22419
G1 X84.158 Y120.517 E17.25421
G1 X84.05 Y119.932 E17.274
G1 X83.997 Y119.592 E17.28544
G1 X83.879 Y118.299 E17.32863
G1 X83.866 Y117.691 E17.34886
G1 X83.867 Y102.538 E17.85285
G1 F1500 E11.35285
G0 F6000 X121.386 Y104.848
G0 X121.317 Y104.949
G1 F1500 E17.85285
G1 F1200 X121.386 Y104.848 E17.85691
G1 X121.493 Y104.81 E17.86069
G1 X121.659 Y104.893 E17.86686
G1 X121.683 Y105.052 E17.87221
G1 X121.64 Y105.129 E17.87515
G1 X121.507 Y105.19 E17.88001
G1 X121.341 Y105.107 E17.88618
G1 X121.317 Y104.949 E17.8915
G0 F6000 X120.923 Y105.151
G1 F1200 X120.925 Y104.843 E17.90174
G1 X120.986 Y104.706 E17.90673
G1 X121.151 Y104.521 E17.91498
G1 X121.261 Y104.458 E17.91919
G1 X121.495 Y104.408 E17.92715
G1 X121.743 Y104.46 E17.93558
G1 X121.875 Y104.536 E17.94065
G1 X121.998 Y104.672 E17.94674
G1 X122.077 Y104.849 E17.95319
G1 X122.075 Y105.156 E17.9634
G1 X122.013 Y105.296 E17.9685
G1 X121.849 Y105.479 E17.97667
G1 X121.739 Y105.542 E17.98088
G1 X121.505 Y105.592 E17.98884
G1 X121.257 Y105.54 E17.99727
G1 X121.125 Y105.464 E18.00234
G1 X121.002 Y105.328 E18.00844
G1 X120.923 Y105.151 E18.01488
G0 F6000 X120.506 Y105.006
G1 F1200 X120.534 Y104.739 E18.02381
G1 X120.638 Y104.506 E18.0323
G1 X120.765 Y104.331 E18.03949
G1 X121.095 Y104.092 E18.05304
G1 X121.296 Y104.026 E18.06008
G1 X121.71 Y104.028 E18.07385
G1 X121.906 Y104.092 E18.08071
G1 X122.13 Y104.221 E18.0893
G1 X122.337 Y104.45 E18.09957
G1 X122.468 Y104.746 E18.11034
G1 X122.494 Y104.997 E18.11873
G1 X122.466 Y105.26 E18.12753
G1 X122.361 Y105.496 E18.13612
G1 X122.235 Y105.669 E18.14324
G1 X121.905 Y105.908 E18.15679
G1 X121.704 Y105.974 E18.16383
G1 X121.29 Y105.972 E18.17759
G1 X121.094 Y105.908 E18.18445
G1 X120.87 Y105.779 E18.19305
G1 X120.663 Y105.55 E18.20332
G1 X120.532 Y105.254 E18.21408
G1 X120.506 Y105.006 E18.22238
G1 F1500 E11.72238
G0 F6000 X109.817 Y104.949
G1 F1500 E18.22238
G1 F1200 X109.886 Y104.848 E18.22645
G1 X109.993 Y104.81 E18.23022
G1 X110.159 Y104.893 E18.23639
G1 X110.183 Y105.052 E18.24174
G1 X110.14 Y105.129 E18.24468
G1 X110.007 Y105.19 E18.24954
G1 X109.841 Y105.107 E18.25572
G1 X109.817 Y104.949 E18.26103
G0 F6000 X109.423 Y105.151
G1 F1200 X109.425 Y104.843 E18.27128
G1 X109.486 Y104.706 E18.27626
G1 X109.651 Y104.521 E18.28451
G1 X109.761 Y104.458 E18.28872
G1 X109.995 Y104.408 E18.29668
G1 X110.243 Y104.46 E18.30511
G1 X110.375 Y104.536 E18.31018
G1 X110.498 Y104.672 E18.31628
G1 X110.577 Y104.849 E18.32272
G1 X110.575 Y105.156 E18.33293
G1 X110.513 Y105.296 E18.33803
G1 X110.349 Y105.479 E18.3462
G1 X110.239 Y105.542 E18.35042
G1 X110.005 Y105.592 E18.35837
G1 X109.757 Y105.54 E18.3668
G1 X109.625 Y105.464 E18.37187
G1 X109.502 Y105.328 E18.37797
G1 X109.423 Y105.151 E18.38441
G0 F6000 X109.006 Y105.006
G1 F1200 X109.034 Y104.739 E18.39334
G1 X109.138 Y104.506 E18.40183
G1 X109.265 Y104.331 E18.40902
G1 X109.595 Y104.092 E18.42257
G1 X109.796 Y104.026 E18.42961
G1 X110.21 Y104.028 E18.44338
G1 X110.406 Y104.092 E18.45024
G1 X110.63 Y104.221 E18.45883
G1 X110.837 Y104.45 E18.4691
G1 X110.968 Y104.746 E18.47987
G1 X110.994 Y104.997 E18.48826
G1 X110.966 Y105.26 E18.49706
G1 X110.861 Y105.496 E18.50565
G1 X110.735 Y105.669 E18.51277
G1 X110.405 Y105.908 E18.52632
G1 X110.204 Y105.974 E18.53336
G1 X109.79 Y105.972 E18.54713
G1 X109.594 Y105.908 E18.55398
G1 X109.37 Y105.779 E18.56258
G1 X109.163 Y105.55 E18.57285
G1 X109.032 Y105.254 E18.58361
G1 X109.006 Y105.006 E18.59191
G1 F1500 E12.09191
G0 F6000 X98.317 Y104.949
G1 F1500 E18.59191
G1 F1200 X98.386 Y104.848 E18.59598
G1 X98.493 Y104.81 E18.59975
G1 X98.659 Y104.893 E18.60593
G1 X98.683 Y105.052 E18.61127
G1 X98.64 Y105.129 E18.61421
G1 X98.507 Y105.19 E18.61907
G1 X98.341 Y105.107 E18.62525
G1 X98.317 Y104.949 E18.63056
G0 F6000 X97.923 Y105.151
G1 F1200 X97.925 Y104.843 E18.64081
G1 X97.986 Y104.706 E18.64579
G1 X98.151 Y104.521 E18.65404
G1 X98.261 Y104.458 E18.65826
G1 X98.495 Y104.408 E18.66621
G1 X98.743 Y104.46 E18.67464
G1 X98.875 Y104.536 E18.67971
