;FLAVOR:Marlin
;TIME:1962
;Filament used: 0.910999m
;Layer height: 0.2
;MINX:78.034
;MINY:87.265
;MINZ:0.2
;MAXX:131.433
;MAXY:135.914
;MAXZ:17.6
;Generated with Cura_SteamEngine main
M82 ;absolute extrusion mode
; Ender 3 Custom Start G-code
G92 E0 ; Reset Extruder
G28 ; Home all axes
M104 S175 ; Start heating up the nozzle most of the way
M190 S60 ; Start heating the bed, wait until target temperature reached
M109 S195.0 ; Finish heating the nozzle
G1 Z2.0 F3000 ; Move Z Axis up little to prevent scratching of Heat Bed
G1 X0.1 Y20 Z0.3 F5000.0 ; Move to start position
G1 X0.1 Y200.0 Z0.3 F1500.0 E15 ; Draw the first line
G1 X0.4 Y200.0 Z0.3 F5000.0 ; Move to side a little
G1 X0.4 Y20 Z0.3 F1500.0 E30 ; Draw the second line
G92 E0 ; Reset Extruder
G1 Z2.0 F3000 ; Move Z Axis up little to prevent scratching of Heat Bed
G1 X5 Y20 Z0.3 F5000.0 ; Move over to prevent blob squish
G92 E0
G92 E0
G1 F1500 E-6.5
;LAYER_COUNT:88
;LAYER:0
M107
G0 F6000 X82.472 Y95.18 Z0.2
G0 X78.034 Y105.014
;TYPE:SKIRT
G1 F1500 E0
G1 F1200 X78.043 Y104.381 E0.02106
G1 X78.142 Y103.054 E0.06531
G1 X78.185 Y102.738 E0.07592
G1 X78.351 Y101.815 E0.10711
G1 X78.595 Y100.909 E0.13832
G1 X79.061 Y99.691 E0.1817
G1 X79.188 Y99.41 E0.19195
G1 X79.611 Y98.572 E0.22317
G1 X80.103 Y97.774 E0.25435
G1 X80.934 Y96.696 E0.29962
G1 X81.123 Y96.48 E0.30917
G1 X81.77 Y95.802 E0.34034
G1 X82.472 Y95.18 E0.37154
G1 X83.225 Y94.621 E0.40273
G1 X83.969 Y94.152 E0.43198
G1 X84.789 Y93.696 E0.46319
G1 X85.645 Y93.312 E0.49439
G1 X86.53 Y93.002 E0.52558
G1 X87.262 Y92.808 E0.55077
G1 X88.398 Y92.548 E0.58953
G1 X89.034 Y92.411 E0.61117
G1 X91.496 Y91.811 E0.69545
G1 X93.906 Y91.15 E0.77857
G1 X96.291 Y90.424 E0.86149
G1 X98.702 Y89.614 E0.94608
G1 X101.596 Y88.541 E1.04874
G1 X102.544 Y88.17 E1.0826
G1 X103.219 Y87.932 E1.1064
G1 X103.647 Y87.796 E1.12134
G1 X104.552 Y87.55 E1.15253
G1 X105.475 Y87.382 E1.18374
G1 X106.79 Y87.281 E1.2276
G1 X107.798 Y87.265 E1.26113
G1 X112.498 Y87.267 E1.41745
G1 X113.191 Y87.277 E1.44051
G1 X114.127 Y87.331 E1.47169
G1 X115.055 Y87.464 E1.50287
G1 X116.197 Y87.735 E1.54191
G1 X117.211 Y88.075 E1.57748
G1 X118.072 Y88.448 E1.60869
G1 X118.897 Y88.893 E1.63986
G1 X119.682 Y89.406 E1.67105
G1 X120.421 Y89.986 E1.7023
G1 X122.709 Y91.943 E1.80244
G1 X124.947 Y93.739 E1.89788
G1 X125.608 Y94.293 E1.92657
G1 X125.968 Y94.609 E1.9425
G1 X126.627 Y95.212 E1.97221
G1 X127.291 Y95.874 E2.00339
G1 X127.82 Y96.492 E2.03045
G1 X128 Y96.719 E2.04009
G1 X128.665 Y97.654 E2.07825
G1 X128.998 Y98.178 E2.0989
G1 X129.467 Y98.99 E2.13009
G1 X130.035 Y100.273 E2.17675
G1 X130.304 Y101.049 E2.20407
G1 X130.447 Y101.512 E2.22019
G1 X130.685 Y102.419 E2.25138
G1 X130.857 Y103.431 E2.28552
G1 X130.901 Y103.793 E2.29765
G1 X130.979 Y104.907 E2.33479
G1 X130.998 Y105.886 E2.36736
G1 X131 Y107.464 E2.41984
G1 X131.037 Y110.073 E2.50663
G1 X131.142 Y112.55 E2.58908
G1 X131.296 Y114.57 E2.65646
G1 X131.396 Y115.999 E2.70411
G1 X131.422 Y116.609 E2.72442
G1 X131.433 Y117.468 E2.75299
G1 X131.43 Y121.026 E2.87133
G1 X131.419 Y121.807 E2.89731
G1 X131.366 Y122.743 E2.92849
G1 X131.233 Y123.672 E2.9597
G1 X131.022 Y124.585 E2.99087
G1 X130.733 Y125.478 E3.02209
G1 X130.37 Y126.342 E3.05326
G1 X129.934 Y127.173 E3.08447
G1 X129.429 Y127.963 E3.11566
G1 X128.859 Y128.708 E3.14686
G1 X128.267 Y129.361 E3.17617
G1 X128.043 Y129.589 E3.1868
G1 X127.357 Y130.229 E3.21801
G1 X126.62 Y130.809 E3.2492
G1 X125.836 Y131.324 E3.2804
G1 X125.011 Y131.77 E3.31159
G1 X123.97 Y132.212 E3.34921
G1 X122.674 Y132.685 E3.39509
G1 X118.37 Y134.368 E3.5488
G1 X117.649 Y134.626 E3.57427
G1 X117.219 Y134.77 E3.58935
G1 X116.469 Y135.004 E3.61548
G1 X115.578 Y135.241 E3.64615
G1 X114.556 Y135.468 E3.68097
G1 X113.652 Y135.63 E3.71151
G1 X112.644 Y135.767 E3.74535
G1 X111.723 Y135.853 E3.77611
G1 X110.939 Y135.893 E3.80222
G1 X110.494 Y135.906 E3.81703
G1 X109.727 Y135.914 E3.84254
G1 X108.811 Y135.886 E3.87302
G1 X107.784 Y135.811 E3.90727
G1 X106.876 Y135.706 E3.93767
G1 X106.132 Y135.589 E3.96272
G1 X105.687 Y135.51 E3.97776
G1 X105.136 Y135.4 E3.99644
G1 X104.675 Y135.298 E4.01215
G1 X104.201 Y135.182 E4.02838
G1 X103.756 Y135.063 E4.0437
G1 X103.238 Y134.913 E4.06164
G1 X102.343 Y134.623 E4.09293
G1 X101.921 Y134.472 E4.10783
G1 X100.735 Y134.016 E4.1501
G1 X99.534 Y133.52 E4.19331
G1 X95.956 Y132.183 E4.32036
G1 X95.092 Y131.818 E4.35155
G1 X94.262 Y131.38 E4.38277
G1 X93.473 Y130.873 E4.41396
G1 X92.73 Y130.301 E4.44515
G1 X92.312 Y129.931 E4.46371
G1 X90.542 Y128.284 E4.54413
G1 X88.609 Y126.585 E4.62972
G1 X86.717 Y125.013 E4.71154
G1 X84.692 Y123.426 E4.79711
G1 X82.834 Y122.046 E4.87409
G1 X82.106 Y121.455 E4.90527
G1 X81.186 Y120.548 E4.94824
G1 X80.496 Y119.724 E4.98399
G1 X79.958 Y118.956 E5.01518
G1 X79.348 Y117.868 E5.05666
G1 X79.213 Y117.592 E5.06688
G1 X78.837 Y116.733 E5.09807
G1 X78.536 Y115.845 E5.12926
G1 X78.251 Y114.611 E5.17138
G1 X78.203 Y114.33 E5.18086
G1 X78.085 Y113.4 E5.21204
G1 X78.047 Y112.655 E5.23685
G1 X78.034 Y111.845 E5.2638
G1 X78.034 Y105.014 E5.491
G0 F6000 X78.434 Y105.019
G1 F1200 X78.443 Y104.386 E5.51205
G1 X78.539 Y103.108 E5.55468
G1 X78.582 Y102.792 E5.56529
G1 X78.745 Y101.886 E5.5959
G1 X78.987 Y100.997 E5.62655
G1 X79.426 Y99.855 E5.66724
G1 X79.553 Y99.574 E5.6775
G1 X79.968 Y98.753 E5.70809
G1 X80.453 Y97.97 E5.73873
G1 X81.235 Y96.96 E5.78121
G1 X81.424 Y96.744 E5.79076
G1 X82.059 Y96.078 E5.82136
G1 X82.751 Y95.47 E5.852
G1 X83.863 Y94.686 E5.89726
G1 X84.178 Y94.493 E5.90954
G1 X84.983 Y94.046 E5.94017
G1 X85.824 Y93.671 E5.97079
G1 X86.694 Y93.371 E6.0014
G1 X87.351 Y93.198 E6.024
G1 X89.148 Y92.795 E6.08525
G1 X91.558 Y92.208 E6.16775
G1 X94.024 Y91.532 E6.2528
G1 X96.451 Y90.793 E6.33718
G1 X98.813 Y89.999 E6.42006
G1 X101.772 Y88.902 E6.52502
G1 X102.69 Y88.543 E6.55781
G1 X103.34 Y88.313 E6.58074
G1 X103.768 Y88.177 E6.59568
G1 X104.657 Y87.936 E6.62631
G1 X105.563 Y87.774 E6.65692
G1 X106.797 Y87.681 E6.69808
G1 X107.798 Y87.665 E6.73138
G1 X112.492 Y87.667 E6.8875
G1 X113.185 Y87.677 E6.91056
G1 X114.104 Y87.73 E6.94117
G1 X115.015 Y87.863 E6.97179
G1 X116.088 Y88.12 E7.00849
G1 X117.084 Y88.454 E7.04343
G1 X117.928 Y88.823 E7.07407
G1 X118.736 Y89.263 E7.10467
G1 X119.504 Y89.771 E7.1353
G1 X120.161 Y90.29 E7.16314
G1 X122.443 Y92.242 E7.26302
G1 X124.69 Y94.046 E7.35886
G1 X125.351 Y94.6 E7.38755
G1 X125.698 Y94.904 E7.40289
G1 X126.357 Y95.507 E7.4326
G1 X127.008 Y96.157 E7.4632
G1 X127.507 Y96.741 E7.48875
G1 X127.687 Y96.968 E7.49838
G1 X128.327 Y97.869 E7.53514
G1 X128.66 Y98.393 E7.55579
G1 X129.12 Y99.19 E7.5864
G1 X129.66 Y100.411 E7.6308
G1 X129.922 Y101.167 E7.65742
G1 X130.065 Y101.63 E7.67353
G1 X130.298 Y102.521 E7.70416
G1 X130.46 Y103.479 E7.73648
G1 X130.504 Y103.841 E7.74861
G1 X130.579 Y104.914 E7.78438
G1 X130.6 Y106.099 E7.8238
G1 X130.6 Y107.47 E7.8694
G1 X130.637 Y110.095 E7.95672
G1 X130.742 Y112.569 E8.03908
G1 X130.897 Y114.598 E8.10676
G1 X130.997 Y116.027 E8.15441
G1 X131.022 Y116.614 E8.17395
G1 X131.033 Y117.468 E8.20235
G1 X131.03 Y121.02 E8.32049
G1 X131.019 Y121.801 E8.34647
G1 X130.966 Y122.72 E8.37709
G1 X130.834 Y123.631 E8.40771
G1 X130.622 Y124.528 E8.43836
G1 X130.334 Y125.402 E8.46897
G1 X129.972 Y126.248 E8.49957
G1 X129.537 Y127.06 E8.53021
G1 X129.033 Y127.83 E8.56082
G1 X128.465 Y128.554 E8.59143
G1 X127.981 Y129.081 E8.61523
G1 X127.757 Y129.309 E8.62586
G1 X127.084 Y129.937 E8.65647
G1 X126.359 Y130.504 E8.68709
G1 X125.588 Y131.006 E8.71769
G1 X124.775 Y131.44 E8.74834
G1 X123.833 Y131.837 E8.78234
G1 X122.493 Y132.327 E8.82979
G1 X118.235 Y133.991 E8.98184
G1 X117.514 Y134.249 E9.00731
G1 X117.1 Y134.388 E9.02184
G1 X116.35 Y134.622 E9.04797
G1 X115.491 Y134.851 E9.07754
G1 X114.469 Y135.078 E9.11236
G1 X113.599 Y135.233 E9.14175
G1 X112.591 Y135.37 E9.17559
G1 X111.703 Y135.453 E9.20525
G1 X110.919 Y135.493 E9.23136
G1 X110.49 Y135.506 E9.24563
G1 X109.723 Y135.514 E9.27115
G1 X108.84 Y135.487 E9.30053
G1 X107.813 Y135.412 E9.33478
G1 X106.938 Y135.311 E9.36407
G1 X106.194 Y135.194 E9.38912
G1 X105.766 Y135.118 E9.40358
G1 X105.215 Y135.008 E9.42227
G1 X104.77 Y134.909 E9.43743
G1 X103.868 Y134.679 E9.46839
G1 X103.35 Y134.529 E9.48633
G1 X102.47 Y134.244 E9.51709
G1 X102.064 Y134.098 E9.53144
G1 X100.888 Y133.646 E9.57335
G1 X99.684 Y133.149 E9.61667
G1 X96.096 Y131.808 E9.74407
G1 X95.248 Y131.449 E9.7747
G1 X94.435 Y131.017 E9.80532
G1 X93.662 Y130.517 E9.83594
G1 X92.936 Y129.951 E9.86656
G1 X92.584 Y129.638 E9.88222
G1 X90.779 Y127.958 E9.96424
G1 X88.901 Y126.307 E10.04741
G1 X86.957 Y124.692 E10.13147
G1 X84.937 Y123.109 E10.21682
G1 X83.073 Y121.725 E10.29404
G1 X82.358 Y121.144 E10.32468
G1 X81.48 Y120.277 E10.36572
G1 X80.804 Y119.467 E10.40081
G1 X80.277 Y118.712 E10.43144
G1 X79.707 Y117.692 E10.4703
G1 X79.572 Y117.416 E10.48052
G1 X79.204 Y116.573 E10.51111
G1 X78.91 Y115.7 E10.54175
G1 X78.645 Y114.544 E10.5812
G1 X78.597 Y114.263 E10.59068
G1 X78.482 Y113.349 E10.62132
G1 X78.447 Y112.648 E10.64466
G1 X78.434 Y111.838 E10.67161
G1 X78.434 Y105.019 E10.89841
G0 F6000 X78.834 Y105.025
G1 F1200 X78.843 Y104.392 E10.91946
G1 X78.935 Y103.162 E10.96049
G1 X78.978 Y102.846 E10.9711
G1 X79.139 Y101.957 E11.00115
G1 X79.379 Y101.086 E11.03119
G1 X79.79 Y100.02 E11.06919
G1 X79.917 Y99.739 E11.07945
G1 X80.325 Y98.933 E11.1095
G1 X80.803 Y98.167 E11.13953
G1 X81.536 Y97.223 E11.17928
G1 X81.725 Y97.007 E11.18883
G1 X82.349 Y96.355 E11.21884
G1 X83.028 Y95.76 E11.24887
G1 X84.072 Y95.027 E11.2913
G1 X84.387 Y94.834 E11.30358
G1 X85.177 Y94.396 E11.33363
G1 X86.003 Y94.031 E11.36366
G1 X86.858 Y93.74 E11.3937
G1 X87.44 Y93.588 E11.41371
G1 X88.719 Y93.296 E11.45734
G1 X89.222 Y93.189 E11.47445
G1 X91.687 Y92.587 E11.55884
G1 X94.131 Y91.917 E11.64313
G1 X96.568 Y91.176 E11.72785
G1 X98.943 Y90.377 E11.81119
G1 X101.878 Y89.289 E11.9153
G1 X102.835 Y88.915 E11.94948
G1 X103.461 Y88.694 E11.97156
G1 X103.889 Y88.558 E11.98649
G1 X104.761 Y88.323 E12.01653
G1 X105.65 Y88.166 E12.04656
G1 X106.803 Y88.08 E12.08501
G1 X107.621 Y88.066 E12.11222
G1 X112.486 Y88.067 E12.27403
G1 X113.179 Y88.077 E12.29709
G1 X114.081 Y88.13 E12.32714
G1 X114.974 Y88.263 E12.35717
G1 X115.981 Y88.505 E12.39161
G1 X116.956 Y88.834 E12.42584
G1 X117.783 Y89.197 E12.45588
G1 X118.574 Y89.632 E12.4859
G1 X119.324 Y90.135 E12.51594
G1 X119.901 Y90.594 E12.54046
G1 X122.188 Y92.551 E12.64057
G1 X124.26 Y94.211 E12.72888
G1 X125.094 Y94.907 E12.76501
G1 X125.428 Y95.199 E12.77976
G1 X126.087 Y95.802 E12.80947
G1 X126.725 Y96.44 E12.83948
G1 X127.193 Y96.99 E12.8635
G1 X127.373 Y97.217 E12.87314
G1 X127.99 Y98.083 E12.9085
G1 X128.323 Y98.607 E12.92915
G1 X128.773 Y99.39 E12.95919
G1 X129.284 Y100.55 E13.00135
G1 X129.54 Y101.285 E13.02724
G1 X129.683 Y101.748 E13.04335
G1 X129.911 Y102.622 E13.0734
G1 X130.062 Y103.527 E13.10391
G1 X130.106 Y103.889 E13.11604
G1 X130.179 Y104.922 E13.15049
G1 X130.2 Y106.099 E13.18964
G1 X130.2 Y107.476 E13.23544
G1 X130.237 Y110.082 E13.32212
G1 X130.344 Y112.616 E13.40648
G1 X130.498 Y114.626 E13.47353
G1 X130.598 Y116.055 E13.52117
G1 X130.622 Y116.62 E13.53998
G1 X130.633 Y117.468 E13.56819
G1 X130.63 Y121.015 E13.68616
G1 X130.619 Y121.796 E13.71214
G1 X130.566 Y122.697 E13.74216
G1 X130.434 Y123.591 E13.77222
G1 X130.223 Y124.469 E13.80225
G1 X129.936 Y125.325 E13.83228
G1 X129.574 Y126.152 E13.8623
G1 X129.14 Y126.944 E13.89234
G1 X128.637 Y127.695 E13.92241
G1 X128.071 Y128.398 E13.95242
G1 X127.696 Y128.8 E13.97071
G1 X127.472 Y129.028 E13.98134
G1 X126.811 Y129.644 E14.01139
G1 X126.099 Y130.199 E14.04142
G1 X125.34 Y130.688 E14.07145
G1 X124.54 Y131.109 E14.10152
G1 X123.696 Y131.461 E14.13193
G1 X122.335 Y131.958 E14.18012
G1 X118.101 Y133.615 E14.33134
G1 X117.38 Y133.873 E14.35681
G1 X116.981 Y134.006 E14.3708
G1 X116.231 Y134.24 E14.39693
G1 X115.405 Y134.46 E14.42536
G1 X114.383 Y134.687 E14.46019
G1 X113.545 Y134.837 E14.4885
G1 X112.537 Y134.974 E14.52233
G1 X111.683 Y135.054 E14.55086
G1 X110.899 Y135.094 E14.57697
G1 X109.718 Y135.114 E14.61626
G1 X108.869 Y135.088 E14.64451
G1 X107.842 Y135.013 E14.67876
G1 X107 Y134.916 E14.70695
G1 X106.256 Y134.799 E14.732
G1 X105.844 Y134.726 E14.74592
G1 X105.293 Y134.616 E14.7646
G1 X104.391 Y134.405 E14.79541
G1 X103.461 Y134.144 E14.82754
G1 X103.06 Y134.019 E14.84151
G1 X102.206 Y133.725 E14.87155
G1 X101.04 Y133.277 E14.9131
G1 X99.823 Y132.774 E14.9569
G1 X96.236 Y131.434 E15.08425
G1 X95.405 Y131.08 E15.1143
G1 X94.608 Y130.655 E15.14434
G1 X93.852 Y130.161 E15.17437
G1 X92.857 Y129.346 E15.21715
G1 X91.05 Y127.664 E15.29926
G1 X89.158 Y126.001 E15.38304
G1 X87.193 Y124.368 E15.46802
G1 X85.201 Y122.808 E15.55217
G1 X83.311 Y121.404 E15.63048
G1 X82.611 Y120.834 E15.66051
G1 X81.773 Y120.006 E15.69969
G1 X81.111 Y119.211 E15.7341
G1 X80.597 Y118.468 E15.76415
G1 X80.066 Y117.517 E15.80037
G1 X79.931 Y117.241 E15.81059
G1 X79.571 Y116.413 E15.84062
G1 X79.285 Y115.556 E15.87067
G1 X79.04 Y114.476 E15.90751
G1 X78.992 Y114.195 E15.91699
G1 X78.879 Y113.299 E15.94703
G1 X78.847 Y112.642 E15.9689
G1 X78.834 Y111.832 E15.99585
G1 X78.834 Y105.025 E16.22225
G1 F1500 E9.72225
;MESH:holder2-claw.stl
G0 F6000 X88.368 Y105.025
G0 X95.364 Y112.677
;TYPE:WALL-INNER
G1 F1500 E16.22225
G1 F1200 X95.433 Y112.531 E16.22762
G1 X95.433 Y104.526 E16.49387
G1 X95.388 Y104.311 E16.50117
G1 X95.238 Y104.146 E16.50859
G1 X94.954 Y104.074 E16.51833
G1 X90.115 Y104.073 E16.67928
G1 X89.915 Y104.101 E16.686
G1 X89.782 Y104.183 E16.69119
G1 X89.633 Y104.402 E16.7
G1 X89.635 Y112.543 E16.97077
G1 X89.778 Y112.761 E16.97945
G1 X90.055 Y112.873 E16.98938
G1 X95.004 Y112.873 E17.15399
G1 X95.189 Y112.822 E17.16037
G1 X95.364 Y112.677 E17.16793
G0 F6000 X95.351 Y113.193
;TYPE:WALL-OUTER
G1 F1200 X95.549 Y113.07 E17.17568
G1 X95.702 Y112.899 E17.18331
G1 X95.833 Y112.62 E17.19357
G1 X95.833 Y104.526 E17.46277
G1 X95.833 Y104.403 E17.46686
G1 X95.754 Y104.137 E17.47609
G1 X95.626 Y103.948 E17.48369
G1 X95.449 Y103.801 E17.49134
G1 X95.231 Y103.707 E17.49923
G1 X94.98 Y103.674 E17.50765
G1 X90.088 Y103.673 E17.67036
G1 X89.777 Y103.716 E17.68081
G1 X89.523 Y103.872 E17.69072
G1 X89.37 Y104.041 E17.6983
G1 X89.271 Y104.247 E17.7059
G1 X89.233 Y104.49 E17.71408
G1 X89.234 Y112.459 E17.97913
G1 X89.269 Y112.692 E17.98697
G1 X89.366 Y112.901 E17.99463
G1 X89.518 Y113.071 E18.00222
G1 X89.718 Y113.194 E18.01003
G1 X90.001 Y113.273 E18.0198
G1 X95.057 Y113.273 E18.18796
G1 X95.351 Y113.193 E18.1981
G0 F6000 X95.073 Y112.45
;TYPE:SKIN
G1 F1200 X95.073 Y104.521 E18.46182
G1 X95.048 Y104.464 E18.46389
G1 X94.919 Y104.434 E18.46829
G1 X90.063 Y104.434 E18.6298
G1 X89.994 Y104.505 E18.6331
G1 X89.994 Y112.438 E18.89695
G1 X90.114 Y112.513 E18.90166
G1 X94.951 Y112.513 E19.06254
G1 X95.073 Y112.45 E19.0671
G0 F6000 X95.302 Y112.566
G0 X95.043 Y112.683
G0 X89.964 Y112.742
G0 X90.25 Y112.311
G1 F1200 X90.192 Y112.254 E19.06981
G0 F6000 X90.192 Y111.688
G1 F1200 X90.815 Y112.311 E19.09911
G0 F6000 X91.381 Y112.311
G1 F1200 X90.192 Y111.123 E19.15501
G0 F6000 X90.192 Y110.557
G1 F1200 X91.947 Y112.311 E19.23754
G0 F6000 X92.512 Y112.311
G1 F1200 X90.192 Y109.991 E19.34667
G0 F6000 X90.192 Y109.426
G1 F1200 X93.078 Y112.311 E19.48239
G0 F6000 X93.644 Y112.311
G1 F1200 X90.192 Y108.86 E19.64474
G0 F6000 X90.193 Y108.295
G1 F1200 X94.209 Y112.311 E19.83364
G0 F6000 X94.775 Y112.311
G1 F1200 X90.193 Y107.729 E20.04916
G0 F6000 X90.193 Y107.164
G1 F1200 X94.873 Y111.843 E20.26927
G0 F6000 X94.873 Y111.278
G1 F1200 X90.193 Y106.598 E20.48941
G0 F6000 X90.193 Y106.032
G1 F1200 X94.873 Y110.712 E20.70954
G0 F6000 X94.873 Y110.146
G1 F1200 X90.193 Y105.467 E20.92965
G0 F6000 X90.193 Y104.901
G1 F1200 X94.873 Y109.581 E21.14978
G0 F6000 X94.873 Y109.015
G1 F1200 X90.491 Y104.633 E21.3559
G0 F6000 X91.056 Y104.633
G1 F1200 X94.873 Y108.449 E21.53541
G0 F6000 X94.873 Y107.883
G1 F1200 X91.622 Y104.633 E21.68831
G0 F6000 X92.188 Y104.633
G1 F1200 X94.873 Y107.318 E21.8146
G0 F6000 X94.873 Y106.752
G1 F1200 X92.754 Y104.633 E21.91427
G0 F6000 X93.319 Y104.633
G1 F1200 X94.873 Y106.186 E21.98734
G0 F6000 X94.873 Y105.621
