;FLAVOR:Marlin
;TIME:3353
;Filament used: 2.32662m
;Layer height: 0.2
;MINX:69
;MINY:64.787
;MINZ:0.2
;MAXX:151
;MAXY:111.786
;MAXZ:9
;Generated with Cura_SteamEngine main
M82 ;absolute extrusion mode
; Ender 3 Custom Start G-code
G92 E0 ; Reset Extruder
G28 ; Home all axes
M104 S175 ; Start heating up the nozzle most of the way
M190 S60 ; Start heating the bed, wait until target temperature reached
M109 S195.0 ; Finish heating the nozzle
G1 Z2.0 F3000 ; Move Z Axis up little to prevent scratching of Heat Bed
G1 X0.1 Y20 Z0.3 F5000.0 ; Move to start position
G1 X0.1 Y200.0 Z0.3 F1500.0 E15 ; Draw the first line
G1 X0.4 Y200.0 Z0.3 F5000.0 ; Move to side a little
G1 X0.4 Y20 Z0.3 F1500.0 E30 ; Draw the second line
G92 E0 ; Reset Extruder
G1 Z2.0 F3000 ; Move Z Axis up little to prevent scratching of Heat Bed
G1 X5 Y20 Z0.3 F5000.0 ; Move over to prevent blob squish
G92 E0
G92 E0
G1 F1500 E-6.5
;LAYER_COUNT:45
;LAYER:0
M107
G0 F6000 X73.315 Y69.871 Z0.2
G0 X69.021 Y80.366
;TYPE:SKIRT
G1 F1500 E0
G1 F1200 X69.052 Y79.703 E0.02208
G1 X69.073 Y79.434 E0.03105
G1 X69.157 Y78.689 E0.05599
G1 X69.236 Y78.152 E0.07404
G1 X69.412 Y77.231 E0.10523
G1 X69.537 Y76.751 E0.12172
G1 X69.695 Y76.194 E0.14098
G1 X69.92 Y75.489 E0.16559
G1 X70.017 Y75.218 E0.17517
G1 X70.319 Y74.456 E0.20243
G1 X70.653 Y73.744 E0.22859
G1 X70.849 Y73.358 E0.24298
G1 X71.221 Y72.685 E0.26856
G1 X71.354 Y72.463 E0.27717
G1 X71.737 Y71.867 E0.30073
G1 X71.922 Y71.599 E0.31156
G1 X72.364 Y71.004 E0.33622
G1 X72.701 Y70.58 E0.35423
G1 X73.315 Y69.871 E0.38542
G1 X73.65 Y69.531 E0.4013
G1 X73.991 Y69.2 E0.41711
G1 X74.527 Y68.714 E0.44117
G1 X74.741 Y68.532 E0.45051
G1 X75.313 Y68.077 E0.47482
G1 X75.654 Y67.824 E0.48895
G1 X76.303 Y67.373 E0.51523
G1 X76.984 Y66.961 E0.54171
G1 X77.334 Y66.764 E0.55506
G1 X78.047 Y66.396 E0.58175
G1 X78.334 Y66.261 E0.5923
G1 X78.937 Y65.999 E0.61417
G1 X79.23 Y65.882 E0.62466
G1 X79.944 Y65.625 E0.6499
G1 X80.277 Y65.518 E0.66153
G1 X81.037 Y65.299 E0.68784
G1 X81.885 Y65.112 E0.71672
G1 X82.308 Y65.034 E0.73103
G1 X83.015 Y64.928 E0.75481
G1 X83.295 Y64.895 E0.76418
G1 X84.007 Y64.834 E0.78795
G1 X84.707 Y64.804 E0.81125
G1 X85.681 Y64.788 E0.84365
G1 X134.136 Y64.787 E2.45527
G1 X135.406 Y64.807 E2.49752
G1 X136.131 Y64.842 E2.52166
G1 X136.409 Y64.865 E2.53094
G1 X137.083 Y64.942 E2.5535
G1 X137.503 Y65.003 E2.56762
G1 X138.23 Y65.134 E2.59219
G1 X138.491 Y65.19 E2.60107
G1 X139.222 Y65.373 E2.62613
G1 X139.622 Y65.488 E2.63997
G1 X140.463 Y65.765 E2.66942
G1 X141.145 Y66.032 E2.69378
G1 X141.458 Y66.167 E2.70512
G1 X142.089 Y66.463 E2.7283
G1 X142.437 Y66.64 E2.74129
G1 X143.097 Y67.005 E2.76637
G1 X143.316 Y67.136 E2.77486
G1 X143.908 Y67.517 E2.79827
G1 X144.21 Y67.725 E2.81047
G1 X144.805 Y68.164 E2.83506
G1 X145.056 Y68.363 E2.84572
G1 X145.605 Y68.828 E2.86965
G1 X145.848 Y69.048 E2.88055
G1 X146.365 Y69.548 E2.90447
G1 X146.677 Y69.87 E2.91938
G1 X147.3 Y70.571 E2.95058
G1 X147.601 Y70.957 E2.96686
G1 X148.023 Y71.524 E2.99037
G1 X148.551 Y72.3 E3.02158
G1 X149.029 Y73.132 E3.0535
G1 X149.387 Y73.825 E3.07944
G1 X149.585 Y74.245 E3.09488
G1 X150.096 Y75.536 E3.14106
G1 X150.253 Y76.019 E3.15796
G1 X150.454 Y76.712 E3.18196
G1 X150.535 Y77.031 E3.1929
G1 X150.693 Y77.755 E3.21755
G1 X150.752 Y78.077 E3.22844
G1 X150.858 Y78.783 E3.25218
G1 X150.894 Y79.091 E3.2625
G1 X150.953 Y79.794 E3.28596
G1 X150.982 Y80.492 E3.3092
G1 X151 Y81.639 E3.34735
G1 X150.999 Y95.103 E3.79516
G1 X150.981 Y96.193 E3.83142
G1 X150.946 Y96.902 E3.85503
G1 X150.923 Y97.185 E3.86448
G1 X150.845 Y97.875 E3.88757
G1 X150.783 Y98.302 E3.90192
G1 X150.634 Y99.133 E3.93
G1 X150.426 Y99.963 E3.95846
G1 X150.301 Y100.399 E3.97355
G1 X150.1 Y101.028 E3.99551
G1 X150.01 Y101.283 E4.00451
G1 X149.694 Y102.092 E4.03339
G1 X149.339 Y102.844 E4.06105
G1 X149.074 Y103.363 E4.08043
G1 X148.612 Y104.18 E4.11165
G1 X148.33 Y104.609 E4.12873
G1 X148.056 Y105.006 E4.14477
G1 X147.624 Y105.591 E4.16896
G1 X147.41 Y105.861 E4.18042
G1 X146.865 Y106.504 E4.20845
G1 X146.293 Y107.096 E4.23583
G1 X145.972 Y107.408 E4.25072
G1 X145.364 Y107.962 E4.27808
G1 X144.687 Y108.5 E4.30684
G1 X144.425 Y108.694 E4.31768
G1 X143.859 Y109.087 E4.3406
G1 X143.402 Y109.383 E4.35871
G1 X142.594 Y109.858 E4.38988
G1 X142.143 Y110.085 E4.40668
G1 X141.68 Y110.305 E4.42373
G1 X141.038 Y110.586 E4.44703
G1 X140.77 Y110.693 E4.45663
G1 X140.084 Y110.941 E4.48089
G1 X139.791 Y111.036 E4.49114
G1 X139.066 Y111.244 E4.51623
G1 X138.706 Y111.334 E4.52857
G1 X138.033 Y111.48 E4.55147
G1 X137.61 Y111.558 E4.56578
G1 X136.681 Y111.688 E4.59698
G1 X136.192 Y111.725 E4.61329
G1 X135.077 Y111.776 E4.65041
G1 X134.416 Y111.786 E4.6724
G1 X85.585 Y111.786 E6.29653
G1 X84.722 Y111.773 E6.32523
G1 X84.004 Y111.738 E6.34914
G1 X83.52 Y111.699 E6.36529
G1 X82.816 Y111.62 E6.38885
G1 X82.398 Y111.559 E6.4029
G1 X81.476 Y111.384 E6.43412
G1 X80.964 Y111.251 E6.45171
G1 X80.264 Y111.051 E6.47593
G1 X79.374 Y110.755 E6.50712
G1 X78.581 Y110.425 E6.53569
G1 X77.907 Y110.107 E6.56048
G1 X77.445 Y109.87 E6.57775
G1 X76.608 Y109.393 E6.60979
G1 X76.279 Y109.186 E6.62272
G1 X75.308 Y108.5 E6.66226
G1 X74.938 Y108.207 E6.67796
G1 X74.387 Y107.74 E6.70198
G1 X74.198 Y107.569 E6.71046
G1 X73.689 Y107.078 E6.73398
G1 X73.311 Y106.689 E6.75202
G1 X72.687 Y105.989 E6.78321
G1 X72.364 Y105.575 E6.80067
G1 X72.034 Y105.13 E6.8191
G1 X71.571 Y104.463 E6.84611
G1 X71.16 Y103.78 E6.87262
G1 X70.981 Y103.461 E6.88478
G1 X70.635 Y102.791 E6.90987
G1 X70.47 Y102.443 E6.92267
G1 X70.123 Y101.634 E6.95195
G1 X69.868 Y100.933 E6.97676
G1 X69.747 Y100.561 E6.98977
G1 X69.543 Y99.852 E7.01431
G1 X69.466 Y99.547 E7.02477
G1 X69.307 Y98.814 E7.04972
G1 X69.242 Y98.455 E7.06186
G1 X69.141 Y97.774 E7.08475
G1 X69.108 Y97.492 E7.0942
G1 X69.049 Y96.808 E7.11703
G1 X69.017 Y96.079 E7.1413
G1 X69.001 Y95.102 E7.1738
G1 X69 Y81.64 E7.62155
G1 X69.021 Y80.366 E7.66393
G0 F6000 X69.4 Y81.64
G1 F1200 X69.421 Y80.373 E7.70607
G1 X69.451 Y79.734 E7.72735
G1 X69.472 Y79.465 E7.73633
G1 X69.553 Y78.747 E7.76036
G1 X69.632 Y78.21 E7.77841
G1 X69.805 Y77.306 E7.80902
G1 X69.921 Y76.86 E7.82435
G1 X70.079 Y76.303 E7.84361
G1 X70.297 Y75.624 E7.86733
G1 X70.394 Y75.353 E7.8769
G1 X70.686 Y74.614 E7.90333
G1 X71.01 Y73.925 E7.92865
G1 X71.206 Y73.539 E7.94305
G1 X71.564 Y72.89 E7.9677
G1 X71.697 Y72.668 E7.97631
G1 X72.067 Y72.094 E7.99902
G1 X72.252 Y71.826 E8.00986
G1 X72.677 Y71.253 E8.03358
G1 X73.014 Y70.829 E8.0516
G1 X73.929 Y69.818 E8.09695
G1 X74.27 Y69.487 E8.11276
G1 X74.786 Y69.018 E8.13595
G1 X75 Y68.836 E8.14529
G1 X75.551 Y68.398 E8.1687
G1 X75.892 Y68.145 E8.18283
G1 X76.608 Y67.656 E8.21166
G1 X77.18 Y67.31 E8.2339
G1 X77.53 Y67.113 E8.24726
G1 X78.217 Y66.758 E8.27298
G1 X78.504 Y66.623 E8.28353
G1 X79.085 Y66.371 E8.30459
G1 X79.378 Y66.254 E8.31508
G1 X80.066 Y66.006 E8.33941
G1 X80.399 Y65.899 E8.35104
G1 X81.137 Y65.686 E8.37659
G1 X81.958 Y65.506 E8.40454
G1 X82.381 Y65.428 E8.41885
G1 X83.062 Y65.325 E8.44176
G1 X83.342 Y65.292 E8.45114
G1 X84.028 Y65.234 E8.47403
G1 X84.714 Y65.204 E8.49687
G1 X85.688 Y65.188 E8.52927
G1 X134.311 Y65.188 E10.14648
G1 X135.399 Y65.206 E10.18267
G1 X136.098 Y65.241 E10.20595
G1 X136.376 Y65.264 E10.21523
G1 X137.026 Y65.338 E10.23699
G1 X137.446 Y65.399 E10.2511
G1 X138.146 Y65.525 E10.27476
G1 X138.407 Y65.581 E10.28364
G1 X139.112 Y65.758 E10.30781
G1 X139.512 Y65.873 E10.32165
G1 X140.33 Y66.142 E10.35029
G1 X140.987 Y66.4 E10.37377
G1 X141.3 Y66.535 E10.38511
G1 X141.908 Y66.82 E10.40744
G1 X142.256 Y66.997 E10.42043
G1 X142.891 Y67.348 E10.44456
G1 X143.11 Y67.479 E10.45305
G1 X143.682 Y67.846 E10.47565
G1 X143.984 Y68.054 E10.48785
G1 X144.556 Y68.478 E10.51153
G1 X144.807 Y68.677 E10.52218
G1 X145.336 Y69.125 E10.54524
G1 X145.579 Y69.345 E10.55614
G1 X146.078 Y69.827 E10.57922
G1 X146.39 Y70.149 E10.59413
G1 X147.28 Y71.196 E10.63983
G1 X147.702 Y71.763 E10.66334
G1 X148.442 Y72.904 E10.70858
G1 X148.68 Y73.328 E10.72475
G1 X149.025 Y73.996 E10.74975
G1 X149.223 Y74.416 E10.7652
G1 X149.716 Y75.659 E10.80967
G1 X149.873 Y76.142 E10.82656
G1 X150.066 Y76.81 E10.84969
G1 X150.147 Y77.129 E10.86064
G1 X150.299 Y77.828 E10.88443
G1 X150.358 Y78.15 E10.89532
G1 X150.46 Y78.829 E10.91815
G1 X150.496 Y79.137 E10.92847
G1 X150.554 Y79.815 E10.9511
G1 X150.583 Y80.498 E10.97384
G1 X150.599 Y81.463 E11.00594
G1 X150.599 Y95.096 E11.45937
G1 X150.581 Y96.186 E11.49563
G1 X150.547 Y96.87 E11.51841
G1 X150.524 Y97.153 E11.52785
G1 X150.449 Y97.817 E11.55008
G1 X150.387 Y98.244 E11.56443
G1 X150.243 Y99.048 E11.5916
G1 X150.042 Y99.852 E11.61916
G1 X149.917 Y100.288 E11.63425
G1 X149.723 Y100.895 E11.65544
G1 X149.633 Y101.15 E11.66444
G1 X149.325 Y101.932 E11.69239
G1 X148.983 Y102.662 E11.7192
G1 X148.718 Y103.181 E11.73858
G1 X148.264 Y103.982 E11.76921
G1 X148.001 Y104.382 E11.78513
G1 X147.727 Y104.779 E11.80117
G1 X147.31 Y105.342 E11.82448
G1 X147.096 Y105.612 E11.83594
G1 X146.569 Y106.234 E11.86305
G1 X146.014 Y106.809 E11.88963
G1 X145.693 Y107.121 E11.90452
G1 X145.105 Y107.657 E11.93098
G1 X144.449 Y108.179 E11.95887
G1 X144.187 Y108.373 E11.96971
G1 X143.641 Y108.751 E11.9918
G1 X143.184 Y109.047 E12.00991
G1 X142.391 Y109.513 E12.0405
G1 X141.971 Y109.724 E12.05613
G1 X141.508 Y109.944 E12.07318
G1 X140.889 Y110.214 E12.09564
G1 X140.621 Y110.321 E12.10524
G1 X139.96 Y110.56 E12.12862
G1 X139.667 Y110.655 E12.13886
G1 X138.969 Y110.856 E12.16302
G1 X138.609 Y110.946 E12.17536
G1 X137.96 Y111.086 E12.19745
G1 X137.537 Y111.164 E12.21175
G1 X136.171 Y111.325 E12.2575
G1 X135.071 Y111.376 E12.29412
G1 X134.41 Y111.386 E12.31611
G1 X85.591 Y111.386 E13.93984
G1 X84.728 Y111.373 E13.96855
G1 X84.037 Y111.34 E13.99155
G1 X83.553 Y111.301 E14.0077
G1 X82.873 Y111.224 E14.03047
G1 X82.455 Y111.163 E14.04452
G1 X81.551 Y110.991 E14.07512
G1 X81.074 Y110.866 E14.09152
G1 X80.374 Y110.666 E14.11574
G1 X79.097 Y110.211 E14.16083
G1 X78.739 Y110.057 E14.17379
G1 X78.09 Y109.751 E14.19765
G1 X77.628 Y109.514 E14.21492
G1 X76.821 Y109.055 E14.2458
G1 X76.492 Y108.848 E14.25873
G1 X75.556 Y108.186 E14.29686
G1 X75.186 Y107.893 E14.31256
G1 X74.655 Y107.443 E14.33571
G1 X74.466 Y107.272 E14.34419
G1 X73.976 Y106.799 E14.36684
G1 X73.598 Y106.41 E14.38488
G1 X72.986 Y105.723 E14.41548
G1 X72.686 Y105.337 E14.43174
G1 X72.356 Y104.892 E14.45017
G1 X71.908 Y104.245 E14.47634
G1 X71.509 Y103.584 E14.50202
G1 X71.33 Y103.265 E14.51419
G1 X70.996 Y102.619 E14.53837
G1 X70.831 Y102.271 E14.55118
G1 X70.494 Y101.485 E14.57963
G1 X70.249 Y100.81 E14.60351
G1 X70.128 Y100.438 E14.61652
G1 X69.93 Y99.754 E14.64021
G1 X69.853 Y99.449 E14.65067
G1 X69.701 Y98.743 E14.67469
G1 X69.636 Y98.384 E14.68682
G1 X69.538 Y97.727 E14.70892
G1 X69.505 Y97.445 E14.71836
G1 X69.449 Y96.786 E14.74036
G1 X69.417 Y96.073 E14.7641
G1 X69.401 Y95.096 E14.7966
G1 X69.4 Y81.64 E15.24414
G0 F6000 X69.8 Y81.64
G1 F1200 X69.821 Y80.38 E15.28606
G1 X69.85 Y79.765 E15.30654
G1 X69.871 Y79.496 E15.31551
G1 X69.949 Y78.805 E15.33864
G1 X70.028 Y78.268 E15.35669
G1 X70.306 Y76.969 E15.40087
G1 X70.464 Y76.412 E15.42013
G1 X70.674 Y75.759 E15.44295
G1 X70.771 Y75.488 E15.45252
G1 X71.051 Y74.775 E15.478
G1 X71.366 Y74.106 E15.50259
G1 X71.562 Y73.72 E15.51699
G1 X71.907 Y73.096 E15.5407
G1 X72.04 Y72.874 E15.54931
G1 X72.396 Y72.321 E15.57119
G1 X72.581 Y72.053 E15.58202
G1 X72.99 Y71.501 E15.60487
G1 X73.327 Y71.077 E15.62288
G1 X74.208 Y70.105 E15.66651
G1 X74.549 Y69.774 E15.68232
G1 X75.045 Y69.323 E15.70462
G1 X75.259 Y69.141 E15.71396
G1 X75.789 Y68.719 E15.73649
G1 X76.13 Y68.466 E15.75062
G1 X76.825 Y67.991 E15.77862
G1 X77.376 Y67.658 E15.80003
G1 X77.726 Y67.461 E15.81339
G1 X78.387 Y67.12 E15.83813
G1 X78.674 Y66.985 E15.84867
G1 X79.233 Y66.742 E15.86895
G1 X79.526 Y66.625 E15.87944
G1 X80.189 Y66.387 E15.90287
G1 X80.522 Y66.28 E15.9145
G1 X81.235 Y66.074 E15.93919
G1 X82.03 Y65.899 E15.96626
G1 X82.453 Y65.821 E15.98057
G1 X83.109 Y65.722 E16.00263
G1 X83.389 Y65.689 E16.01201
G1 X84.049 Y65.633 E16.03404
G1 X84.72 Y65.604 E16.05638
G1 X85.694 Y65.588 E16.08878
G1 X134.305 Y65.588 E17.70559
G1 X135.393 Y65.606 E17.74178
G1 X136.065 Y65.64 E17.76416
G1 X136.343 Y65.663 E17.77344
G1 X136.968 Y65.734 E17.79436
G1 X137.388 Y65.795 E17.80848
G1 X138.062 Y65.916 E17.83125
G1 X138.323 Y65.972 E17.84013
G1 X139.001 Y66.142 E17.86338
G1 X139.401 Y66.257 E17.87722
G1 X140.196 Y66.519 E17.90506
G1 X140.829 Y66.767 E17.92767
G1 X141.142 Y66.902 E17.93901
G1 X141.726 Y67.176 E17.96047
G1 X142.074 Y67.353 E17.97345
G1 X142.686 Y67.692 E17.99672
G1 X142.905 Y67.823 E18.00521
G1 X143.455 Y68.176 E18.02695
G1 X143.757 Y68.384 E18.03914
G1 X144.308 Y68.791 E18.06193
G1 X144.559 Y68.99 E18.07258
G1 X145.068 Y69.422 E18.09479
G1 X145.311 Y69.642 E18.10569
G1 X145.79 Y70.105 E18.12785
G1 X146.102 Y70.427 E18.14276
G1 X146.959 Y71.435 E18.18676
G1 X147.381 Y72.002 E18.21027
G1 X148.094 Y73.099 E18.25379
G1 X148.332 Y73.523 E18.26996
G1 X148.663 Y74.167 E18.29404
G1 X148.861 Y74.587 E18.30949
G1 X149.335 Y75.783 E18.35228
G1 X149.492 Y76.266 E18.36917
G1 X149.678 Y76.909 E18.39143
G1 X149.759 Y77.228 E18.40238
G1 X149.906 Y77.9 E18.42526
G1 X149.965 Y78.222 E18.43614
G1 X150.063 Y78.876 E18.45814
G1 X150.099 Y79.184 E18.46845
G1 X150.154 Y79.835 E18.49018
G1 X150.183 Y80.505 E18.51249
G1 X150.199 Y81.47 E18.54459
G1 X150.199 Y95.089 E18.99756
G1 X150.181 Y96.179 E19.03382
G1 X150.148 Y96.837 E19.05573
G1 X150.125 Y97.12 E19.06517
G1 X150.053 Y97.76 E19.08659
G1 X149.991 Y98.187 E19.10095
G1 X149.852 Y98.964 E19.1272
G1 X149.657 Y99.742 E19.15388
G1 X149.532 Y100.178 E19.16896
G1 X149.346 Y100.762 E19.18935
G1 X149.256 Y101.017 E19.19834
G1 X148.957 Y101.777 E19.2255
G1 X148.626 Y102.48 E19.25135
G1 X148.361 Y102.999 E19.27073
G1 X147.672 Y104.155 E19.31549
G1 X147.398 Y104.552 E19.33153
G1 X146.997 Y105.094 E19.35396
G1 X146.783 Y105.364 E19.36542
G1 X146.271 Y105.968 E19.39175
G1 X145.735 Y106.522 E19.41739
G1 X145.414 Y106.834 E19.43228
G1 X144.845 Y107.353 E19.4579
G1 X144.211 Y107.857 E19.48483
G1 X143.949 Y108.051 E19.49568
G1 X143.424 Y108.415 E19.51692
G1 X142.967 Y108.711 E19.53503
G1 X141.8 Y109.363 E19.5795
G1 X141.337 Y109.583 E19.59655
G1 X140.741 Y109.843 E19.61817
G1 X140.473 Y109.95 E19.62777
G1 X139.837 Y110.18 E19.65026
G1 X139.544 Y110.275 E19.66051
G1 X138.872 Y110.467 E19.68375
G1 X138.512 Y110.557 E19.6961
G1 X137.888 Y110.693 E19.71734
G1 X137.465 Y110.771 E19.73164
G1 X136.15 Y110.926 E19.77568
G1 X135.065 Y110.976 E19.81181
G1 X134.404 Y110.986 E19.8338
G1 X85.597 Y110.986 E21.45712
G1 X84.734 Y110.973 E21.48583
G1 X84.069 Y110.941 E21.50797
G1 X83.585 Y110.902 E21.52412
G1 X82.931 Y110.828 E21.54602
G1 X82.513 Y110.767 E21.56007
G1 X81.626 Y110.597 E21.5901
G1 X81.184 Y110.482 E21.60529
G1 X80.484 Y110.282 E21.62951
G1 X79.255 Y109.844 E21.6729
G1 X78.897 Y109.69 E21.68587
G1 X78.272 Y109.396 E21.70884
G1 X77.81 Y109.159 E21.72611
G1 X77.034 Y108.716 E21.75583
G1 X76.705 Y108.509 E21.76876
G1 X75.805 Y107.872 E21.80543
G1 X75.435 Y107.579 E21.82113
G1 X74.924 Y107.147 E21.84338
G1 X74.735 Y106.976 E21.85186
G1 X74.263 Y106.52 E21.87369
G1 X73.885 Y106.131 E21.89173
G1 X73.285 Y105.456 E21.92177
G1 X73.007 Y105.099 E21.93682
G1 X72.677 Y104.654 E21.95524
G1 X72.243 Y104.026 E21.98063
G1 X71.858 Y103.388 E22.00542
G1 X71.679 Y103.069 E22.01758
G1 X71.357 Y102.448 E22.04085
G1 X71.192 Y102.1 E22.05366
G1 X70.865 Y101.336 E22.0813
G1 X70.629 Y100.686 E22.1043
G1 X70.508 Y100.314 E22.11731
G1 X70.318 Y99.656 E22.14009
G1 X70.241 Y99.351 E22.15055
G1 X70.094 Y98.671 E22.17369
G1 X70.029 Y98.312 E22.18583
G1 X69.935 Y97.681 E22.20704
G1 X69.902 Y97.399 E22.21649
G1 X69.848 Y96.764 E22.23768
G1 X69.817 Y96.066 E22.26092
G1 X69.801 Y95.089 E22.29342
G1 X69.8 Y81.64 E22.74074
G1 F1500 E16.24074
;MESH:mounting plate.stl
G0 F6000 X100.147 Y79.967
G0 X102.757 Y79.789
;TYPE:WALL-INNER
G1 F1500 E22.74074
G1 F1200 X102.418 Y80.103 E22.75611
G1 X101.986 Y80.32 E22.77219
G1 X101.487 Y80.396 E22.78897
G1 X101.291 Y80.383 E22.79551
G1 X100.825 Y80.243 E22.81169
G1 X100.3 Y79.89 E22.83273
G1 X99.943 Y79.262 E22.85676
