;FLAVOR:Marlin
;TIME:14911
;Filament used: 8.59935m
;Layer height: 0.2
;MINX:72.376
;MINY:74.967
;MINZ:0.2
;MAXX:149
;MAXY:150.114
;MAXZ:43
;Generated with Cura_SteamEngine main
M82 ;absolute extrusion mode
; Ender 3 Custom Start G-code
G92 E0 ; Reset Extruder
G28 ; Home all axes
M104 S175 ; Start heating up the nozzle most of the way
M190 S60 ; Start heating the bed, wait until target temperature reached
M109 S195.0 ; Finish heating the nozzle
G1 Z2.0 F3000 ; Move Z Axis up little to prevent scratching of Heat Bed
G1 X0.1 Y20 Z0.3 F5000.0 ; Move to start position
G1 X0.1 Y200.0 Z0.3 F1500.0 E15 ; Draw the first line
G1 X0.4 Y200.0 Z0.3 F5000.0 ; Move to side a little
G1 X0.4 Y20 Z0.3 F1500.0 E30 ; Draw the second line
G92 E0 ; Reset Extruder
G1 Z2.0 F3000 ; Move Z Axis up little to prevent scratching of Heat Bed
G1 X5 Y20 Z0.3 F5000.0 ; Move over to prevent blob squish
G92 E0
G92 E0
G1 F1500 E-6.5
;LAYER_COUNT:215
;LAYER:0
M107
G0 F6000 X76.469 Y83.535 Z0.2
G0 X72.378 Y92.944
;TYPE:SKIRT
G1 F1500 E0
G1 F1200 X72.387 Y92.295 E0.02159
G1 X72.44 Y91.359 E0.05277
G1 X72.645 Y90.073 E0.09608
G1 X72.712 Y89.77 E0.1064
G1 X72.954 Y88.864 E0.13759
G1 X73.271 Y87.981 E0.1688
G1 X73.663 Y87.129 E0.19999
G1 X74.126 Y86.313 E0.2312
G1 X74.59 Y85.621 E0.25891
G1 X75.156 Y84.873 E0.2901
G1 X75.784 Y84.176 E0.32131
G1 X76.469 Y83.535 E0.35251
G1 X77.205 Y82.955 E0.38368
G1 X77.989 Y82.44 E0.41488
G1 X78.814 Y81.993 E0.44609
G1 X79.673 Y81.618 E0.47726
G1 X80.917 Y81.221 E0.52069
G1 X81.254 Y81.135 E0.53226
G1 X82.172 Y80.942 E0.56346
G1 X83.103 Y80.828 E0.59466
G1 X83.776 Y80.795 E0.61707
G1 X84.917 Y80.776 E0.65502
G1 X86.954 Y80.777 E0.72277
G1 X87.687 Y80.789 E0.74716
G1 X88.442 Y80.828 E0.7723
G1 X91.189 Y81.062 E0.864
G1 X93.668 Y81.203 E0.94658
G1 X96.218 Y81.274 E1.03143
G1 X98.742 Y81.274 E1.11538
G1 X101.237 Y81.202 E1.1984
G1 X103.754 Y81.06 E1.28224
G1 X106.26 Y80.846 E1.3659
G1 X108.734 Y80.565 E1.44871
G1 X111.263 Y80.204 E1.53368
G1 X113.734 Y79.78 E1.61707
G1 X116.182 Y79.289 E1.70011
G1 X118.686 Y78.712 E1.78558
G1 X121.063 Y78.093 E1.86727
G1 X123.534 Y77.375 E1.95286
G1 X125.897 Y76.613 E2.03544
G1 X127.439 Y76.069 E2.08982
G1 X127.562 Y76.032 E2.09409
G1 X128.738 Y75.613 E2.13561
G1 X129.634 Y75.337 E2.1668
G1 X130.55 Y75.138 E2.19797
G1 X131.481 Y75.018 E2.2292
G1 X132.082 Y74.982 E2.24922
G1 X132.746 Y74.967 E2.27131
G1 X137.451 Y74.968 E2.4278
G1 X138.149 Y74.978 E2.45102
G1 X139.085 Y75.032 E2.4822
G1 X140.013 Y75.164 E2.51338
G1 X140.927 Y75.376 E2.54458
G1 X141.819 Y75.665 E2.57577
G1 X142.684 Y76.028 E2.60697
G1 X143.514 Y76.464 E2.63815
G1 X144.305 Y76.969 E2.66937
G1 X145.049 Y77.54 E2.70056
G1 X145.742 Y78.172 E2.73176
G1 X146.379 Y78.86 E2.76294
G1 X146.954 Y79.601 E2.79414
G1 X147.465 Y80.387 E2.82532
G1 X147.907 Y81.215 E2.85654
G1 X148.276 Y82.077 E2.88772
G1 X148.571 Y82.967 E2.91891
G1 X148.789 Y83.879 E2.9501
G1 X148.929 Y84.807 E2.98131
G1 X148.987 Y85.668 E3.01001
G1 X149 Y86.297 E3.03094
G1 X148.999 Y138.534 E4.76835
G1 X148.99 Y139.254 E4.7923
G1 X148.938 Y140.191 E4.82351
G1 X148.807 Y141.12 E4.85471
G1 X148.597 Y142.034 E4.8859
G1 X148.31 Y142.927 E4.9171
G1 X147.948 Y143.792 E4.94829
G1 X147.514 Y144.623 E4.97947
G1 X147.01 Y145.414 E5.01067
G1 X146.441 Y146.159 E5.04185
G1 X145.81 Y146.854 E5.07307
G1 X145.123 Y147.492 E5.10425
G1 X144.384 Y148.069 E5.13544
G1 X143.598 Y148.581 E5.16664
G1 X142.771 Y149.024 E5.19784
G1 X141.91 Y149.395 E5.22902
G1 X141.02 Y149.692 E5.26023
G1 X140.108 Y149.911 E5.29142
G1 X139.181 Y150.052 E5.32261
G1 X138.245 Y150.114 E5.35381
G1 X137.308 Y150.096 E5.38498
G1 X136.424 Y150.005 E5.41454
G1 X135.42 Y149.859 E5.44828
G1 X112.499 Y146.164 E6.22048
G1 X109.966 Y145.792 E6.30563
G1 X107.477 Y145.499 E6.38899
G1 X104.985 Y145.276 E6.4722
G1 X102.432 Y145.12 E6.55727
G1 X99.936 Y145.039 E6.64034
G1 X98.194 Y145.023 E6.69828
G1 X84.544 Y145.022 E7.15228
G1 X83.843 Y145.012 E7.1756
G1 X82.907 Y144.959 E7.20678
G1 X81.776 Y144.786 E7.24483
G1 X81.466 Y144.722 E7.25536
G1 X80.556 Y144.493 E7.28657
G1 X79.67 Y144.188 E7.31774
G1 X78.812 Y143.808 E7.34895
G1 X77.99 Y143.357 E7.38013
G1 X77.209 Y142.837 E7.41134
G1 X76.476 Y142.253 E7.44251
G1 X75.832 Y141.654 E7.47176
G1 X75.122 Y140.885 E7.50657
G1 X74.546 Y140.145 E7.53776
G1 X74.036 Y139.358 E7.56895
G1 X73.595 Y138.53 E7.60016
G1 X73.113 Y137.353 E7.64246
G1 X72.985 Y136.981 E7.65554
G1 X72.717 Y136.082 E7.68675
G1 X72.528 Y135.163 E7.71795
G1 X72.417 Y134.232 E7.74914
G1 X72.388 Y133.605 E7.77001
G1 X72.376 Y132.86 E7.79479
G1 X72.378 Y92.944 E9.12241
G0 F6000 X72.778 Y92.95
G1 F1200 X72.787 Y92.301 E9.14399
G1 X72.84 Y91.382 E9.17461
G1 X73.036 Y90.159 E9.21581
G1 X73.103 Y89.856 E9.22613
G1 X73.341 Y88.967 E9.25674
G1 X73.655 Y88.101 E9.28738
G1 X74.042 Y87.266 E9.31799
G1 X74.735 Y86.115 E9.36267
G1 X74.919 Y85.849 E9.37343
G1 X75.476 Y85.115 E9.40408
G1 X76.093 Y84.432 E9.43469
G1 X76.768 Y83.806 E9.46531
G1 X77.494 Y83.24 E9.49593
G1 X78.267 Y82.74 E9.52655
G1 X79.08 Y82.308 E9.55717
G1 X79.928 Y81.949 E9.58779
G1 X81.016 Y81.608 E9.62572
G1 X81.353 Y81.522 E9.63729
G1 X82.254 Y81.333 E9.6679
G1 X83.168 Y81.224 E9.69852
G1 X83.783 Y81.195 E9.719
G1 X84.917 Y81.176 E9.75672
G1 X86.948 Y81.177 E9.82427
G1 X87.681 Y81.189 E9.84865
G1 X88.408 Y81.226 E9.87287
G1 X91.166 Y81.461 E9.96493
G1 X93.67 Y81.603 E10.04835
G1 X96.207 Y81.674 E10.13276
G1 X98.718 Y81.674 E10.21628
G1 X101.27 Y81.601 E10.30119
G1 X103.773 Y81.459 E10.38458
G1 X106.31 Y81.243 E10.46926
G1 X108.795 Y80.96 E10.55245
G1 X111.35 Y80.595 E10.63829
G1 X113.815 Y80.172 E10.72147
G1 X116.245 Y79.685 E10.8039
G1 X118.763 Y79.105 E10.88985
G1 X121.202 Y78.47 E10.97367
G1 X123.599 Y77.773 E11.0567
G1 X126.048 Y76.984 E11.14227
G1 X128.872 Y75.99 E11.24185
G1 X129.752 Y75.72 E11.27247
G1 X130.652 Y75.526 E11.30309
G1 X131.565 Y75.412 E11.33369
G1 X132.095 Y75.382 E11.35135
G1 X132.746 Y75.367 E11.373
G1 X137.445 Y75.368 E11.52929
G1 X138.143 Y75.378 E11.55251
G1 X139.062 Y75.431 E11.58313
G1 X139.973 Y75.564 E11.61375
G1 X140.869 Y75.775 E11.64437
G1 X141.743 Y76.063 E11.67497
G1 X142.59 Y76.426 E11.70562
G1 X143.401 Y76.861 E11.73623
G1 X144.171 Y77.365 E11.76684
G1 X144.895 Y77.934 E11.79747
G1 X145.567 Y78.564 E11.8281
G1 X146.182 Y79.249 E11.85872
G1 X146.735 Y79.985 E11.88934
G1 X147.222 Y80.766 E11.91995
G1 X147.639 Y81.587 E11.95058
G1 X147.984 Y82.441 E11.98122
G1 X148.253 Y83.321 E12.01182
G1 X148.445 Y84.222 E12.04246
G1 X148.558 Y85.135 E12.07306
G1 X148.587 Y85.679 E12.09118
G1 X148.6 Y86.297 E12.11174
G1 X148.599 Y138.529 E13.84898
G1 X148.59 Y139.249 E13.87293
G1 X148.539 Y140.169 E13.90358
G1 X148.408 Y141.08 E13.93419
G1 X148.198 Y141.976 E13.9648
G1 X147.911 Y142.851 E13.99543
G1 X147.55 Y143.698 E14.02605
G1 X147.116 Y144.51 E14.05667
G1 X146.614 Y145.282 E14.0873
G1 X146.047 Y146.007 E14.11791
G1 X145.418 Y146.68 E14.14855
G1 X144.734 Y147.296 E14.17917
G1 X143.999 Y147.85 E14.20978
G1 X143.219 Y148.338 E14.24038
G1 X142.399 Y148.757 E14.27101
G1 X141.546 Y149.103 E14.30162
G1 X140.666 Y149.374 E14.33225
G1 X139.765 Y149.567 E14.3629
G1 X138.852 Y149.682 E14.3935
G1 X137.932 Y149.717 E14.42412
G1 X137.012 Y149.672 E14.45476
G1 X136.481 Y149.609 E14.47255
G1 X135.484 Y149.464 E14.50605
G1 X112.624 Y145.779 E15.2762
G1 X110 Y145.394 E15.36441
G1 X107.527 Y145.102 E15.44723
G1 X104.971 Y144.873 E15.53258
G1 X102.47 Y144.721 E15.61592
G1 X99.952 Y144.639 E15.69971
G1 X98.198 Y144.623 E15.75805
G1 X84.701 Y144.623 E16.20697
G1 X83.849 Y144.612 E16.23531
G1 X82.93 Y144.559 E16.26592
G1 X81.857 Y144.394 E16.30203
G1 X81.547 Y144.33 E16.31256
G1 X80.654 Y144.105 E16.34319
G1 X79.784 Y143.803 E16.37382
G1 X78.944 Y143.427 E16.40443
G1 X78.139 Y142.98 E16.43505
G1 X77.377 Y142.464 E16.46566
G1 X76.662 Y141.884 E16.49628
G1 X76.108 Y141.365 E16.52153
G1 X75.416 Y140.614 E16.5555
G1 X74.853 Y139.885 E16.58613
G1 X74.355 Y139.111 E16.61674
G1 X73.927 Y138.296 E16.64736
G1 X73.491 Y137.223 E16.68588
G1 X73.363 Y136.851 E16.69897
G1 X73.101 Y135.968 E16.7296
G1 X72.917 Y135.066 E16.76022
G1 X72.813 Y134.151 E16.79085
G1 X72.788 Y133.598 E16.80926
G1 X72.776 Y132.86 E16.83381
G1 X72.778 Y92.95 E18.16122
G0 F6000 X73.178 Y92.956
G1 F1200 X73.187 Y92.307 E18.18281
G1 X73.239 Y91.405 E18.21286
G1 X73.427 Y90.246 E18.25191
G1 X73.494 Y89.943 E18.26224
G1 X73.727 Y89.07 E18.29229
G1 X74.037 Y88.222 E18.32232
G1 X74.421 Y87.405 E18.35234
G1 X75.064 Y86.342 E18.39366
G1 X75.248 Y86.076 E18.40442
G1 X75.795 Y85.357 E18.43447
G1 X76.402 Y84.689 E18.46449
G1 X77.066 Y84.077 E18.49452
G1 X77.782 Y83.527 E18.52455
G1 X78.544 Y83.041 E18.55461
G1 X79.346 Y82.626 E18.58465
G1 X80.181 Y82.282 E18.61468
G1 X81.115 Y81.996 E18.64717
G1 X81.452 Y81.91 E18.65874
G1 X82.336 Y81.725 E18.68878
G1 X83.233 Y81.62 E18.71882
G1 X83.79 Y81.595 E18.73736
G1 X84.917 Y81.576 E18.77485
G1 X86.941 Y81.577 E18.84217
G1 X87.674 Y81.589 E18.86655
G1 X88.374 Y81.625 E18.88987
G1 X91.11 Y81.858 E18.9812
G1 X93.67 Y82.003 E19.06648
G1 X96.196 Y82.074 E19.15053
G1 X98.73 Y82.074 E19.23481
G1 X101.269 Y82.001 E19.31929
G1 X103.829 Y81.856 E19.40457
G1 X106.353 Y81.641 E19.48882
G1 X108.83 Y81.359 E19.57174
G1 X111.403 Y80.992 E19.65819
G1 X113.883 Y80.566 E19.74188
G1 X116.341 Y80.074 E19.82526
G1 X118.856 Y79.494 E19.9111
G1 X121.31 Y78.855 E19.99544
G1 X123.728 Y78.152 E20.0792
G1 X126.156 Y77.37 E20.16404
G1 X127.705 Y76.823 E20.21867
G1 X127.839 Y76.782 E20.22333
G1 X129.006 Y76.367 E20.26453
G1 X129.869 Y76.102 E20.29456
G1 X130.753 Y75.915 E20.32461
G1 X131.649 Y75.807 E20.35463
G1 X132.107 Y75.782 E20.36988
G1 X132.746 Y75.767 E20.39114
G1 X137.439 Y75.768 E20.54723
G1 X138.137 Y75.778 E20.57045
G1 X139.039 Y75.831 E20.6005
G1 X139.932 Y75.963 E20.63053
G1 X140.81 Y76.174 E20.66056
G1 X141.666 Y76.462 E20.6906
G1 X142.493 Y76.824 E20.72062
G1 X143.285 Y77.259 E20.75068
G1 X144.036 Y77.761 E20.78072
G1 X144.739 Y78.328 E20.81076
G1 X145.389 Y78.955 E20.8408
G1 X145.981 Y79.637 E20.87084
G1 X146.511 Y80.368 E20.90087
G1 X146.973 Y81.144 E20.93091
G1 X147.366 Y81.957 E20.96094
G1 X147.684 Y82.802 E20.99097
G1 X147.927 Y83.672 E21.02101
G1 X148.092 Y84.56 E21.05105
G1 X148.187 Y85.69 E21.08877
G1 X148.2 Y86.297 E21.10896
G1 X148.199 Y138.524 E22.84604
G1 X148.19 Y139.244 E22.86999
G1 X148.139 Y140.146 E22.90004
G1 X148.008 Y141.04 E22.93009
G1 X147.799 Y141.918 E22.96011
G1 X147.513 Y142.775 E22.99016
G1 X147.152 Y143.603 E23.0202
G1 X146.719 Y144.395 E23.05022
G1 X146.218 Y145.147 E23.08028
G1 X145.652 Y145.851 E23.11032
G1 X145.027 Y146.502 E23.14034
G1 X144.346 Y147.095 E23.17037
G1 X143.615 Y147.626 E23.20042
G1 X142.841 Y148.09 E23.23044
G1 X142.028 Y148.484 E23.26048
G1 X141.183 Y148.805 E23.29055
G1 X140.314 Y149.049 E23.32057
G1 X139.426 Y149.215 E23.35062
G1 X138.528 Y149.303 E23.38063
G1 X137.624 Y149.31 E23.4107
G1 X136.538 Y149.213 E23.44696
G1 X135.548 Y149.069 E23.48023
G1 X112.68 Y145.383 E24.25064
G1 X110.068 Y144.999 E24.33845
G1 X107.538 Y144.701 E24.42318
G1 X105.033 Y144.477 E24.50683
G1 X102.507 Y144.323 E24.591
G1 X99.926 Y144.239 E24.67689
G1 X98.202 Y144.223 E24.73424
G1 X84.701 Y144.223 E25.18328
G1 X83.855 Y144.212 E25.21142
G1 X82.953 Y144.159 E25.24147
G1 X81.938 Y144.002 E25.27563
G1 X81.628 Y143.938 E25.28616
G1 X80.752 Y143.717 E25.31621
G1 X79.9 Y143.419 E25.34623
G1 X79.077 Y143.046 E25.37629
G1 X78.29 Y142.603 E25.40632
G1 X77.546 Y142.091 E25.43636
G1 X76.85 Y141.516 E25.46639
G1 X76.322 Y141.007 E25.49078
G1 X75.71 Y140.343 E25.52082
G1 X75.16 Y139.627 E25.55085
G1 X74.675 Y138.865 E25.58089
G1 X74.26 Y138.063 E25.61092
G1 X73.869 Y137.093 E25.64571
G1 X73.741 Y136.721 E25.65879
G1 X73.485 Y135.855 E25.68883
G1 X73.307 Y134.969 E25.71888
G1 X73.208 Y134.072 E25.7489
G1 X73.188 Y133.59 E25.76494
G1 X73.176 Y132.86 E25.78923
G1 X73.178 Y92.956 E27.11644
G1 F1500 E20.61644
;MESH:nema17bracket-c-L.stl
G0 F6000 X82.711 Y92.958
G0 X83.796 Y92.958
G0 X86.707 Y92.948
G0 X87.451 Y127.828
G0 X133.134 Y127.969
G0 X133.293 Y87.139
G0 X136.828 Y87.139
G0 X137 Y137.958
;TYPE:WALL-INNER
G1 F1500 E27.11644
G1 F1200 X137 Y86.967 E28.81241
G1 X133.121 Y86.967 E28.94142
G1 X133.12 Y127.4 E30.28623
G1 X133.088 Y127.657 E30.29485
G1 X132.993 Y127.89 E30.30321
G1 X132.855 Y128.081 E30.31105
G1 X132.522 Y128.317 E30.32463
G1 X132.208 Y128.397 E30.3354
G1 X87.879 Y128.4 E31.80979
G1 X87.555 Y128.347 E31.82071
G1 X87.325 Y128.234 E31.82924
G1 X87.105 Y128.034 E31.83912
G1 X86.94 Y127.747 E31.85013
G1 X86.879 Y127.521 E31.85792
G1 X86.879 Y92.776 E33.01354
G1 X84.377 Y92.776 E33.09676
G1 X84.377 Y133.022 E34.43535
G1 X106.389 Y133.023 E35.16747
G1 X137 Y137.958 E36.19874
G0 F6000 X137.4 Y138.428
G1 F1200 X137.4 Y86.567 E37.92365
G1 X132.721 Y86.567 E38.07927
G1 X132.72 Y127.521 E39.44141
G1 X132.561 Y127.809 E39.45235
G1 X132.361 Y127.95 E39.46049
G1 X132.173 Y127.998 E39.46694
G1 X87.879 Y128 E40.94016
G1 X87.684 Y127.968 E40.94674
G1 X87.414 Y127.781 E40.95766
G1 X87.279 Y127.474 E40.96882
G1 X87.279 Y92.376 E42.13618
G1 X84.005 Y92.376 E42.24507
G1 X83.977 Y92.472 E42.2484
G1 X83.976 Y133.309 E43.60664
G1 X84.005 Y133.392 E43.60957
G1 X84.074 Y133.415 E43.61199
G1 X84.096 Y133.423 E43.61277
G1 X106.356 Y133.423 E44.35314
G1 X137.4 Y138.428 E45.399
G0 F6000 X137.8 Y138.898
;TYPE:WALL-OUTER
G1 F1200 X137.8 Y86.167 E47.15284
G1 X132.474 Y86.167 E47.32998
G1 X132.321 Y86.363 E47.33825
G1 X132.318 Y127.435 E48.70431
G1 X132.267 Y127.537 E48.7081
G1 X132.138 Y127.6 E48.71288
G1 X87.828 Y127.6 E50.18663
G1 X87.724 Y127.527 E50.19086
G1 X87.681 Y127.435 E50.19424
G1 X87.679 Y92.329 E51.36187
G1 X87.571 Y92.039 E51.37216
G1 X87.435 Y91.976 E51.37715
G1 X84.023 Y91.976 E51.49063
G1 X83.838 Y92.021 E51.49696
G1 X83.722 Y92.093 E51.5015
G1 X83.624 Y92.234 E51.50722
G1 X83.577 Y92.424 E51.51372
G1 X83.576 Y133.377 E52.87583
G1 X83.676 Y133.664 E52.88594
G1 X83.734 Y133.722 E52.88866
G1 X83.945 Y133.793 E52.89607
G1 X84.03 Y133.823 E52.89907
G1 X106.335 Y133.825 E53.64093
G1 X137.8 Y138.898 E54.70098
G0 F6000 X137.536 Y138.587
G0 X136.9 Y137.535
G0 X136.64 Y137.535
;TYPE:SKIN
G1 F1200 X136.64 Y88.907 E56.31835
G1 X136.64 Y87.327 E56.3709
G1 X133.481 Y87.327 E56.47597
G1 X133.479 Y127.421 E57.8095
G1 X133.442 Y127.731 E57.81989
G1 X133.321 Y128.041 E57.83096
G1 X133.113 Y128.337 E57.84299
G1 X132.673 Y128.647 E57.86089
G1 X132.24 Y128.756 E57.87574
G1 X87.848 Y128.758 E59.35223
G1 X87.441 Y128.688 E59.36596
G1 X87.121 Y128.533 E59.37779
G1 X86.823 Y128.263 E59.39116
G1 X86.601 Y127.875 E59.40603
G1 X86.521 Y127.572 E59.41645
G1 X86.519 Y93.136 E60.5618
G1 X84.737 Y93.136 E60.62107
G1 X84.738 Y132.662 E61.93571
G1 X106.435 Y132.665 E62.65735
G1 X136.64 Y137.535 E63.67495
G1 F1500 E57.17495
G0 F6000 X136.9 Y137.535
G0 X136.9 Y87.79
G1 F1500 E63.67495
G0 F6000 X136.439 Y87.79
G1 F1200 X136.176 Y87.527 E63.68732
G0 F6000 X135.61 Y87.527
G1 F1200 X136.439 Y88.356 E63.72631
G0 F6000 X136.439 Y88.922
G1 F1200 X135.044 Y87.527 E63.79193
G0 F6000 X134.478 Y87.527
G1 F1200 X136.439 Y89.487 E63.88415
G0 F6000 X136.439 Y90.053
G1 F1200 X133.913 Y87.527 E64.00296
G0 F6000 X133.679 Y87.858
G1 F1200 X136.439 Y90.619 E64.13281
G0 F6000 X136.439 Y91.184
G1 F1200 X133.679 Y88.424 E64.26263
G0 F6000 X133.679 Y88.99
G1 F1200 X136.439 Y91.75 E64.39245
G0 F6000 X136.439 Y92.316
G1 F1200 X133.679 Y89.555 E64.5223
G0 F6000 X133.679 Y90.121
G1 F1200 X136.439 Y92.882 E64.65214
G0 F6000 X136.439 Y93.447
G1 F1200 X133.679 Y90.687 E64.78196
G0 F6000 X133.679 Y91.252
G1 F1200 X136.439 Y94.013 E64.91181
G0 F6000 X136.439 Y94.579
G1 F1200 X133.679 Y91.818 E65.04166
G0 F6000 X133.679 Y92.384
G1 F1200 X136.439 Y95.144 E65.17148
G0 F6000 X136.439 Y95.71
G1 F1200 X133.679 Y92.949 E65.30132
G0 F6000 X133.679 Y93.515
G1 F1200 X136.439 Y96.276 E65.43117
G0 F6000 X136.439 Y96.841
G1 F1200 X133.679 Y94.081 E65.56099
G0 F6000 X133.679 Y94.646
G1 F1200 X136.439 Y97.407 E65.69084
G0 F6000 X136.439 Y97.973
G1 F1200 X133.679 Y95.212 E65.82068
G0 F6000 X133.679 Y95.778
G1 F1200 X136.439 Y98.538 E65.9505
G0 F6000 X136.439 Y99.104
G1 F1200 X133.679 Y96.344 E66.08033
G0 F6000 X133.679 Y96.909
