;FLAVOR:Marlin
;TIME:11145
;Filament used: 6.17407m
;Layer height: 0.2
;MINX:48.692
;MINY:54.086
;MINZ:0.2
;MAXX:124.124
;MAXY:121.876
;MAXZ:43
;Generated with Cura_SteamEngine main
M82 ;absolute extrusion mode
; Ender 3 Custom Start G-code
G92 E0 ; Reset Extruder
G28 ; Home all axes
M104 S175 ; Start heating up the nozzle most of the way
M190 S60 ; Start heating the bed, wait until target temperature reached
M109 S195.0 ; Finish heating the nozzle
G1 Z2.0 F3000 ; Move Z Axis up little to prevent scratching of Heat Bed
G1 X0.1 Y20 Z0.3 F5000.0 ; Move to start position
G1 X0.1 Y200.0 Z0.3 F1500.0 E15 ; Draw the first line
G1 X0.4 Y200.0 Z0.3 F5000.0 ; Move to side a little
G1 X0.4 Y20 Z0.3 F1500.0 E30 ; Draw the second line
G92 E0 ; Reset Extruder
G1 Z2.0 F3000 ; Move Z Axis up little to prevent scratching of Heat Bed
G1 X5 Y20 Z0.3 F5000.0 ; Move over to prevent blob squish
G92 E0
G92 E0
G1 F1500 E-6.5
;LAYER_COUNT:215
;LAYER:0
M107
G0 F6000 X60.312 Y57.373 Z0.2
G0 X56.846 Y64.306
;TYPE:SKIRT
G1 F1500 E0
G1 F1200 X57.019 Y63.441 E0.02934
G1 X57.243 Y62.53 E0.06054
G1 X57.544 Y61.642 E0.09173
G1 X57.941 Y60.739 E0.12454
G1 X58.113 Y60.391 E0.13745
G1 X58.564 Y59.569 E0.16863
G1 X59.083 Y58.788 E0.19982
G1 X59.667 Y58.054 E0.23102
G1 X60.312 Y57.373 E0.26222
G1 X61.012 Y56.749 E0.2934
G1 X62.036 Y56.005 E0.3355
G1 X62.298 Y55.837 E0.34586
G1 X63.109 Y55.365 E0.37707
G1 X63.956 Y54.964 E0.40823
G1 X64.835 Y54.636 E0.43944
G1 X65.739 Y54.384 E0.47065
G1 X66.66 Y54.21 E0.50183
G1 X67.593 Y54.116 E0.53302
G1 X68.065 Y54.098 E0.54873
G1 X68.835 Y54.086 E0.57434
G1 X71.142 Y54.086 E0.65107
G1 X71.842 Y54.096 E0.67435
G1 X72.778 Y54.149 E0.70554
G1 X73.707 Y54.282 E0.73675
G1 X74.621 Y54.494 E0.76796
G1 X75.513 Y54.783 E0.79914
G1 X76.377 Y55.146 E0.83031
G1 X77.208 Y55.582 E0.86153
G1 X77.998 Y56.087 E0.89271
G1 X78.743 Y56.658 E0.92393
G1 X79.436 Y57.289 E0.9551
G1 X80.072 Y57.978 E0.98629
G1 X80.648 Y58.718 E1.01748
G1 X81.21 Y59.592 E1.05204
G1 X82.562 Y61.933 E1.14195
G1 X83.854 Y64.028 E1.22382
G1 X85.261 Y66.173 E1.30914
G1 X86.698 Y68.235 E1.39273
G1 X88.19 Y70.251 E1.47615
G1 X89.734 Y72.22 E1.55938
G1 X91.343 Y74.154 E1.64305
G1 X93.039 Y76.08 E1.72841
G1 X94.723 Y77.888 E1.81059
G1 X96.487 Y79.679 E1.8942
G1 X98.303 Y81.418 E1.97782
G1 X100.185 Y83.122 E2.06226
G1 X102.114 Y84.771 E2.14667
G1 X104.043 Y86.329 E2.22914
G1 X106.061 Y87.866 E2.31351
G1 X108.104 Y89.332 E2.39715
G1 X110.183 Y90.738 E2.48062
G1 X112.295 Y92.08 E2.56385
G1 X114.476 Y93.38 E2.6483
G1 X116.716 Y94.632 E2.73365
G1 X118.042 Y95.335 E2.78357
G1 X118.851 Y95.81 E2.81477
G1 X119.617 Y96.351 E2.84596
G1 X120.334 Y96.956 E2.87716
G1 X120.931 Y97.549 E2.90515
G1 X121.154 Y97.788 E2.91602
G1 X121.764 Y98.5 E2.94721
G1 X122.311 Y99.262 E2.9784
G1 X122.791 Y100.067 E3.00958
G1 X123.201 Y100.911 E3.04079
G1 X123.537 Y101.786 E3.07196
G1 X123.798 Y102.687 E3.10316
G1 X123.981 Y103.607 E3.13436
G1 X124.085 Y104.539 E3.16555
G1 X124.11 Y105.12 E3.18489
G1 X124.124 Y106.017 E3.21473
G1 X124.124 Y110.291 E3.35688
G1 X124.114 Y111.018 E3.38107
G1 X124.061 Y111.955 E3.41228
G1 X123.929 Y112.883 E3.44346
G1 X123.718 Y113.797 E3.47466
G1 X123.429 Y114.689 E3.50584
G1 X123.066 Y115.554 E3.53704
G1 X122.631 Y116.385 E3.56824
G1 X122.126 Y117.175 E3.59943
G1 X121.556 Y117.92 E3.63062
G1 X120.925 Y118.614 E3.66182
G1 X120.236 Y119.251 E3.69303
G1 X119.496 Y119.827 E3.72422
G1 X118.71 Y120.338 E3.7554
G1 X117.883 Y120.78 E3.78659
G1 X117.021 Y121.15 E3.81779
G1 X116.131 Y121.445 E3.84898
G1 X115.219 Y121.664 E3.88017
G1 X114.292 Y121.804 E3.91135
G1 X113.424 Y121.863 E3.94029
G1 X112.795 Y121.876 E3.96121
G1 X60.257 Y121.875 E5.70864
G1 X59.559 Y121.866 E5.73185
G1 X58.623 Y121.814 E5.76303
G1 X57.694 Y121.682 E5.79424
G1 X56.78 Y121.472 E5.82543
G1 X55.887 Y121.185 E5.85663
G1 X55.022 Y120.822 E5.88783
G1 X54.191 Y120.388 E5.91901
G1 X53.4 Y119.884 E5.95021
G1 X52.655 Y119.314 E5.98141
G1 X51.961 Y118.683 E6.01261
G1 X51.324 Y117.996 E6.04377
G1 X50.747 Y117.256 E6.07498
G1 X50.235 Y116.47 E6.10618
G1 X49.792 Y115.643 E6.13738
G1 X49.421 Y114.782 E6.16856
G1 X49.125 Y113.892 E6.19976
G1 X48.906 Y112.98 E6.23095
G1 X48.765 Y112.053 E6.26214
G1 X48.705 Y111.164 E6.29178
G1 X48.692 Y110.534 E6.31273
G1 X48.693 Y109.669 E6.3415
G1 X48.704 Y108.959 E6.36512
G1 X48.759 Y108.022 E6.39634
G1 X48.833 Y107.443 E6.41575
G1 X48.927 Y106.872 E6.435
G1 X56.846 Y64.306 E7.87504
G0 F6000 X57.239 Y64.379
G1 F1200 X57.411 Y63.52 E7.90418
G1 X57.631 Y62.626 E7.9348
G1 X57.929 Y61.755 E7.96542
G1 X58.299 Y60.916 E7.99592
G1 X58.471 Y60.568 E8.00883
G1 X58.915 Y59.761 E8.03947
G1 X59.426 Y58.996 E8.07006
G1 X60.003 Y58.278 E8.1007
G1 X60.639 Y57.613 E8.13131
G1 X61.331 Y57.005 E8.16194
G1 X62.252 Y56.342 E8.19969
G1 X62.514 Y56.174 E8.21004
G1 X63.31 Y55.711 E8.24067
G1 X64.143 Y55.319 E8.27129
G1 X65.007 Y55.001 E8.30191
G1 X65.895 Y54.759 E8.33252
G1 X66.801 Y54.595 E8.36314
G1 X68.071 Y54.498 E8.40551
G1 X68.841 Y54.486 E8.43112
G1 X70.985 Y54.485 E8.50243
G1 X71.836 Y54.496 E8.53074
G1 X72.756 Y54.549 E8.56139
G1 X73.667 Y54.682 E8.59201
G1 X74.563 Y54.893 E8.62263
G1 X75.437 Y55.181 E8.65323
G1 X76.283 Y55.544 E8.68385
G1 X77.095 Y55.979 E8.71449
G1 X77.865 Y56.483 E8.7451
G1 X78.589 Y57.052 E8.77573
G1 X79.261 Y57.681 E8.80634
G1 X79.876 Y58.367 E8.83698
G1 X80.429 Y59.103 E8.8676
G1 X80.863 Y59.792 E8.89469
G1 X82.203 Y62.111 E8.98377
G1 X83.539 Y64.278 E9.06844
G1 X84.914 Y66.376 E9.15187
G1 X86.364 Y68.456 E9.2362
G1 X87.886 Y70.513 E9.32131
G1 X89.427 Y72.477 E9.40434
G1 X91.033 Y74.409 E9.4879
G1 X92.713 Y76.316 E9.57243
G1 X94.446 Y78.176 E9.65698
G1 X96.226 Y79.983 E9.74135
G1 X98.04 Y81.721 E9.8249
G1 X99.902 Y83.406 E9.90843
G1 X101.848 Y85.071 E9.99361
G1 X103.817 Y86.66 E10.07776
G1 X105.808 Y88.177 E10.16102
G1 X107.869 Y89.655 E10.24537
G1 X109.975 Y91.079 E10.32993
G1 X112.097 Y92.428 E10.41356
G1 X114.297 Y93.74 E10.49875
G1 X116.493 Y94.966 E10.58241
G1 X117.855 Y95.689 E10.63369
G1 X118.649 Y96.155 E10.66431
G1 X119.399 Y96.688 E10.69492
G1 X120.1 Y97.285 E10.72554
G1 X120.638 Y97.822 E10.75082
G1 X120.861 Y98.061 E10.7617
G1 X121.46 Y98.76 E10.79231
G1 X121.995 Y99.509 E10.82293
G1 X122.463 Y100.302 E10.85355
G1 X122.861 Y101.132 E10.88417
G1 X123.185 Y101.994 E10.9148
G1 X123.433 Y102.881 E10.94543
G1 X123.603 Y103.785 E10.97602
G1 X123.71 Y105.127 E11.0208
G1 X123.724 Y106.024 E11.05064
G1 X123.724 Y110.286 E11.19239
G1 X123.714 Y111.013 E11.21658
G1 X123.661 Y111.932 E11.24719
G1 X123.529 Y112.843 E11.27781
G1 X123.318 Y113.739 E11.30843
G1 X123.031 Y114.614 E11.33905
G1 X122.668 Y115.46 E11.36967
G1 X122.234 Y116.272 E11.4003
G1 X121.73 Y117.043 E11.43093
G1 X121.162 Y117.767 E11.46154
G1 X120.533 Y118.439 E11.49215
G1 X119.848 Y119.054 E11.52277
G1 X119.112 Y119.607 E11.55339
G1 X118.331 Y120.095 E11.58402
G1 X117.511 Y120.513 E11.61463
G1 X116.657 Y120.858 E11.64527
G1 X115.777 Y121.127 E11.67587
G1 X114.876 Y121.32 E11.70652
G1 X113.963 Y121.433 E11.73712
G1 X113.413 Y121.463 E11.75544
G1 X112.795 Y121.476 E11.776
G1 X60.262 Y121.475 E13.52325
G1 X59.564 Y121.466 E13.54647
G1 X58.645 Y121.414 E13.57709
G1 X57.734 Y121.283 E13.6077
G1 X56.838 Y121.073 E13.63831
G1 X55.963 Y120.786 E13.66893
G1 X55.116 Y120.424 E13.69957
G1 X54.304 Y119.99 E13.73019
G1 X53.533 Y119.488 E13.76079
G1 X52.808 Y118.92 E13.79143
G1 X52.135 Y118.291 E13.82206
G1 X51.52 Y117.607 E13.85266
G1 X50.966 Y116.872 E13.88327
G1 X50.478 Y116.091 E13.9139
G1 X50.059 Y115.271 E13.94453
G1 X49.713 Y114.418 E13.97514
G1 X49.443 Y113.538 E14.00576
G1 X49.25 Y112.637 E14.03641
G1 X49.136 Y111.724 E14.06701
G1 X49.105 Y111.153 E14.08603
G1 X49.092 Y110.534 E14.10662
G1 X49.093 Y109.675 E14.13519
G1 X49.104 Y108.965 E14.15881
G1 X49.158 Y108.046 E14.18943
G1 X49.228 Y107.504 E14.20761
G1 X49.32 Y106.945 E14.22645
G1 X57.239 Y64.379 E15.66649
G0 F6000 X57.632 Y64.452
G1 F1200 X57.803 Y63.599 E15.69543
G1 X58.02 Y62.722 E15.72548
G1 X58.314 Y61.869 E15.75548
G1 X58.658 Y61.094 E15.78369
G1 X58.83 Y60.746 E15.7966
G1 X59.266 Y59.954 E15.82667
G1 X59.769 Y59.205 E15.85667
G1 X60.338 Y58.503 E15.88673
G1 X60.966 Y57.854 E15.91677
G1 X61.649 Y57.263 E15.94681
G1 X62.468 Y56.679 E15.98026
G1 X62.73 Y56.511 E15.99062
G1 X63.511 Y56.057 E16.02066
G1 X64.329 Y55.675 E16.05069
G1 X65.178 Y55.366 E16.08074
G1 X66.051 Y55.134 E16.11078
G1 X66.941 Y54.98 E16.14082
G1 X68.077 Y54.898 E16.17871
G1 X68.847 Y54.886 E16.20432
G1 X70.985 Y54.885 E16.27543
G1 X71.831 Y54.896 E16.30357
G1 X72.732 Y54.949 E16.33359
G1 X73.626 Y55.081 E16.36365
G1 X74.504 Y55.292 E16.39368
G1 X75.36 Y55.58 E16.42372
G1 X76.187 Y55.942 E16.45374
G1 X76.979 Y56.376 E16.48378
G1 X77.729 Y56.879 E16.51382
G1 X78.432 Y57.446 E16.54386
G1 X79.083 Y58.072 E16.5739
G1 X79.675 Y58.754 E16.60393
G1 X80.204 Y59.486 E16.63397
G1 X80.517 Y59.992 E16.65376
G1 X81.874 Y62.341 E16.74399
G1 X83.196 Y64.485 E16.82777
G1 X84.579 Y66.594 E16.91165
G1 X86.047 Y68.7 E16.99703
G1 X87.549 Y70.73 E17.08102
G1 X89.107 Y72.716 E17.16498
G1 X90.759 Y74.703 E17.25092
G1 X92.419 Y76.588 E17.33446
G1 X94.151 Y78.447 E17.41897
G1 X95.947 Y80.27 E17.50409
G1 X97.76 Y82.007 E17.5876
G1 X99.637 Y83.706 E17.6718
G1 X101.6 Y85.384 E17.7577
G1 X103.568 Y86.974 E17.84184
G1 X105.561 Y88.492 E17.92517
G1 X107.634 Y89.979 E18.01002
G1 X109.758 Y91.415 E18.0953
G1 X111.908 Y92.782 E18.18004
G1 X114.076 Y94.074 E18.26398
G1 X116.308 Y95.321 E18.34902
G1 X117.667 Y96.042 E18.40018
G1 X118.446 Y96.5 E18.43024
G1 X119.18 Y97.025 E18.46025
G1 X119.866 Y97.613 E18.49031
G1 X120.346 Y98.094 E18.51291
G1 X120.569 Y98.333 E18.52378
G1 X121.155 Y99.02 E18.55381
G1 X121.678 Y99.757 E18.58387
G1 X122.134 Y100.536 E18.61389
G1 X122.52 Y101.353 E18.64395
G1 X122.831 Y102.2 E18.67396
G1 X123.067 Y103.072 E18.704
G1 X123.224 Y103.962 E18.73406
G1 X123.31 Y105.133 E18.77311
G1 X123.324 Y106.03 E18.80295
G1 X123.324 Y110.28 E18.94431
G1 X123.314 Y111.007 E18.96849
G1 X123.262 Y111.909 E18.99854
G1 X123.13 Y112.802 E19.02856
G1 X122.919 Y113.681 E19.05863
G1 X122.632 Y114.537 E19.08866
G1 X122.27 Y115.364 E19.11868
G1 X121.836 Y116.156 E19.14872
G1 X121.334 Y116.907 E19.17877
G1 X120.768 Y117.61 E19.20879
G1 X120.141 Y118.261 E19.23885
G1 X119.46 Y118.853 E19.26886
G1 X118.729 Y119.383 E19.29889
G1 X117.953 Y119.846 E19.32894
G1 X117.14 Y120.239 E19.35898
G1 X116.295 Y120.559 E19.38903
G1 X115.426 Y120.802 E19.41904
G1 X114.538 Y120.967 E19.44908
G1 X113.402 Y121.063 E19.487
G1 X112.795 Y121.076 E19.5072
G1 X60.267 Y121.075 E21.25428
G1 X59.569 Y121.066 E21.2775
G1 X58.668 Y121.015 E21.30752
G1 X57.774 Y120.883 E21.33757
G1 X56.896 Y120.674 E21.36759
G1 X56.039 Y120.387 E21.39765
G1 X55.212 Y120.026 E21.42766
G1 X54.419 Y119.593 E21.45772
G1 X53.668 Y119.092 E21.48774
G1 X52.964 Y118.526 E21.51779
G1 X52.313 Y117.9 E21.54783
G1 X51.72 Y117.219 E21.57786
G1 X51.19 Y116.488 E21.60789
G1 X50.726 Y115.713 E21.63793
G1 X50.332 Y114.9 E21.66798
G1 X50.012 Y114.056 E21.698
G1 X49.768 Y113.186 E21.72806
G1 X49.602 Y112.298 E21.7581
G1 X49.505 Y111.143 E21.79665
G1 X49.492 Y110.534 E21.81691
G1 X49.493 Y109.681 E21.84528
G1 X49.504 Y108.971 E21.8689
G1 X49.558 Y108.069 E21.89896
G1 X49.624 Y107.566 E21.91583
G1 X49.713 Y107.018 E21.9343
G1 X57.632 Y64.452 E23.37434
G1 F1500 E16.87434
;MESH:nema17bracket-c2.stl
G0 F6000 X67.006 Y66.197
G0 X68.071 Y66.394
G0 X60.692 Y109.876
;TYPE:WALL-INNER
G1 F1500 E23.37434
G1 F1200 X112.125 Y109.876 E25.08501
G1 X112.125 Y105.997 E25.21402
G1 X71.692 Y105.997 E26.55883
G1 X71.425 Y105.96 E26.56779
G1 X71.186 Y105.859 E26.57642
G1 X70.993 Y105.712 E26.58449
G1 X70.762 Y105.366 E26.59833
G1 X70.693 Y105.047 E26.60919
G1 X70.692 Y66.085 E27.90507
G1 X68.72 Y66.085 E27.97066
G1 X60.692 Y109.227 E29.4302
G1 X60.692 Y109.876 E29.45178
G0 F6000 X60.292 Y110.276
G1 F1200 X112.525 Y110.276 E31.18906
G1 X112.525 Y105.597 E31.34468
G1 X71.57 Y105.597 E32.70685
G1 X71.272 Y105.426 E32.71828
G1 X71.134 Y105.218 E32.72658
G1 X71.092 Y105.027 E32.73309
G1 X71.092 Y65.685 E34.04161
G1 X68.423 Y65.685 E34.13038
G1 X68.368 Y65.795 E34.13447
G1 X60.292 Y109.19 E35.60257
G1 X60.292 Y110.276 E35.63869
G0 F6000 X59.892 Y110.676
;TYPE:WALL-OUTER
G1 F1200 X112.925 Y110.676 E37.40258
G1 X112.925 Y105.468 E37.5758
G1 X112.904 Y105.344 E37.57998
G1 X112.798 Y105.225 E37.58528
G1 X112.716 Y105.197 E37.58816
G1 X71.652 Y105.197 E38.95396
G1 X71.552 Y105.14 E38.95779
G1 X71.492 Y105.007 E38.96264
G1 X71.492 Y65.285 E40.2838
G1 X68.295 Y65.285 E40.39013
G1 X68.122 Y65.396 E40.39697
G1 X67.985 Y65.665 E40.40701
G1 X59.892 Y109.153 E41.87826
G1 X59.892 Y110.676 E41.92891
G0 F6000 X60.162 Y110.406
G0 X60.792 Y109.516
G0 X61.052 Y109.516
;TYPE:SKIN
G1 F1200 X111.765 Y109.516 E43.61563
G1 X111.765 Y107.937 E43.66815
G1 X111.765 Y106.358 E43.72067
G1 X71.671 Y106.356 E45.0542
G1 X71.327 Y106.309 E45.06575
G1 X70.999 Y106.172 E45.07757
G1 X70.725 Y105.954 E45.08922
G1 X70.544 Y105.724 E45.09895
G1 X70.416 Y105.463 E45.10862
G1 X70.333 Y105.065 E45.12214
G1 X70.332 Y66.445 E46.40665
G1 X69.021 Y66.445 E46.45025
G1 X61.052 Y109.262 E47.89881
G1 X61.052 Y109.516 E47.90726
G0 F6000 X61.332 Y108.849
G1 F1200 X61.797 Y109.315 E47.92915
G0 F6000 X62.363 Y109.315
G1 F1200 X61.42 Y108.372 E47.97351
G0 F6000 X61.509 Y107.896
G1 F1200 X62.928 Y109.315 E48.04025
G0 F6000 X63.494 Y109.315
G1 F1200 X61.598 Y107.418 E48.12946
G0 F6000 X61.687 Y106.942
G1 F1200 X64.06 Y109.315 E48.24108
G0 F6000 X64.626 Y109.315
G1 F1200 X61.775 Y106.464 E48.37518
G0 F6000 X61.864 Y105.988
G1 F1200 X65.191 Y109.315 E48.53167
G0 F6000 X65.757 Y109.315
G1 F1200 X61.953 Y105.51 E48.71062
G0 F6000 X62.042 Y105.034
G1 F1200 X66.323 Y109.315 E48.91199
G0 F6000 X66.888 Y109.315
G1 F1200 X62.13 Y104.557 E49.13579
G0 F6000 X62.219 Y104.08
G1 F1200 X67.454 Y109.315 E49.38203
G0 F6000 X68.02 Y109.315
G1 F1200 X62.308 Y103.603 E49.6507
G0 F6000 X62.397 Y103.126
G1 F1200 X68.585 Y109.315 E49.94179
G0 F6000 X69.151 Y109.315
G1 F1200 X62.485 Y102.649 E50.25534
G0 F6000 X62.574 Y102.172
G1 F1200 X69.717 Y109.315 E50.59133
G0 F6000 X70.282 Y109.315
G1 F1200 X62.663 Y101.696 E50.9497
G0 F6000 X62.752 Y101.218
G1 F1200 X70.848 Y109.315 E51.33053
G0 F6000 X71.414 Y109.315
G1 F1200 X62.841 Y100.742 E51.73378
G0 F6000 X62.929 Y100.264
G1 F1200 X71.979 Y109.315 E52.15949
G0 F6000 X72.545 Y109.315
G1 F1200 X63.018 Y99.788 E52.60761
G0 F6000 X63.107 Y99.311
G1 F1200 X73.111 Y109.315 E53.07817
G0 F6000 X73.676 Y109.315
G1 F1200 X63.196 Y98.834 E53.57114
G0 F6000 X63.284 Y98.357
G1 F1200 X70.166 Y105.239 E53.89485
G0 F6000 X70.132 Y104.639
G1 F1200 X63.373 Y97.88 E54.21277
G0 F6000 X63.462 Y97.403
G1 F1200 X70.132 Y104.074 E54.52653
G0 F6000 X70.132 Y103.508
G1 F1200 X63.551 Y96.926 E54.8361
G0 F6000 X63.639 Y96.449
G1 F1200 X70.132 Y102.942 E55.14151
G0 F6000 X70.132 Y102.377
G1 F1200 X63.728 Y95.972 E55.44276
G0 F6000 X63.817 Y95.495
G1 F1200 X70.132 Y101.811 E55.73982
G0 F6000 X70.132 Y101.245
G1 F1200 X63.906 Y95.018 E56.0327
G0 F6000 X63.994 Y94.541
G1 F1200 X70.132 Y100.679 E56.32141
G0 F6000 X70.132 Y100.114
G1 F1200 X64.083 Y94.065 E56.60594
G0 F6000 X64.172 Y93.587
G1 F1200 X70.132 Y99.548 E56.8863
G0 F6000 X70.132 Y98.982
G1 F1200 X64.261 Y93.111 E57.16246
G0 F6000 X64.349 Y92.633
G1 F1200 X70.132 Y98.417 E57.43449
G0 F6000 X70.132 Y97.851
G1 F1200 X64.438 Y92.157 E57.70232
G0 F6000 X64.527 Y91.679
G1 F1200 X70.132 Y97.285 E57.96599
G0 F6000 X70.132 Y96.72
G1 F1200 X64.616 Y91.203 E58.22547
G0 F6000 X64.704 Y90.726
G1 F1200 X70.132 Y96.154 E58.48078
G0 F6000 X70.132 Y95.588
G1 F1200 X64.793 Y90.249 E58.73191
G0 F6000 X64.881 Y89.772
G1 F1200 X70.132 Y95.023 E58.9789
G0 F6000 X70.132 Y94.457
G1 F1200 X64.971 Y89.295 E59.22169
G0 F6000 X65.059 Y88.818
G1 F1200 X70.132 Y93.891 E59.4603
G0 F6000 X70.132 Y93.326
G1 F1200 X65.148 Y88.341 E59.69476
G0 F6000 X65.236 Y87.864
G1 F1200 X70.132 Y92.76 E59.92505
G0 F6000 X70.132 Y92.193
G1 F1200 X65.326 Y87.387 E60.15111
G0 F6000 X65.414 Y86.91
G1 F1200 X70.132 Y91.628 E60.37303
G0 F6000 X70.132 Y91.062
G1 F1200 X65.503 Y86.433 E60.59077
G0 F6000 X65.591 Y85.956
