;FLAVOR:Marlin
;TIME:10870
;Filament used: 6.05798m
;Layer height: 0.2
;MINX:72.566
;MINY:83.998
;MINZ:0.2
;MAXX:147.434
;MAXY:151.79
;MAXZ:43
;Generated with Cura_SteamEngine main
M82 ;absolute extrusion mode
; Ender 3 Custom Start G-code
G92 E0 ; Reset Extruder
G28 ; Home all axes
M104 S175 ; Start heating up the nozzle most of the way
M190 S60 ; Start heating the bed, wait until target temperature reached
M109 S195.0 ; Finish heating the nozzle
G1 Z2.0 F3000 ; Move Z Axis up little to prevent scratching of Heat Bed
G1 X0.1 Y20 Z0.3 F5000.0 ; Move to start position
G1 X0.1 Y200.0 Z0.3 F1500.0 E15 ; Draw the first line
G1 X0.4 Y200.0 Z0.3 F5000.0 ; Move to side a little
G1 X0.4 Y20 Z0.3 F1500.0 E30 ; Draw the second line
G92 E0 ; Reset Extruder
G1 Z2.0 F3000 ; Move Z Axis up little to prevent scratching of Heat Bed
G1 X5 Y20 Z0.3 F5000.0 ; Move over to prevent blob squish
G92 E0
G92 E0
G1 F1500 E-6.5
;LAYER_COUNT:215
;LAYER:0
M107
G0 F6000 X116.727 Y88.833 Z0.2
G0 X113.604 Y93.928
;TYPE:SKIRT
G1 F1500 E0
G1 F1200 X114.943 Y91.786 E0.08402
G1 X116.217 Y89.62 E0.1676
G1 X116.727 Y88.833 E0.19879
G1 X117.301 Y88.092 E0.22996
G1 X117.937 Y87.403 E0.26115
G1 X118.552 Y86.831 E0.28909
G1 X119.275 Y86.234 E0.32027
G1 X120.047 Y85.701 E0.35147
G1 X120.861 Y85.236 E0.38265
G1 X121.712 Y84.842 E0.41384
G1 X122.594 Y84.521 E0.44506
G1 X123.499 Y84.277 E0.47624
G1 X124.422 Y84.111 E0.50743
G1 X125.749 Y84.012 E0.55169
G1 X126.739 Y83.999 E0.58462
G1 X128.216 Y83.998 E0.63374
G1 X129.038 Y84.008 E0.66108
G1 X129.975 Y84.061 E0.6923
G1 X130.903 Y84.193 E0.72348
G1 X131.817 Y84.404 E0.75467
G1 X132.71 Y84.692 E0.78588
G1 X133.575 Y85.054 E0.81707
G1 X134.405 Y85.49 E0.84825
G1 X135.27 Y86.046 E0.88245
G1 X135.52 Y86.224 E0.89266
G1 X136.26 Y86.8 E0.92385
G1 X136.949 Y87.437 E0.95506
G1 X137.58 Y88.131 E0.98626
G1 X138.15 Y88.875 E1.01743
G1 X138.628 Y89.619 E1.04684
G1 X138.76 Y89.844 E1.05552
G1 X139.199 Y90.672 E1.08669
G1 X139.567 Y91.535 E1.11789
G1 X139.86 Y92.426 E1.14909
G1 X140.053 Y93.224 E1.1764
G1 X140.186 Y93.88 E1.19866
G1 X147.15 Y131.306 E2.46482
G1 X147.267 Y131.99 E2.4879
G1 X147.385 Y132.921 E2.51911
G1 X147.42 Y133.567 E2.54063
G1 X147.434 Y134.244 E2.56315
G1 X147.431 Y140.205 E2.76142
G1 X147.422 Y140.919 E2.78517
G1 X147.37 Y141.855 E2.81635
G1 X147.239 Y142.784 E2.84755
G1 X147.029 Y143.698 E2.87874
G1 X146.742 Y144.591 E2.90994
G1 X146.38 Y145.456 E2.94113
G1 X145.945 Y146.287 E2.97232
G1 X145.442 Y147.078 E3.0035
G1 X144.872 Y147.823 E3.0347
G1 X144.242 Y148.518 E3.0659
G1 X143.554 Y149.155 E3.09709
G1 X142.815 Y149.732 E3.12827
G1 X142.029 Y150.244 E3.15947
G1 X141.202 Y150.687 E3.19067
G1 X140.341 Y151.059 E3.22187
G1 X139.451 Y151.355 E3.25306
G1 X138.539 Y151.574 E3.28426
G1 X137.612 Y151.716 E3.31545
G1 X136.767 Y151.775 E3.34362
G1 X136.103 Y151.79 E3.36571
G1 X84.131 Y151.789 E5.09431
G1 X83.433 Y151.78 E5.11753
G1 X82.497 Y151.728 E5.14871
G1 X81.568 Y151.596 E5.17992
G1 X80.654 Y151.386 E5.21111
G1 X79.761 Y151.099 E5.24231
G1 X78.896 Y150.736 E5.27351
G1 X78.065 Y150.302 E5.30469
G1 X77.274 Y149.798 E5.33588
G1 X76.529 Y149.228 E5.36708
G1 X75.835 Y148.597 E5.39828
G1 X75.198 Y147.91 E5.42944
G1 X74.621 Y147.17 E5.46065
G1 X74.109 Y146.384 E5.49185
G1 X73.666 Y145.557 E5.52305
G1 X73.295 Y144.696 E5.55424
G1 X72.999 Y143.806 E5.58543
G1 X72.78 Y142.894 E5.61663
G1 X72.639 Y141.967 E5.64782
G1 X72.578 Y141.058 E5.67812
G1 X72.566 Y140.422 E5.69927
G1 X72.568 Y135.754 E5.85453
G1 X72.577 Y135.15 E5.87462
G1 X72.631 Y134.214 E5.90581
G1 X72.765 Y133.285 E5.93703
G1 X72.977 Y132.372 E5.9682
G1 X73.266 Y131.48 E5.99939
G1 X73.63 Y130.615 E6.0306
G1 X74.008 Y129.876 E6.05821
G1 X74.482 Y129.066 E6.08942
G1 X75.022 Y128.299 E6.12062
G1 X75.626 Y127.582 E6.1518
G1 X76.288 Y126.918 E6.18299
G1 X77.005 Y126.313 E6.21419
G1 X77.771 Y125.772 E6.24538
G1 X78.541 Y125.318 E6.27511
G1 X79.075 Y125.034 E6.29523
G1 X80.601 Y124.25 E6.35229
G1 X82.82 Y123.03 E6.43651
G1 X84.969 Y121.768 E6.5194
G1 X87.12 Y120.421 E6.60382
G1 X89.205 Y119.033 E6.68712
G1 X91.269 Y117.572 E6.77123
G1 X93.27 Y116.069 E6.85447
G1 X95.249 Y114.493 E6.93861
G1 X97.184 Y112.86 E7.02282
G1 X99.043 Y111.201 E7.1057
G1 X100.881 Y109.464 E7.18981
G1 X102.651 Y107.691 E7.27313
G1 X104.389 Y105.852 E7.35729
G1 X106.052 Y103.989 E7.44035
G1 X107.698 Y102.035 E7.52533
G1 X109.241 Y100.096 E7.60775
G1 X110.763 Y98.068 E7.69208
G1 X112.22 Y96.007 E7.77603
G1 X113.604 Y93.928 E7.8591
G1 F1500 E1.3591
G0 F6000 X111.076 Y98.317
G1 F1500 E7.8591
G1 F1200 X112.552 Y96.229 E7.94415
G1 X113.943 Y94.14 E8.02762
G1 X115.294 Y91.978 E8.11241
G1 X116.562 Y89.823 E8.19558
G1 X117.063 Y89.051 E8.22619
G1 X117.629 Y88.325 E8.2568
G1 X118.255 Y87.65 E8.28742
G1 X118.819 Y87.128 E8.31298
G1 X119.53 Y86.543 E8.34361
G1 X120.289 Y86.022 E8.37423
G1 X121.09 Y85.568 E8.40485
G1 X121.927 Y85.186 E8.43545
G1 X122.795 Y84.878 E8.46608
G1 X123.686 Y84.646 E8.49671
G1 X124.594 Y84.493 E8.52733
G1 X125.755 Y84.412 E8.56604
G1 X126.739 Y84.399 E8.59877
G1 X128.216 Y84.398 E8.6479
G1 X129.033 Y84.408 E8.67507
G1 X129.952 Y84.46 E8.70569
G1 X130.863 Y84.592 E8.73631
G1 X131.76 Y84.803 E8.76695
G1 X132.634 Y85.09 E8.79755
G1 X133.481 Y85.453 E8.8282
G1 X134.292 Y85.887 E8.85879
G1 X135.038 Y86.372 E8.88839
G1 X135.288 Y86.55 E8.8986
G1 X136.014 Y87.116 E8.92921
G1 X136.688 Y87.743 E8.95983
G1 X137.306 Y88.426 E8.99047
G1 X137.861 Y89.16 E9.02107
G1 X138.283 Y89.821 E9.04716
G1 X138.415 Y90.046 E9.05583
G1 X138.846 Y90.86 E9.08647
G1 X139.204 Y91.708 E9.11708
G1 X139.488 Y92.584 E9.14771
G1 X139.661 Y93.304 E9.17234
G1 X139.794 Y93.96 E9.1946
G1 X146.728 Y131.222 E10.45522
G1 X146.872 Y132.058 E10.48343
G1 X146.988 Y132.971 E10.51404
G1 X147.021 Y133.577 E10.53423
G1 X147.034 Y134.244 E10.55642
G1 X147.031 Y140.2 E10.75451
G1 X147.022 Y140.914 E10.77826
G1 X146.971 Y141.833 E10.80888
G1 X146.839 Y142.744 E10.83949
G1 X146.63 Y143.641 E10.87013
G1 X146.343 Y144.515 E10.90072
G1 X145.981 Y145.362 E10.93136
G1 X145.548 Y146.174 E10.96197
G1 X145.045 Y146.946 E10.99261
G1 X144.478 Y147.671 E11.02323
G1 X143.85 Y148.344 E11.05384
G1 X143.165 Y148.959 E11.08446
G1 X142.43 Y149.514 E11.11509
G1 X141.65 Y150.002 E11.14569
G1 X140.83 Y150.421 E11.17632
G1 X139.976 Y150.767 E11.20697
G1 X139.097 Y151.037 E11.23755
G1 X138.196 Y151.231 E11.26821
G1 X137.283 Y151.345 E11.29881
G1 X136.754 Y151.375 E11.31643
G1 X136.103 Y151.39 E11.33809
G1 X84.136 Y151.389 E13.06652
G1 X83.438 Y151.38 E13.08974
G1 X82.519 Y151.328 E13.12035
G1 X81.608 Y151.197 E13.15096
G1 X80.712 Y150.987 E13.18157
G1 X79.837 Y150.7 E13.2122
G1 X78.99 Y150.338 E13.24284
G1 X78.178 Y149.904 E13.27346
G1 X77.407 Y149.402 E13.30406
G1 X76.682 Y148.834 E13.33469
G1 X76.009 Y148.205 E13.36533
G1 X75.394 Y147.521 E13.39592
G1 X74.84 Y146.786 E13.42654
G1 X74.352 Y146.005 E13.45717
G1 X73.933 Y145.185 E13.48779
G1 X73.587 Y144.332 E13.51841
G1 X73.317 Y143.452 E13.54903
G1 X73.124 Y142.551 E13.57967
G1 X73.01 Y141.638 E13.61028
G1 X72.978 Y141.048 E13.62993
G1 X72.966 Y140.422 E13.65075
G1 X72.968 Y135.76 E13.80581
G1 X72.977 Y135.156 E13.8259
G1 X73.031 Y134.237 E13.85652
G1 X73.164 Y133.326 E13.88714
G1 X73.376 Y132.43 E13.91777
G1 X73.665 Y131.556 E13.94838
G1 X74.204 Y130.362 E13.99196
G1 X74.362 Y130.063 E14.0032
G1 X74.827 Y129.268 E14.03384
G1 X75.359 Y128.517 E14.06445
G1 X75.955 Y127.815 E14.09508
G1 X76.609 Y127.167 E14.1257
G1 X77.317 Y126.578 E14.15633
G1 X78.073 Y126.053 E14.18694
G1 X78.73 Y125.671 E14.21222
G1 X79.258 Y125.389 E14.23213
G1 X80.798 Y124.598 E14.28971
G1 X83.021 Y123.376 E14.37408
G1 X85.178 Y122.109 E14.45729
G1 X87.349 Y120.75 E14.54247
G1 X89.436 Y119.36 E14.62587
G1 X91.494 Y117.903 E14.70974
G1 X93.531 Y116.374 E14.79445
G1 X95.473 Y114.827 E14.87703
G1 X97.445 Y113.163 E14.96285
G1 X99.32 Y111.489 E15.04645
G1 X101.155 Y109.755 E15.13043
G1 X102.943 Y107.965 E15.21457
G1 X104.677 Y106.129 E15.29857
G1 X106.372 Y104.23 E15.38323
G1 X108.001 Y102.296 E15.46733
G1 X109.558 Y100.34 E15.55049
G1 X111.076 Y98.317 E15.63461
G1 F1500 E9.13461
G0 F6000 X108.304 Y102.558
G1 F1500 E15.63461
G1 F1200 X109.888 Y100.567 E15.71923
G1 X111.395 Y98.559 E15.80273
G1 X112.879 Y96.46 E15.88823
G1 X114.272 Y94.368 E15.97183
G1 X115.628 Y92.198 E16.05693
G1 X116.906 Y90.026 E16.14075
G1 X117.398 Y89.269 E16.17078
G1 X117.955 Y88.558 E16.20082
G1 X118.879 Y87.613 E16.24478
G1 X119.087 Y87.426 E16.25408
G1 X119.784 Y86.852 E16.28411
G1 X120.53 Y86.343 E16.31415
G1 X121.318 Y85.901 E16.3442
G1 X122.141 Y85.531 E16.37421
G1 X122.995 Y85.235 E16.40428
G1 X123.871 Y85.016 E16.43431
G1 X124.763 Y84.875 E16.46434
G1 X125.76 Y84.812 E16.49757
G1 X126.739 Y84.799 E16.53014
G1 X128.216 Y84.798 E16.57926
G1 X129.028 Y84.808 E16.60627
G1 X129.929 Y84.86 E16.63629
G1 X130.823 Y84.992 E16.66634
G1 X131.701 Y85.202 E16.69637
G1 X132.557 Y85.489 E16.7264
G1 X133.385 Y85.851 E16.75645
G1 X134.177 Y86.284 E16.78648
G1 X134.806 Y86.698 E16.81152
G1 X135.056 Y86.876 E16.82173
G1 X135.768 Y87.432 E16.85178
G1 X136.428 Y88.048 E16.8818
G1 X137.03 Y88.721 E16.91184
G1 X137.571 Y89.444 E16.94187
G1 X137.938 Y90.024 E16.9647
G1 X138.07 Y90.249 E16.97337
G1 X138.492 Y91.047 E17.0034
G1 X138.842 Y91.88 E17.03345
G1 X139.116 Y92.74 E17.06347
G1 X139.269 Y93.383 E17.08545
G1 X139.433 Y94.2 E17.11317
G1 X146.335 Y131.295 E18.36813
G1 X146.478 Y132.125 E18.39614
G1 X146.591 Y133.021 E18.42618
G1 X146.621 Y133.587 E18.44503
G1 X146.634 Y134.244 E18.46689
G1 X146.631 Y140.195 E18.66482
G1 X146.622 Y140.909 E18.68857
G1 X146.571 Y141.81 E18.71858
G1 X146.44 Y142.704 E18.74863
G1 X146.231 Y143.582 E18.77865
G1 X145.944 Y144.439 E18.80871
G1 X145.583 Y145.267 E18.83876
G1 X145.15 Y146.059 E18.86878
G1 X144.649 Y146.811 E18.89883
G1 X144.084 Y147.515 E18.92886
G1 X143.458 Y148.166 E18.95889
G1 X142.777 Y148.759 E18.98893
G1 X142.046 Y149.29 E19.01898
G1 X141.272 Y149.754 E19.04899
G1 X140.459 Y150.148 E19.07904
G1 X139.614 Y150.468 E19.10909
G1 X138.745 Y150.712 E19.13912
G1 X137.857 Y150.879 E19.16917
G1 X136.742 Y150.975 E19.20639
G1 X136.103 Y150.99 E19.22765
G1 X84.141 Y150.989 E20.95591
G1 X83.443 Y150.98 E20.97913
G1 X82.542 Y150.929 E21.00915
G1 X81.648 Y150.797 E21.0392
G1 X80.77 Y150.588 E21.06922
G1 X79.913 Y150.301 E21.09928
G1 X79.086 Y149.94 E21.12929
G1 X78.293 Y149.507 E21.15934
G1 X77.542 Y149.006 E21.18937
G1 X76.838 Y148.44 E21.21942
G1 X76.187 Y147.814 E21.24945
G1 X75.594 Y147.133 E21.27949
G1 X75.064 Y146.402 E21.30952
G1 X74.6 Y145.627 E21.33956
G1 X74.206 Y144.814 E21.36961
G1 X73.886 Y143.97 E21.39963
G1 X73.642 Y143.1 E21.42969
G1 X73.476 Y142.212 E21.45973
G1 X73.378 Y141.038 E21.49892
G1 X73.366 Y140.422 E21.51941
G1 X73.368 Y135.766 E21.67427
G1 X73.377 Y135.162 E21.69436
G1 X73.431 Y134.261 E21.72438
G1 X73.564 Y133.367 E21.75444
G1 X73.775 Y132.489 E21.78447
G1 X74.063 Y131.633 E21.81451
G1 X74.558 Y130.548 E21.85418
G1 X74.716 Y130.249 E21.86543
G1 X75.173 Y129.47 E21.89547
G1 X75.697 Y128.735 E21.92549
G1 X76.284 Y128.049 E21.95552
G1 X76.929 Y127.417 E21.98555
G1 X77.628 Y126.845 E22.01559
G1 X78.374 Y126.337 E22.04561
G1 X78.919 Y126.023 E22.06653
G1 X79.441 Y125.745 E22.0862
G1 X80.994 Y124.947 E22.14428
G1 X83.211 Y123.729 E22.22841
G1 X85.371 Y122.459 E22.31175
G1 X87.561 Y121.089 E22.39767
G1 X89.659 Y119.692 E22.4815
G1 X91.761 Y118.204 E22.56716
G1 X93.759 Y116.704 E22.65026
G1 X95.735 Y115.13 E22.73428
G1 X97.704 Y113.468 E22.81998
G1 X99.598 Y111.778 E22.90441
G1 X101.43 Y110.046 E22.98826
G1 X103.234 Y108.239 E23.07318
G1 X104.984 Y106.387 E23.15793
G1 X106.661 Y104.509 E23.24167
G1 X108.304 Y102.558 E23.32651
G1 F1500 E16.82651
;MESH:nema17bracket-c.stl
G0 F6000 X124.904 Y102.56
G0 X125.989 Y102.56
G0 X126.742 Y96.171
G0 X128.233 Y96.169
G0 X135.272 Y133.952
G0 X135.433 Y139.789
;TYPE:WALL-INNER
G1 F1500 E23.32651
G1 F1200 X135.433 Y134.345 E23.50758
G1 X135.433 Y133.937 E23.52115
G1 X128.375 Y95.999 E24.80462
G1 X126.57 Y95.999 E24.86466
G1 X126.563 Y134.671 E26.15089
G1 X126.456 Y135.096 E26.16547
G1 X126.225 Y135.429 E26.17895
G1 X126.055 Y135.599 E26.18694
G1 X125.83 Y135.731 E26.19562
G1 X125.461 Y135.888 E26.20896
G1 X125.208 Y135.908 E26.2174
G1 X84.566 Y135.912 E27.56916
G1 X84.566 Y139.79 E27.69814
G1 X135.433 Y139.789 E29.38998
G0 F6000 X135.833 Y140.189
G1 F1200 X135.833 Y134.345 E29.58436
G1 X135.833 Y133.9 E29.59916
G1 X128.707 Y95.599 E30.89491
G1 X126.17 Y95.598 E30.97929
G1 X126.158 Y134.651 E32.2782
G1 X126.061 Y134.97 E32.28929
G1 X125.829 Y135.297 E32.30263
G1 X125.332 Y135.508 E32.32059
G1 X84.166 Y135.512 E33.68977
G1 X84.166 Y140.19 E33.84536
G1 X135.833 Y140.189 E35.56381
G0 F6000 X136.233 Y140.589
;TYPE:WALL-OUTER
G1 F1200 X136.233 Y134.345 E35.77149
G1 X136.233 Y133.863 E35.78752
G1 X129.092 Y95.48 E37.08605
G1 X129 Y95.32 E37.09219
G1 X128.83 Y95.198 E37.09915
G1 X126.029 Y95.199 E37.19231
G1 X125.873 Y95.282 E37.19819
G1 X125.77 Y95.552 E37.2078
G1 X125.762 Y134.595 E38.50638
G1 X125.682 Y134.826 E38.51451
G1 X125.552 Y134.981 E38.52124
G1 X125.243 Y135.106 E38.53232
G1 X83.981 Y135.113 E39.9047
G1 X83.863 Y135.165 E39.90899
G1 X83.767 Y135.324 E39.91517
G1 X83.766 Y140.59 E40.09032
G1 X136.233 Y140.589 E41.83538
G0 F6000 X135.962 Y140.32
G0 X135.333 Y139.429
G0 X135.073 Y139.429
;TYPE:SKIN
G1 F1200 X135.073 Y134.343 E42.00454
G1 X135.073 Y133.968 E42.01701
G1 X128.074 Y96.359 E43.28937
G1 X126.93 Y96.359 E43.32742
G1 X126.918 Y134.735 E44.60381
G1 X126.793 Y135.239 E44.62108
G1 X126.494 Y135.668 E44.63847
G1 X126.274 Y135.888 E44.64882
G1 X125.974 Y136.062 E44.66035
G1 X125.739 Y136.161 E44.66883
G1 X125.391 Y136.266 E44.68092
G1 X84.926 Y136.272 E46.0268
G1 X84.926 Y139.43 E46.13183
G1 X135.073 Y139.429 E47.79973
G1 F1500 E41.29973
G0 F6000 X135.333 Y139.429
G0 X135.272 Y133.952
G0 X128.233 Y96.169
G0 X127.672 Y96.099
G1 F1500 E47.79973
G0 F6000 X127.672 Y96.559
G1 F1200 X127.962 Y96.849 E47.81337
G0 F6000 X128.091 Y97.544
G1 F1200 X127.128 Y96.581 E47.85866
G0 F6000 X127.128 Y97.147
G1 F1200 X128.221 Y98.239 E47.91005
G0 F6000 X128.35 Y98.934
G1 F1200 X127.128 Y97.712 E47.96753
G0 F6000 X127.128 Y98.278
G1 F1200 X128.479 Y99.629 E48.03108
G0 F6000 X128.608 Y100.324
G1 F1200 X127.128 Y98.844 E48.10069
G0 F6000 X127.127 Y99.409
G1 F1200 X128.737 Y101.019 E48.17642
G0 F6000 X128.867 Y101.714
G1 F1200 X127.127 Y99.974 E48.25827
G0 F6000 X127.127 Y100.54
G1 F1200 X128.996 Y102.409 E48.34618
G0 F6000 X129.126 Y103.104
G1 F1200 X127.127 Y101.106 E48.44018
G0 F6000 X127.127 Y101.671
G1 F1200 X129.255 Y103.799 E48.54028
G0 F6000 X129.384 Y104.494
G1 F1200 X127.127 Y102.237 E48.64644
G0 F6000 X127.127 Y102.802
G1 F1200 X129.514 Y105.189 E48.75872
G0 F6000 X129.643 Y105.884
G1 F1200 X127.127 Y103.368 E48.87706
G0 F6000 X127.127 Y103.934
G1 F1200 X129.773 Y106.58 E49.00152
G0 F6000 X129.902 Y107.275
G1 F1200 X127.126 Y104.499 E49.1321
G0 F6000 X127.126 Y105.064
G1 F1200 X130.031 Y107.97 E49.26876
G0 F6000 X130.16 Y108.664
G1 F1200 X127.126 Y105.63 E49.41147
G0 F6000 X127.126 Y106.196
G1 F1200 X130.29 Y109.359 E49.56027
G0 F6000 X130.419 Y110.054
G1 F1200 X127.125 Y106.761 E49.71519
G0 F6000 X127.125 Y107.326
G1 F1200 X130.548 Y110.749 E49.8762
G0 F6000 X130.678 Y111.444
G1 F1200 X127.125 Y107.892 E50.04329
G0 F6000 X127.125 Y108.458
G1 F1200 X130.807 Y112.14 E50.21648
G0 F6000 X130.937 Y112.835
G1 F1200 X127.125 Y109.023 E50.39579
G0 F6000 X127.125 Y109.588
G1 F1200 X131.066 Y113.53 E50.58119
G0 F6000 X131.195 Y114.225
G1 F1200 X127.125 Y110.154 E50.77265
G0 F6000 X127.125 Y110.72
G1 F1200 X131.325 Y114.92 E50.9702
G0 F6000 X131.454 Y115.615
G1 F1200 X127.125 Y111.285 E51.17385
G0 F6000 X127.124 Y111.85
G1 F1200 X131.584 Y116.31 E51.38364
G0 F6000 X131.712 Y117.004
G1 F1200 X127.124 Y112.416 E51.59944
G0 F6000 X127.124 Y112.982
G1 F1200 X131.842 Y117.7 E51.82136
G0 F6000 X131.971 Y118.395
G1 F1200 X127.124 Y113.547 E52.04937
G0 F6000 X127.124 Y114.113
G1 F1200 X132.1 Y119.09 E52.28345
G0 F6000 X132.23 Y119.785
G1 F1200 X127.123 Y114.678 E52.52367
G0 F6000 X127.123 Y115.244
G1 F1200 X132.359 Y120.48 E52.76996
G0 F6000 X132.489 Y121.175
