;FLAVOR:Marlin
;TIME:971
;Filament used: 0.47094m
;Layer height: 0.2
;MINX:85.001
;MINY:68.983
;MINZ:0.2
;MAXX:134.981
;MAXY:100.982
;MAXZ:12
;Generated with Cura_SteamEngine main
M82 ;absolute extrusion mode
; Ender 3 Custom Start G-code
G92 E0 ; Reset Extruder
G28 ; Home all axes
M104 S175 ; Start heating up the nozzle most of the way
M190 S60 ; Start heating the bed, wait until target temperature reached
M109 S195.0 ; Finish heating the nozzle
G1 Z2.0 F3000 ; Move Z Axis up little to prevent scratching of Heat Bed
G1 X0.1 Y20 Z0.3 F5000.0 ; Move to start position
G1 X0.1 Y200.0 Z0.3 F1500.0 E15 ; Draw the first line
G1 X0.4 Y200.0 Z0.3 F5000.0 ; Move to side a little
G1 X0.4 Y20 Z0.3 F1500.0 E30 ; Draw the second line
G92 E0 ; Reset Extruder
G1 Z2.0 F3000 ; Move Z Axis up little to prevent scratching of Heat Bed
G1 X5 Y20 Z0.3 F5000.0 ; Move over to prevent blob squish
G92 E0
G92 E0
G1 F1500 E-6.5
;LAYER_COUNT:60
;LAYER:0
M107
G0 F6000 X87.575 Y72.933 Z0.2
G0 X85.002 Y80.521
;TYPE:SKIRT
G1 F1500 E0
G1 F1200 X85.012 Y79.832 E0.02292
G1 X85.066 Y78.896 E0.0541
G1 X85.199 Y77.968 E0.08528
G1 X85.411 Y77.054 E0.11649
G1 X85.699 Y76.162 E0.14767
G1 X86.063 Y75.297 E0.17888
G1 X86.499 Y74.467 E0.21006
G1 X87.004 Y73.677 E0.24125
G1 X87.575 Y72.933 E0.27244
G1 X88.207 Y72.24 E0.30364
G1 X88.896 Y71.603 E0.33485
G1 X89.636 Y71.027 E0.36603
G1 X90.423 Y70.517 E0.39723
G1 X91.251 Y70.075 E0.42844
G1 X92.113 Y69.706 E0.45963
G1 X93.003 Y69.411 E0.49082
G1 X93.915 Y69.193 E0.522
G1 X94.843 Y69.054 E0.55321
G1 X95.702 Y68.996 E0.58185
G1 X96.331 Y68.983 E0.60277
G1 X118.331 Y68.984 E1.3345
G1 X119.328 Y69 E1.36766
G1 X120.051 Y69.036 E1.39174
G1 X120.636 Y69.084 E1.41126
G1 X121.566 Y69.2 E1.44243
G1 X122.099 Y69.304 E1.46049
G1 X122.649 Y69.425 E1.47922
G1 X123.457 Y69.63 E1.50695
G1 X124.255 Y69.89 E1.53487
G1 X124.644 Y70.031 E1.54863
G1 X125.454 Y70.357 E1.57767
G1 X126.2 Y70.717 E1.60522
G1 X126.6 Y70.926 E1.62023
G1 X127.225 Y71.279 E1.6441
G1 X127.455 Y71.419 E1.65306
G1 X128.112 Y71.852 E1.67923
G1 X128.358 Y72.027 E1.68927
G1 X128.929 Y72.461 E1.71313
G1 X129.247 Y72.72 E1.72677
G1 X129.781 Y73.184 E1.7503
G1 X130.002 Y73.389 E1.76032
G1 X130.533 Y73.917 E1.78523
G1 X130.739 Y74.136 E1.79523
G1 X131.218 Y74.68 E1.81934
G1 X131.442 Y74.952 E1.83105
G1 X131.898 Y75.546 E1.85596
G1 X132.114 Y75.848 E1.86831
G1 X132.518 Y76.454 E1.89253
G1 X132.671 Y76.701 E1.9022
G1 X133.038 Y77.34 E1.92671
G1 X133.178 Y77.604 E1.93665
G1 X133.499 Y78.261 E1.96097
G1 X133.68 Y78.665 E1.97569
G1 X133.999 Y79.448 E2.00381
G1 X134.281 Y80.3 E2.03366
G1 X134.396 Y80.695 E2.04735
G1 X134.606 Y81.529 E2.07595
G1 X134.754 Y82.302 E2.10213
G1 X134.844 Y82.885 E2.12175
G1 X134.948 Y83.817 E2.15294
G1 X134.971 Y84.339 E2.17032
G1 X134.981 Y84.829 E2.18662
G1 X134.97 Y85.59 E2.21193
G1 X134.946 Y86.081 E2.22828
G1 X134.86 Y87.015 E2.25948
G1 X134.783 Y87.502 E2.27588
G1 X134.679 Y88.077 E2.29531
G1 X134.504 Y88.874 E2.32245
G1 X134.264 Y89.722 E2.35176
G1 X134.131 Y90.131 E2.36607
G1 X133.83 Y90.956 E2.39528
G1 X133.503 Y91.695 E2.42216
G1 X133.31 Y92.097 E2.43699
G1 X132.954 Y92.777 E2.46252
G1 X132.81 Y93.03 E2.4722
G1 X132.461 Y93.603 E2.49451
G1 X132.303 Y93.845 E2.50413
G1 X131.867 Y94.465 E2.52934
G1 X131.647 Y94.756 E2.54147
G1 X131.168 Y95.345 E2.56672
G1 X130.919 Y95.631 E2.57933
G1 X130.421 Y96.167 E2.60367
G1 X130.222 Y96.367 E2.61305
G1 X129.675 Y96.88 E2.63799
G1 X129.448 Y97.079 E2.64803
G1 X128.9 Y97.529 E2.67162
G1 X128.576 Y97.778 E2.68521
G1 X127.958 Y98.22 E2.71048
G1 X127.702 Y98.39 E2.7207
G1 X127.115 Y98.753 E2.74366
G1 X126.888 Y98.884 E2.75237
G1 X126.194 Y99.252 E2.7785
G1 X125.78 Y99.453 E2.79381
G1 X125.042 Y99.783 E2.82069
G1 X124.211 Y100.091 E2.85017
G1 X123.817 Y100.221 E2.86397
G1 X123.036 Y100.452 E2.89106
G1 X122.174 Y100.645 E2.92044
G1 X121.619 Y100.749 E2.93922
G1 X120.691 Y100.882 E2.9704
G1 X120.189 Y100.921 E2.98715
G1 X119.184 Y100.968 E3.02061
G1 X118.335 Y100.982 E3.04885
G1 X96.535 Y100.982 E3.77392
G1 X95.837 Y100.971 E3.79714
G1 X94.9 Y100.916 E3.82836
G1 X93.972 Y100.782 E3.85955
G1 X93.059 Y100.569 E3.89073
G1 X92.167 Y100.279 E3.92192
G1 X91.303 Y99.914 E3.95312
G1 X90.473 Y99.477 E3.98432
G1 X89.684 Y98.971 E4.01549
G1 X88.94 Y98.399 E4.04671
G1 X88.248 Y97.766 E4.0779
G1 X87.612 Y97.077 E4.10909
G1 X87.037 Y96.335 E4.14031
G1 X86.528 Y95.548 E4.17148
G1 X86.087 Y94.72 E4.20268
G1 X85.719 Y93.858 E4.23386
G1 X85.426 Y92.967 E4.26505
G1 X85.209 Y92.054 E4.29627
G1 X85.071 Y91.127 E4.32744
G1 X85.014 Y90.271 E4.35597
G1 X85.001 Y89.641 E4.37693
G1 X85.002 Y80.521 E4.68026
G0 F6000 X85.402 Y80.527
G1 F1200 X85.412 Y79.838 E4.70318
G1 X85.465 Y78.919 E4.7338
G1 X85.598 Y78.008 E4.76442
G1 X85.81 Y77.112 E4.79504
G1 X86.098 Y76.238 E4.82565
G1 X86.461 Y75.392 E4.85627
G1 X86.896 Y74.58 E4.88691
G1 X87.4 Y73.81 E4.91752
G1 X87.969 Y73.086 E4.94814
G1 X88.599 Y72.414 E4.97878
G1 X89.284 Y71.8 E5.00938
G1 X90.021 Y71.247 E5.04002
G1 X90.802 Y70.76 E5.07063
G1 X91.623 Y70.343 E5.10126
G1 X92.477 Y69.999 E5.13188
G1 X93.357 Y69.73 E5.16249
G1 X94.258 Y69.538 E5.19313
G1 X95.171 Y69.425 E5.22373
G1 X95.713 Y69.396 E5.24178
G1 X96.331 Y69.383 E5.26234
G1 X118.324 Y69.384 E5.99383
G1 X119.321 Y69.4 E6.02699
G1 X120.018 Y69.435 E6.05021
G1 X120.603 Y69.483 E6.06973
G1 X121.516 Y69.598 E6.10033
G1 X122.014 Y69.695 E6.11721
G1 X122.564 Y69.816 E6.13594
G1 X123.345 Y70.014 E6.16274
G1 X124.119 Y70.266 E6.18981
G1 X124.508 Y70.407 E6.20357
G1 X125.291 Y70.723 E6.23166
G1 X126.015 Y71.071 E6.25837
G1 X126.415 Y71.28 E6.27339
G1 X127.017 Y71.62 E6.29638
G1 X127.247 Y71.76 E6.30534
G1 X127.881 Y72.178 E6.33059
G1 X128.127 Y72.353 E6.34063
G1 X128.676 Y72.771 E6.36358
G1 X128.994 Y73.03 E6.37723
G1 X129.509 Y73.478 E6.39993
G1 X129.73 Y73.683 E6.40995
G1 X130.242 Y74.191 E6.43394
G1 X130.448 Y74.41 E6.44394
G1 X130.909 Y74.935 E6.46718
G1 X131.133 Y75.207 E6.4789
G1 X131.573 Y75.778 E6.50288
G1 X131.789 Y76.08 E6.51523
G1 X132.178 Y76.665 E6.53859
G1 X132.331 Y76.912 E6.54826
G1 X132.685 Y77.528 E6.57189
G1 X132.825 Y77.792 E6.58183
G1 X133.134 Y78.424 E6.60522
G1 X133.315 Y78.828 E6.61995
G1 X133.625 Y79.588 E6.64725
G1 X133.897 Y80.412 E6.67611
G1 X134.012 Y80.807 E6.68979
G1 X134.217 Y81.618 E6.71761
G1 X134.359 Y82.363 E6.74284
G1 X134.449 Y82.946 E6.76246
G1 X134.55 Y83.861 E6.79308
G1 X134.571 Y84.347 E6.80926
G1 X134.581 Y84.837 E6.82556
G1 X134.57 Y85.571 E6.84997
G1 X134.546 Y86.062 E6.86632
G1 X134.39 Y87.431 E6.91215
G1 X134.286 Y88.006 E6.93159
G1 X134.117 Y88.774 E6.95774
G1 X133.883 Y89.598 E6.98623
G1 X133.75 Y90.007 E7.00054
G1 X133.46 Y90.804 E7.02874
G1 X133.143 Y91.522 E7.05485
G1 X132.95 Y91.924 E7.06968
G1 X132.606 Y92.579 E7.09429
G1 X132.462 Y92.832 E7.10397
G1 X132.126 Y93.384 E7.12546
G1 X131.968 Y93.626 E7.13508
G1 X131.548 Y94.223 E7.15935
G1 X131.328 Y94.514 E7.17149
G1 X130.867 Y95.082 E7.19582
G1 X130.618 Y95.368 E7.20843
G1 X130.137 Y95.885 E7.23192
G1 X129.938 Y96.085 E7.2413
G1 X129.412 Y96.579 E7.2653
G1 X129.185 Y96.778 E7.27534
G1 X128.656 Y97.212 E7.2981
G1 X128.332 Y97.461 E7.31169
G1 X127.737 Y97.886 E7.33601
G1 X127.481 Y98.056 E7.34623
G1 X126.915 Y98.407 E7.36838
G1 X126.688 Y98.538 E7.3771
G1 X126.02 Y98.893 E7.40226
G1 X125.606 Y99.094 E7.41757
G1 X124.886 Y99.415 E7.44379
G1 X124.085 Y99.711 E7.47219
G1 X123.691 Y99.841 E7.48599
G1 X122.934 Y100.065 E7.51225
G1 X122.1 Y100.252 E7.54067
G1 X121.545 Y100.356 E7.55945
G1 X120.634 Y100.486 E7.59006
G1 X120.167 Y100.521 E7.60564
G1 X119.178 Y100.568 E7.63857
G1 X118.329 Y100.582 E7.66681
G1 X96.541 Y100.582 E8.39148
G1 X95.843 Y100.571 E8.4147
G1 X94.924 Y100.516 E8.44532
G1 X94.013 Y100.382 E8.47595
G1 X93.117 Y100.17 E8.50657
G1 X92.243 Y99.88 E8.5372
G1 X91.398 Y99.516 E8.5678
G1 X90.587 Y99.08 E8.59843
G1 X89.817 Y98.575 E8.62905
G1 X89.094 Y98.005 E8.65967
G1 X88.423 Y97.375 E8.69029
G1 X87.809 Y96.688 E8.72093
G1 X87.258 Y95.951 E8.75154
G1 X86.772 Y95.169 E8.78216
G1 X86.356 Y94.348 E8.81277
G1 X86.012 Y93.494 E8.8434
G1 X85.744 Y92.613 E8.87402
G1 X85.554 Y91.712 E8.90465
G1 X85.442 Y90.799 E8.93524
G1 X85.414 Y90.26 E8.9532
G1 X85.401 Y89.641 E8.97379
G1 X85.402 Y80.527 E9.27692
G0 F6000 X85.802 Y80.533
G1 F1200 X85.812 Y79.844 E9.29984
G1 X85.865 Y78.942 E9.32989
G1 X85.998 Y78.049 E9.35992
G1 X86.209 Y77.171 E9.38995
G1 X86.497 Y76.315 E9.41999
G1 X86.859 Y75.488 E9.45002
G1 X87.294 Y74.696 E9.48007
G1 X87.796 Y73.946 E9.51009
G1 X88.363 Y73.243 E9.54013
G1 X88.99 Y72.593 E9.57017
G1 X89.672 Y72.001 E9.60021
G1 X90.404 Y71.471 E9.63026
G1 X91.18 Y71.009 E9.6603
G1 X91.993 Y70.617 E9.69032
G1 X92.838 Y70.298 E9.72036
G1 X93.708 Y70.055 E9.75041
G1 X94.596 Y69.891 E9.78044
G1 X95.724 Y69.796 E9.81809
G1 X96.331 Y69.783 E9.83828
G1 X118.318 Y69.784 E10.56957
G1 X119.315 Y69.8 E10.60274
G1 X119.985 Y69.833 E10.62505
G1 X120.57 Y69.881 E10.64457
G1 X121.466 Y69.995 E10.67461
G1 X121.928 Y70.085 E10.69027
G1 X122.478 Y70.206 E10.709
G1 X123.237 Y70.4 E10.73506
G1 X123.983 Y70.643 E10.76115
G1 X124.372 Y70.784 E10.77491
G1 X125.128 Y71.088 E10.80201
G1 X125.83 Y71.426 E10.82793
G1 X126.23 Y71.635 E10.84294
G1 X126.809 Y71.962 E10.86506
G1 X127.039 Y72.102 E10.87401
G1 X127.649 Y72.504 E10.89831
G1 X127.895 Y72.679 E10.90835
G1 X128.423 Y73.081 E10.93042
G1 X128.741 Y73.34 E10.94406
G1 X129.237 Y73.771 E10.96592
G1 X129.458 Y73.976 E10.97594
G1 X129.951 Y74.465 E10.99904
G1 X130.157 Y74.684 E11.00904
G1 X130.601 Y75.189 E11.0314
G1 X130.825 Y75.461 E11.04312
G1 X131.247 Y76.011 E11.06618
G1 X131.463 Y76.313 E11.07853
G1 X131.838 Y76.876 E11.10103
G1 X131.991 Y77.123 E11.11069
G1 X132.331 Y77.715 E11.1334
G1 X132.471 Y77.979 E11.14334
G1 X132.768 Y78.588 E11.16587
G1 X132.949 Y78.992 E11.1806
G1 X133.249 Y79.724 E11.20691
G1 X133.513 Y80.524 E11.23493
G1 X133.628 Y80.919 E11.24861
G1 X133.827 Y81.707 E11.27565
G1 X133.964 Y82.424 E11.29992
G1 X134.054 Y83.007 E11.31954
G1 X134.171 Y84.355 E11.36455
G1 X134.181 Y84.845 E11.38085
G1 X134.171 Y85.551 E11.40433
G1 X134.147 Y86.042 E11.42068
G1 X133.996 Y87.359 E11.46477
G1 X133.892 Y87.934 E11.48421
G1 X133.73 Y88.674 E11.5094
G1 X133.503 Y89.474 E11.53706
G1 X133.37 Y89.883 E11.55137
G1 X133.088 Y90.655 E11.5787
G1 X132.782 Y91.349 E11.60393
G1 X132.589 Y91.751 E11.61876
G1 X132.259 Y92.382 E11.64245
G1 X132.115 Y92.635 E11.65213
G1 X131.791 Y93.165 E11.67279
G1 X131.633 Y93.407 E11.6824
G1 X131.228 Y93.982 E11.70579
G1 X131.008 Y94.273 E11.71793
G1 X130.565 Y94.82 E11.74134
G1 X130.316 Y95.106 E11.75395
G1 X129.854 Y95.602 E11.7765
G1 X129.655 Y95.802 E11.78588
G1 X129.148 Y96.278 E11.80901
G1 X128.921 Y96.477 E11.81905
G1 X128.412 Y96.895 E11.84096
G1 X128.088 Y97.144 E11.85455
G1 X127.516 Y97.553 E11.87794
G1 X127.26 Y97.723 E11.88816
G1 X126.715 Y98.06 E11.90947
G1 X126.488 Y98.191 E11.91819
G1 X125.845 Y98.533 E11.94241
G1 X125.431 Y98.734 E11.95772
G1 X124.735 Y99.044 E11.98306
G1 X123.96 Y99.331 E12.01054
G1 X123.566 Y99.461 E12.02434
G1 X122.834 Y99.678 E12.04974
G1 X122.027 Y99.859 E12.07725
G1 X121.472 Y99.963 E12.09603
G1 X120.145 Y100.122 E12.14048
G1 X119.171 Y100.168 E12.17291
G1 X118.322 Y100.182 E12.20115
G1 X96.547 Y100.182 E12.92539
G1 X95.849 Y100.171 E12.94861
G1 X94.948 Y100.117 E12.97863
G1 X94.055 Y99.983 E13.00866
G1 X93.177 Y99.771 E13.03871
G1 X92.321 Y99.482 E13.06876
G1 X91.495 Y99.118 E13.09878
G1 X90.703 Y98.683 E13.12883
G1 X89.954 Y98.179 E13.15886
G1 X89.251 Y97.611 E13.18892
G1 X88.602 Y96.984 E13.21893
G1 X88.011 Y96.301 E13.24897
G1 X87.482 Y95.569 E13.27901
G1 X87.021 Y94.792 E13.30906
G1 X86.63 Y93.978 E13.3391
G1 X86.312 Y93.133 E13.36912
G1 X86.071 Y92.263 E13.39915
G1 X85.907 Y91.375 E13.42919
G1 X85.814 Y90.249 E13.46676
G1 X85.801 Y89.641 E13.48699
G1 X85.802 Y80.533 E13.78992
G1 F1500 E7.28992
;MESH:pivot.stl
G0 F6000 X106.867 Y85.466
G0 X108.053 Y86.854
G0 X108.685 Y87.182
G0 X109.371 Y87.344
G0 X109.907 Y87.281
G0 X111.177 Y86.847
;TYPE:WALL-INNER
G1 F1500 E13.78992
G1 F1200 X110.791 Y87.121 E13.80567
G1 X110.561 Y87.243 E13.81433
G1 X110.081 Y87.422 E13.83137
G1 X109.453 Y87.498 E13.85241
G1 X109.184 Y87.467 E13.86141
G1 X108.632 Y87.334 E13.8803
G1 X108.114 Y87.069 E13.89965
G1 X107.829 Y86.847 E13.91166
G1 X107.462 Y86.439 E13.92992
G1 X107.27 Y86.121 E13.94227
G1 X107.061 Y85.563 E13.96209
G1 X106.994 Y85.004 E13.98082
G1 X107.051 Y84.507 E13.99745
G1 X107.111 Y84.264 E14.00578
G1 X107.277 Y83.832 E14.02117
G1 X107.467 Y83.52 E14.03332
G1 X107.831 Y83.116 E14.05141
G1 X108.116 Y82.897 E14.06336
G1 X108.629 Y82.631 E14.08258
G1 X109.24 Y82.486 E14.10347
G1 X109.413 Y82.472 E14.10924
G1 X109.531 Y82.478 E14.11317
G1 X110.075 Y82.542 E14.13139
G1 X110.562 Y82.724 E14.14868
G1 X110.792 Y82.846 E14.15734
G1 X111.179 Y83.121 E14.17313
G1 X111.548 Y83.534 E14.19155
G1 X111.743 Y83.86 E14.20419
G1 X111.995 Y84.556 E14.22881
G1 X111.989 Y85.33 E14.25455
G1 X111.932 Y85.581 E14.26311
G1 X111.742 Y86.108 E14.28174
G1 X111.546 Y86.435 E14.29442
G1 X111.177 Y86.847 E14.31282
G0 F6000 X110.909 Y86.546
G1 F1200 X110.496 Y86.84 E14.32968
G1 X109.98 Y87.033 E14.34801
G1 X109.367 Y87.1 E14.36851
G1 X108.769 Y86.956 E14.38897
G1 X108.298 Y86.713 E14.4066
G1 X108.127 Y86.58 E14.41381
G1 X107.76 Y86.171 E14.43208
G1 X107.645 Y85.981 E14.43947
G1 X107.451 Y85.463 E14.45787
G1 X107.401 Y84.999 E14.47339
G1 X107.455 Y84.483 E14.49065
G1 X107.65 Y83.975 E14.50874
G1 X107.765 Y83.788 E14.51604
G1 X108.129 Y83.384 E14.53413
G1 X108.299 Y83.252 E14.54129
G1 X108.77 Y83.009 E14.55892
G1 X109.309 Y82.88 E14.57735
G1 X109.413 Y82.872 E14.58082
G1 X109.98 Y82.934 E14.59979
G1 X110.496 Y83.127 E14.61811
G1 X110.911 Y83.421 E14.63503
G1 X111.25 Y83.801 E14.65197
G1 X111.367 Y83.996 E14.65953
G1 X111.595 Y84.624 E14.68175
G1 X111.591 Y85.349 E14.70587
G1 X111.366 Y85.972 E14.7279
G1 X111.248 Y86.168 E14.73551
G1 X110.909 Y86.546 E14.75239
G0 F6000 X110.306 Y86.484
;TYPE:WALL-OUTER
G1 F1200 X109.871 Y86.643 E14.7678
G1 X109.401 Y86.696 E14.78353
G1 X108.911 Y86.579 E14.80029
G1 X108.449 Y86.34 E14.81759
G1 X108.032 Y85.874 E14.83839
G1 X107.852 Y85.395 E14.8554
G1 X107.799 Y85.004 E14.86853
G1 X107.849 Y84.575 E14.88289
G1 X108.037 Y84.084 E14.90038
G1 X108.45 Y83.625 E14.92092
G1 X108.912 Y83.386 E14.93822
G1 X109.378 Y83.274 E14.95416
G1 X109.413 Y83.272 E14.95532
G1 X109.885 Y83.326 E14.97113
G1 X110.309 Y83.484 E14.98617
G1 X110.659 Y83.739 E15.00058
G1 X110.978 Y84.096 E15.0165
G1 X111.194 Y84.692 E15.03759
G1 X111.192 Y85.276 E15.05701
G1 X110.977 Y85.871 E15.07805
G1 X110.624 Y86.258 E15.09547
G1 X110.306 Y86.484 E15.10845
G1 F1500 E8.60845
G0 F6000 X110.708 Y87.055
G0 X111.912 Y86.169
G0 X116.203 Y86.355
G0 X117.532 Y87.142
G0 X118.22 Y87.311
G0 X119.621 Y87.233
;TYPE:WALL-INNER
G1 F1500 E15.10845
G1 F1200 X119.404 Y87.325 E15.11629
G1 X118.794 Y87.472 E15.13716
G1 X118.195 Y87.472 E15.15708
G1 X117.641 Y87.336 E15.17605
G1 X117.311 Y87.188 E15.18808
G1 X116.862 Y86.878 E15.20623
G1 X116.608 Y86.623 E15.2182
G1 X116.28 Y86.148 E15.2374
G1 X116.07 Y85.591 E15.2572
G1 X116.015 Y85.339 E15.26578
G1 X116.011 Y84.53 E15.29269
G1 X116.281 Y83.816 E15.31808
G1 X116.608 Y83.343 E15.3372
G1 X116.862 Y83.088 E15.34917
G1 X117.311 Y82.778 E15.36732
G1 X117.641 Y82.63 E15.37935
G1 X118.205 Y82.494 E15.39865
G1 X118.797 Y82.494 E15.41834
G1 X119.405 Y82.641 E15.43914
G1 X119.64 Y82.743 E15.44766
G1 X120.291 Y83.196 E15.47404
G1 X120.718 Y83.808 E15.49886
G1 X120.967 Y84.463 E15.52217
G1 X120.991 Y84.697 E15.52999
G1 X120.992 Y85.329 E15.55101
G1 X120.959 Y85.515 E15.55729
G1 X120.72 Y86.156 E15.58005
G1 X120.349 Y86.685 E15.60154
G1 X120.197 Y86.836 E15.60866
G1 X119.621 Y87.233 E15.63193
G0 F6000 X120.004 Y86.483
G1 F1200 X119.377 Y86.92 E15.65735
G1 X118.753 Y87.072 E15.67871
G1 X118.245 Y87.072 E15.69561
G1 X117.736 Y86.947 E15.71304
G1 X117.539 Y86.858 E15.72023
G1 X117.089 Y86.548 E15.7384
G1 X116.937 Y86.396 E15.74555
G1 X116.638 Y85.963 E15.76306
G1 X116.413 Y85.369 E15.78418
G1 X116.412 Y84.6 E15.80976
G1 X116.638 Y84.003 E15.83099
G1 X116.937 Y83.57 E15.84849
G1 X117.089 Y83.418 E15.85564
G1 X117.539 Y83.108 E15.87382
