;FLAVOR:Marlin
;TIME:10278
;Filament used: 5.43304m
;Layer height: 0.2
;MINX:51.754
;MINY:74.511
;MINZ:0.2
;MAXX:182.533
;MAXY:134.145
;MAXZ:18.6
;Generated with Cura_SteamEngine main
M82 ;absolute extrusion mode
; Ender 3 Custom Start G-code
G92 E0 ; Reset Extruder
G28 ; Home all axes
M104 S175 ; Start heating up the nozzle most of the way
M190 S60 ; Start heating the bed, wait until target temperature reached
M109 S195.0 ; Finish heating the nozzle
G1 Z2.0 F3000 ; Move Z Axis up little to prevent scratching of Heat Bed
G1 X0.1 Y20 Z0.3 F5000.0 ; Move to start position
G1 X0.1 Y200.0 Z0.3 F1500.0 E15 ; Draw the first line
G1 X0.4 Y200.0 Z0.3 F5000.0 ; Move to side a little
G1 X0.4 Y20 Z0.3 F1500.0 E30 ; Draw the second line
G92 E0 ; Reset Extruder
G1 Z2.0 F3000 ; Move Z Axis up little to prevent scratching of Heat Bed
G1 X5 Y20 Z0.3 F5000.0 ; Move over to prevent blob squish
G92 E0
G92 E0
G1 F1500 E-6.5
;LAYER_COUNT:93
;LAYER:0
M107
G0 F6000 X56.784 Y84.338 Z0.2
G0 X51.755 Y94.246
;TYPE:SKIRT
G1 F1500 E0
G1 F1200 X51.765 Y93.582 E0.02209
G1 X51.819 Y92.646 E0.05327
G1 X51.953 Y91.718 E0.08446
G1 X52.165 Y90.804 E0.11566
G1 X52.455 Y89.912 E0.14686
G1 X52.955 Y88.77 E0.18832
G1 X53.09 Y88.504 E0.19824
G1 X53.55 Y87.686 E0.22946
G1 X54.077 Y86.911 E0.26063
G1 X54.669 Y86.183 E0.29184
G1 X55.321 Y85.509 E0.32303
G1 X56.028 Y84.892 E0.35424
G1 X56.784 Y84.338 E0.38541
G1 X57.585 Y83.851 E0.41659
G1 X58.118 Y83.575 E0.43655
G1 X58.981 Y83.159 E0.46842
G1 X61.297 Y82.001 E0.55454
G1 X63.527 Y80.806 E0.63869
G1 X65.683 Y79.571 E0.72133
G1 X66.396 Y79.141 E0.74902
G1 X67.49 Y78.51 E0.79103
G1 X68.322 Y78.077 E0.82222
G1 X69.187 Y77.716 E0.8534
G1 X70.08 Y77.43 E0.88459
G1 X70.995 Y77.221 E0.9158
G1 X71.924 Y77.09 E0.94701
G1 X72.764 Y77.041 E0.97499
G1 X73.579 Y77.027 E1.00211
G1 X80.737 Y77.027 E1.24018
G1 X81.445 Y77.037 E1.26373
G1 X82.365 Y77.089 E1.29438
G1 X83.287 Y77.18 E1.32519
G1 X85.931 Y77.404 E1.41345
G1 X88.447 Y77.545 E1.49726
G1 X90.972 Y77.616 E1.58128
G1 X93.497 Y77.616 E1.66526
G1 X95.982 Y77.545 E1.74795
G1 X98.501 Y77.401 E1.83186
G1 X101.109 Y77.178 E1.91892
G1 X102.005 Y77.09 E1.94887
G1 X102.707 Y77.043 E1.97227
G1 X103.277 Y77.03 E1.99123
G1 X111.878 Y77.022 E2.2773
G1 X114.416 Y76.95 E2.36175
G1 X116.953 Y76.807 E2.44627
G1 X119.414 Y76.598 E2.52841
G1 X121.929 Y76.312 E2.6126
G1 X124.437 Y75.956 E2.69685
G1 X126.889 Y75.535 E2.7796
G1 X129.914 Y74.919 E2.88228
G1 X130.554 Y74.798 E2.90394
G1 X131.482 Y74.664 E2.93513
G1 X132.425 Y74.608 E2.96655
G1 X133.193 Y74.596 E2.99209
G1 X137.821 Y74.596 E3.14602
G1 X139.853 Y74.56 E3.21362
G1 X140.803 Y74.553 E3.24521
G1 X142.038 Y74.614 E3.28634
G1 X145.095 Y74.901 E3.38846
G1 X147.595 Y75.058 E3.47178
G1 X150.093 Y75.146 E3.55491
G1 X152.652 Y75.163 E3.64003
G1 X155.139 Y75.109 E3.72277
G1 X157.661 Y74.984 E3.80675
G1 X160.214 Y74.783 E3.89193
G1 X161.582 Y74.654 E3.93763
G1 X162.248 Y74.611 E3.95983
G1 X162.819 Y74.598 E3.97882
G1 X165.949 Y74.596 E4.08293
G1 X168.555 Y74.56 E4.16961
G1 X169.263 Y74.534 E4.19318
G1 X170.472 Y74.511 E4.23339
G1 X171.409 Y74.533 E4.26457
G1 X172.342 Y74.635 E4.29578
G1 X173.262 Y74.816 E4.32697
G1 X173.96 Y75.009 E4.35106
G1 X174.498 Y75.177 E4.3698
G1 X175.38 Y75.494 E4.40098
G1 X176.233 Y75.886 E4.4322
G1 X177.048 Y76.349 E4.46337
G1 X177.822 Y76.879 E4.49457
G1 X178.547 Y77.474 E4.52577
G1 X179.219 Y78.128 E4.55696
G1 X179.833 Y78.837 E4.58815
G1 X180.385 Y79.595 E4.61934
G1 X180.87 Y80.398 E4.65054
G1 X181.267 Y81.201 E4.68034
G1 X181.459 Y81.632 E4.69603
G1 X181.804 Y82.504 E4.72722
G1 X182.13 Y83.639 E4.7665
G1 X182.241 Y84.121 E4.78295
G1 X182.413 Y85.044 E4.81417
G1 X182.521 Y86.442 E4.86081
G1 X182.533 Y87.645 E4.90082
G1 X182.522 Y88.398 E4.92587
G1 X182.478 Y89.228 E4.95352
G1 X182.327 Y90.897 E5.00925
G1 X182.164 Y93.451 E5.09437
G1 X182.073 Y95.992 E5.17894
G1 X182.053 Y97.858 E5.24101
G1 X182.052 Y110.794 E5.67126
G1 X182.089 Y113.402 E5.75801
G1 X182.195 Y115.9 E5.84117
G1 X182.379 Y118.505 E5.92803
G1 X182.47 Y119.57 E5.96358
G1 X182.508 Y120.283 E5.98733
G1 X182.529 Y121.305 E6.02133
G1 X182.522 Y122.212 E6.0515
G1 X182.467 Y123.148 E6.08268
G1 X182.304 Y124.223 E6.11884
G1 X182.211 Y124.682 E6.13442
G1 X181.986 Y125.593 E6.16563
G1 X181.684 Y126.481 E6.19683
G1 X181.307 Y127.34 E6.22803
G1 X180.786 Y128.283 E6.26386
G1 X180.462 Y128.807 E6.28435
G1 X179.935 Y129.583 E6.31555
G1 X179.344 Y130.311 E6.34674
G1 X178.693 Y130.986 E6.37793
G1 X177.987 Y131.604 E6.40914
G1 X177.231 Y132.159 E6.44033
G1 X176.431 Y132.647 E6.4715
G1 X175.591 Y133.066 E6.50272
G1 X174.66 Y133.432 E6.53599
G1 X174.288 Y133.559 E6.54907
G1 X173.388 Y133.824 E6.58027
G1 X172.469 Y134.011 E6.61146
G1 X171.538 Y134.12 E6.64264
G1 X170.438 Y134.145 E6.67924
G1 X167.48 Y134.065 E6.77765
G1 X166.154 Y134.056 E6.82176
G1 X163.018 Y134.054 E6.92606
G1 X162.364 Y134.045 E6.94782
G1 X161.42 Y133.991 E6.97927
G1 X160.543 Y133.903 E7.00858
G1 X157.93 Y133.68 E7.09581
G1 X155.41 Y133.536 E7.17976
G1 X152.922 Y133.465 E7.26254
G1 X150.398 Y133.463 E7.34649
G1 X147.878 Y133.534 E7.43034
G1 X145.342 Y133.676 E7.51482
G1 X142.822 Y133.889 E7.59893
G1 X142.172 Y133.959 E7.62068
G1 X141.617 Y134.008 E7.63921
G1 X141.057 Y134.04 E7.65787
G1 X140.428 Y134.054 E7.67879
G1 X133.154 Y134.054 E7.92073
G1 X132.497 Y134.045 E7.94258
G1 X131.561 Y133.992 E7.97376
G1 X130.892 Y133.905 E7.9962
G1 X130.521 Y133.845 E8.0087
G1 X130.026 Y133.753 E8.02544
G1 X127.523 Y133.23 E8.11049
G1 X125 Y132.776 E8.19576
G1 X122.546 Y132.407 E8.27829
G1 X120.037 Y132.102 E8.36236
G1 X117.545 Y131.869 E8.4456
G1 X115.025 Y131.705 E8.5296
G1 X112.528 Y131.615 E8.6127
G1 X110.298 Y131.607 E8.68687
G1 X110.021 Y131.594 E8.69609
G1 X103.632 Y131.593 E8.90859
G1 X102.935 Y131.583 E8.93178
G1 X102.019 Y131.531 E8.96229
G1 X101.025 Y131.434 E8.99551
G1 X98.426 Y131.212 E9.08227
G1 X95.941 Y131.071 E9.16505
G1 X93.384 Y130.999 E9.25013
G1 X90.897 Y130.999 E9.33285
G1 X88.338 Y131.071 E9.418
G1 X85.855 Y131.212 E9.50072
G1 X83.274 Y131.432 E9.58687
G1 X82.224 Y131.536 E9.62197
G1 X81.144 Y131.59 E9.65793
G1 X73.634 Y131.593 E9.90772
G1 X72.931 Y131.583 E9.9311
G1 X71.994 Y131.53 E9.96231
G1 X71.066 Y131.397 E9.99349
G1 X70.152 Y131.185 E10.0247
G1 X69.599 Y131.016 E10.04393
G1 X69.27 Y130.906 E10.05547
G1 X68.394 Y130.571 E10.08667
G1 X67.55 Y130.163 E10.11785
G1 X67.111 Y129.914 E10.13463
G1 X65.963 Y129.227 E10.17913
G1 X63.781 Y127.966 E10.26295
G1 X61.531 Y126.75 E10.34802
G1 X59.284 Y125.615 E10.43174
G1 X58.076 Y125.025 E10.47646
G1 X57.251 Y124.578 E10.50767
G1 X56.468 Y124.062 E10.53886
G1 X55.731 Y123.481 E10.57007
G1 X55.047 Y122.84 E10.60125
G1 X54.419 Y122.143 E10.63245
G1 X53.854 Y121.395 E10.66363
G1 X53.219 Y120.36 E10.70402
G1 X53.081 Y120.104 E10.71369
G1 X52.672 Y119.26 E10.74488
G1 X52.336 Y118.384 E10.77609
G1 X52.075 Y117.483 E10.80729
G1 X51.893 Y116.563 E10.83848
G1 X51.789 Y115.631 E10.86967
G1 X51.765 Y115.048 E10.88908
G1 X51.754 Y114.309 E10.91366
G1 X51.755 Y94.246 E11.58096
G0 F6000 X52.155 Y94.252
G1 F1200 X52.165 Y93.588 E11.60305
G1 X52.219 Y92.669 E11.63367
G1 X52.352 Y91.758 E11.66429
G1 X52.564 Y90.862 E11.69491
G1 X52.853 Y89.988 E11.72553
G1 X53.312 Y88.951 E11.76325
G1 X53.447 Y88.685 E11.77317
G1 X53.899 Y87.883 E11.80379
G1 X54.418 Y87.123 E11.8344
G1 X55.002 Y86.411 E11.86502
G1 X55.646 Y85.752 E11.89567
G1 X56.344 Y85.152 E11.92629
G1 X57.091 Y84.615 E11.95688
G1 X58.292 Y83.936 E12.00277
G1 X59.126 Y83.534 E12.03356
G1 X61.458 Y82.368 E12.12028
G1 X63.72 Y81.156 E12.20564
G1 X65.895 Y79.91 E12.28901
G1 X66.389 Y79.61 E12.30823
G1 X67.69 Y78.857 E12.35823
G1 X68.507 Y78.432 E12.38886
G1 X69.357 Y78.08 E12.41946
G1 X70.235 Y77.802 E12.45009
G1 X71.134 Y77.602 E12.48072
G1 X72.046 Y77.481 E12.51132
G1 X72.772 Y77.441 E12.5355
G1 X73.579 Y77.427 E12.56235
G1 X80.732 Y77.427 E12.80026
G1 X81.44 Y77.437 E12.82381
G1 X82.326 Y77.487 E12.85332
G1 X83.291 Y77.582 E12.88557
G1 X85.909 Y77.804 E12.97296
G1 X88.414 Y77.945 E13.05641
G1 X90.961 Y78.016 E13.14116
G1 X93.473 Y78.016 E13.22471
G1 X96.017 Y77.943 E13.30935
G1 X98.557 Y77.798 E13.39397
G1 X101.103 Y77.581 E13.47896
G1 X102.044 Y77.488 E13.51041
G1 X102.72 Y77.443 E13.53294
G1 X103.277 Y77.43 E13.55147
G1 X111.889 Y77.422 E13.83791
G1 X114.449 Y77.35 E13.92309
G1 X116.939 Y77.21 E14.00604
G1 X119.495 Y76.992 E14.09136
G1 X121.959 Y76.712 E14.17384
G1 X124.495 Y76.352 E14.25903
G1 X126.971 Y75.927 E14.34259
G1 X129.837 Y75.342 E14.43988
G1 X130.628 Y75.192 E14.46666
G1 X131.539 Y75.06 E14.49727
G1 X132.431 Y75.008 E14.52699
G1 X133.199 Y74.996 E14.55254
G1 X137.828 Y74.996 E14.7065
G1 X139.856 Y74.96 E14.77396
G1 X140.806 Y74.953 E14.80556
G1 X141.996 Y75.011 E14.84519
G1 X142.525 Y75.067 E14.86288
G1 X145.035 Y75.298 E14.94672
G1 X147.557 Y75.457 E15.03076
G1 X150.111 Y75.546 E15.11576
G1 X152.622 Y75.563 E15.19928
G1 X155.168 Y75.508 E15.28398
G1 X157.676 Y75.383 E15.3675
G1 X160.28 Y75.179 E15.45437
G1 X161.619 Y75.052 E15.49911
G1 X162.261 Y75.011 E15.52051
G1 X162.819 Y74.998 E15.53907
G1 X165.955 Y74.996 E15.64337
G1 X168.576 Y74.96 E15.73056
G1 X169.27 Y74.934 E15.75366
G1 X170.479 Y74.911 E15.79388
G1 X171.4 Y74.933 E15.82452
G1 X172.315 Y75.036 E15.85514
G1 X173.217 Y75.217 E15.88574
G1 X173.841 Y75.391 E15.90729
G1 X174.379 Y75.559 E15.92603
G1 X175.245 Y75.871 E15.95665
G1 X176.08 Y76.257 E15.98724
G1 X176.879 Y76.715 E16.01788
G1 X177.636 Y77.24 E16.04852
G1 X178.344 Y77.828 E16.07913
G1 X178.998 Y78.476 E16.10975
G1 X179.593 Y79.178 E16.14035
G1 X180.126 Y79.93 E16.17101
G1 X180.591 Y80.724 E16.20162
G1 X180.902 Y81.364 E16.22528
G1 X181.094 Y81.795 E16.24098
G1 X181.431 Y82.651 E16.27157
G1 X181.741 Y83.729 E16.30888
G1 X181.852 Y84.211 E16.32533
G1 X182.019 Y85.116 E16.35594
G1 X182.121 Y86.448 E16.40037
G1 X182.133 Y87.639 E16.43999
G1 X182.122 Y88.392 E16.46503
G1 X182.08 Y89.192 E16.49168
G1 X181.929 Y90.862 E16.54745
G1 X181.764 Y93.448 E16.63364
G1 X181.674 Y95.974 E16.7177
G1 X181.653 Y97.858 E16.78037
G1 X181.652 Y110.8 E17.21082
G1 X181.689 Y113.425 E17.29814
G1 X181.795 Y115.909 E17.38083
G1 X181.982 Y118.567 E17.46946
G1 X182.071 Y119.604 E17.50407
G1 X182.108 Y120.291 E17.52696
G1 X182.129 Y121.313 E17.56096
G1 X182.122 Y122.206 E17.59066
G1 X182.067 Y123.125 E17.62128
G1 X181.912 Y124.144 E17.65556
G1 X181.819 Y124.603 E17.67114
G1 X181.597 Y125.496 E17.70174
G1 X181.299 Y126.367 E17.73236
G1 X180.926 Y127.209 E17.76299
G1 X180.446 Y128.073 E17.79587
G1 X180.122 Y128.597 E17.81636
G1 X179.604 Y129.358 E17.84697
G1 X179.022 Y130.071 E17.87759
G1 X178.381 Y130.732 E17.90821
G1 X177.684 Y131.334 E17.93884
G1 X176.938 Y131.873 E17.96945
G1 X176.148 Y132.346 E18.00008
G1 X175.32 Y132.748 E18.03069
G1 X174.531 Y133.054 E18.05884
G1 X174.159 Y133.181 E18.07191
G1 X173.275 Y133.44 E18.10255
G1 X172.373 Y133.622 E18.13316
G1 X171.458 Y133.724 E18.16378
G1 X170.449 Y133.745 E18.19734
G1 X167.494 Y133.665 E18.29566
G1 X166.156 Y133.656 E18.34017
G1 X163.023 Y133.654 E18.44437
G1 X162.369 Y133.645 E18.46613
G1 X161.46 Y133.593 E18.49641
G1 X160.549 Y133.502 E18.52686
G1 X157.986 Y133.283 E18.61242
G1 X155.445 Y133.138 E18.69707
G1 X152.898 Y133.065 E18.78182
G1 X150.387 Y133.063 E18.86533
G1 X147.843 Y133.134 E18.94998
G1 X145.325 Y133.276 E19.03386
G1 X142.786 Y133.49 E19.11861
G1 X142.129 Y133.561 E19.14059
G1 X141.584 Y133.609 E19.15878
G1 X141.045 Y133.64 E19.17674
G1 X140.427 Y133.654 E19.1973
G1 X133.16 Y133.654 E19.439
G1 X132.503 Y133.645 E19.46086
G1 X131.584 Y133.592 E19.49147
G1 X130.956 Y133.51 E19.51254
G1 X130.108 Y133.362 E19.54117
G1 X127.57 Y132.831 E19.62741
G1 X125.099 Y132.387 E19.71091
G1 X122.582 Y132.009 E19.79557
G1 X120.086 Y131.705 E19.8792
G1 X117.572 Y131.47 E19.96318
G1 X115.03 Y131.305 E20.0479
G1 X112.545 Y131.215 E20.13061
G1 X110.299 Y131.207 E20.20531
G1 X110.021 Y131.194 E20.21457
G1 X103.638 Y131.193 E20.42687
G1 X102.941 Y131.183 E20.45005
G1 X102.058 Y131.133 E20.47947
G1 X101.104 Y131.039 E20.51135
G1 X98.444 Y130.813 E20.60014
G1 X95.941 Y130.671 E20.68353
G1 X93.395 Y130.599 E20.76824
G1 X90.886 Y130.599 E20.85169
G1 X88.34 Y130.671 E20.9364
G1 X85.833 Y130.813 E21.01992
G1 X83.197 Y131.037 E21.10791
G1 X82.184 Y131.138 E21.14177
G1 X81.144 Y131.19 E21.1764
G1 X73.639 Y131.193 E21.42602
G1 X72.936 Y131.183 E21.44941
G1 X72.017 Y131.13 E21.48002
G1 X71.106 Y130.997 E21.51064
G1 X70.21 Y130.786 E21.54126
G1 X69.397 Y130.527 E21.56964
G1 X68.537 Y130.197 E21.60028
G1 X67.317 Y129.571 E21.64588
G1 X66.192 Y128.898 E21.68949
G1 X63.95 Y127.603 E21.7756
G1 X61.737 Y126.406 E21.85928
G1 X59.431 Y125.241 E21.94521
G1 X58.251 Y124.665 E21.98889
G1 X57.442 Y124.226 E22.0195
G1 X56.674 Y123.718 E22.05013
G1 X55.954 Y123.145 E22.08073
G1 X55.285 Y122.512 E22.11136
G1 X54.674 Y121.823 E22.14199
G1 X54.125 Y121.084 E22.17261
G1 X53.571 Y120.17 E22.20816
G1 X53.433 Y119.914 E22.21783
G1 X53.032 Y119.085 E22.24846
G1 X52.704 Y118.225 E22.27908
G1 X52.452 Y117.339 E22.30971
G1 X52.278 Y116.435 E22.34033
G1 X52.183 Y115.52 E22.37093
G1 X52.165 Y115.042 E22.38684
G1 X52.154 Y114.303 E22.41142
G1 X52.155 Y94.252 E23.07832
G0 F6000 X52.555 Y94.258
G1 F1200 X52.565 Y93.594 E23.10041
G1 X52.619 Y92.693 E23.13043
G1 X52.752 Y91.8 E23.16046
G1 X52.963 Y90.922 E23.19049
G1 X53.252 Y90.066 E23.22054
G1 X53.668 Y89.132 E23.25455
G1 X53.803 Y88.866 E23.26447
G1 X54.247 Y88.079 E23.29452
G1 X54.759 Y87.335 E23.32456
G1 X55.335 Y86.639 E23.35461
G1 X55.97 Y85.997 E23.38464
G1 X56.659 Y85.414 E23.41466
G1 X57.397 Y84.893 E23.44471
G1 X58.466 Y84.296 E23.48543
G1 X59.3 Y83.894 E23.51623
G1 X61.661 Y82.713 E23.60403
G1 X63.902 Y81.513 E23.68858
G1 X66.107 Y80.249 E23.77311
G1 X66.796 Y79.834 E23.79986
G1 X67.89 Y79.203 E23.84187
G1 X68.691 Y78.787 E23.87189
G1 X69.526 Y78.444 E23.90191
G1 X70.389 Y78.175 E23.93198
G1 X71.271 Y77.984 E23.962
G1 X72.168 Y77.872 E23.99206
G1 X72.78 Y77.841 E24.01244
G1 X73.58 Y77.827 E24.03905
G1 X80.726 Y77.827 E24.27673
G1 X81.434 Y77.837 E24.30028
G1 X82.287 Y77.885 E24.3287
G1 X83.22 Y77.977 E24.35988
G1 X85.888 Y78.203 E24.44894
G1 X88.415 Y78.345 E24.53312
G1 X90.95 Y78.416 E24.61746
G1 X93.485 Y78.416 E24.70178
G1 X96.049 Y78.343 E24.78709
G1 X98.545 Y78.2 E24.87025
G1 X101.183 Y77.975 E24.9583
G1 X102.084 Y77.886 E24.98842
G1 X102.734 Y77.843 E25.01008
G1 X103.278 Y77.83 E25.02818
G1 X111.901 Y77.822 E25.31499
G1 X114.449 Y77.75 E25.39977
G1 X116.994 Y77.607 E25.48455
G1 X119.502 Y77.393 E25.56827
G1 X122.063 Y77.102 E25.65399
G1 X124.542 Y76.75 E25.73727
G1 X127.027 Y76.324 E25.82113
G1 X129.917 Y75.734 E25.91923
G1 X130.702 Y75.585 E25.94581
G1 X131.596 Y75.456 E25.97585
G1 X132.438 Y75.408 E26.0039
G1 X133.206 Y75.396 E26.02945
G1 X137.835 Y75.396 E26.18341
G1 X139.859 Y75.36 E26.25074
G1 X140.809 Y75.353 E26.28234
G1 X141.954 Y75.409 E26.32047
G1 X142.449 Y75.461 E26.33702
G1 X145.006 Y75.696 E26.42242
G1 X147.554 Y75.857 E26.50734
G1 X150.094 Y75.946 E26.59187
G1 X152.628 Y75.963 E26.67616
G1 X155.196 Y75.908 E26.76159
G1 X157.691 Y75.783 E26.84468
G1 X160.291 Y75.579 E26.93142
G1 X161.657 Y75.45 E26.97705
G1 X162.275 Y75.411 E26.99765
G1 X162.82 Y75.398 E27.01578
G1 X165.961 Y75.396 E27.12025
G1 X168.563 Y75.36 E27.2068
G1 X169.056 Y75.34 E27.22321
G1 X170.487 Y75.311 E27.27082
G1 X171.39 Y75.334 E27.30086
G1 X172.287 Y75.436 E27.33089
G1 X173.172 Y75.618 E27.36094
G1 X173.721 Y75.773 E27.37991
G1 X174.259 Y75.941 E27.39866
G1 X175.109 Y76.248 E27.42872
G1 X175.927 Y76.629 E27.45873
G1 X176.709 Y77.081 E27.48877
G1 X177.448 Y77.6 E27.51881
G1 X178.138 Y78.183 E27.54885
G1 X178.774 Y78.824 E27.57889
G1 X179.351 Y79.519 E27.60893
G1 X179.863 Y80.263 E27.63897
G1 X180.308 Y81.048 E27.66898
G1 X180.536 Y81.526 E27.6866
G1 X180.728 Y81.957 E27.70229
G1 X181.059 Y82.798 E27.73235
G1 X181.351 Y83.819 E27.76767
G1 X181.462 Y84.301 E27.78412
G1 X181.625 Y85.189 E27.81415
G1 X181.721 Y86.453 E27.85631
G1 X181.733 Y87.633 E27.89556
G1 X181.722 Y88.386 E27.92061
G1 X181.682 Y89.156 E27.94625
G1 X181.525 Y90.887 E28.00406
G1 X181.365 Y93.408 E28.08808
G1 X181.274 Y95.954 E28.17281
G1 X181.253 Y97.858 E28.23614
