;FLAVOR:Marlin
;TIME:9645
;Filament used: 5.24595m
;Layer height: 0.2
;MINX:51.754
;MINY:75.455
;MINZ:0.2
;MAXX:182.218
;MAXY:133.197
;MAXZ:18.6
;Generated with Cura_SteamEngine main
M82 ;absolute extrusion mode
; Ender 3 Custom Start G-code
G92 E0 ; Reset Extruder
G28 ; Home all axes
M104 S175 ; Start heating up the nozzle most of the way
M190 S60 ; Start heating the bed, wait until target temperature reached
M109 S195.0 ; Finish heating the nozzle
G1 Z2.0 F3000 ; Move Z Axis up little to prevent scratching of Heat Bed
G1 X0.1 Y20 Z0.3 F5000.0 ; Move to start position
G1 X0.1 Y200.0 Z0.3 F1500.0 E15 ; Draw the first line
G1 X0.4 Y200.0 Z0.3 F5000.0 ; Move to side a little
G1 X0.4 Y20 Z0.3 F1500.0 E30 ; Draw the second line
G92 E0 ; Reset Extruder
G1 Z2.0 F3000 ; Move Z Axis up little to prevent scratching of Heat Bed
G1 X5 Y20 Z0.3 F5000.0 ; Move over to prevent blob squish
G92 E0
G92 E0
G1 F1500 E-6.5
;LAYER_COUNT:93
;LAYER:0
M107
G0 F6000 X56.802 Y84.318 Z0.2
G0 X51.755 Y94.246
;TYPE:SKIRT
G1 F1500 E0
G1 F1200 X51.765 Y93.582 E0.02209
G1 X51.819 Y92.646 E0.05327
G1 X51.953 Y91.718 E0.08446
G1 X52.165 Y90.804 E0.11566
G1 X52.455 Y89.912 E0.14686
G1 X52.961 Y88.759 E0.18874
G1 X53.103 Y88.48 E0.19915
G1 X53.563 Y87.663 E0.23034
G1 X54.092 Y86.888 E0.26154
G1 X54.685 Y86.161 E0.29275
G1 X55.337 Y85.487 E0.32394
G1 X56.044 Y84.871 E0.35513
G1 X56.802 Y84.318 E0.38633
G1 X57.603 Y83.831 E0.41751
G1 X58.444 Y83.415 E0.44872
G1 X59.098 Y83.149 E0.4722
G1 X61.265 Y82.349 E0.54903
G1 X63.6 Y81.42 E0.63262
G1 X65.933 Y80.413 E0.71713
G1 X67.75 Y79.575 E0.78368
G1 X68.39 Y79.271 E0.80725
G1 X69.254 Y78.905 E0.83846
G1 X70.146 Y78.614 E0.86966
G1 X71.059 Y78.401 E0.90085
G1 X71.987 Y78.265 E0.93204
G1 X72.885 Y78.21 E0.96196
G1 X73.922 Y78.189 E0.99646
G1 X80.651 Y78.188 E1.22027
G1 X81.361 Y78.199 E1.24389
G1 X82.273 Y78.251 E1.27427
G1 X83.363 Y78.359 E1.3107
G1 X85.942 Y78.577 E1.39678
G1 X88.464 Y78.719 E1.4808
G1 X90.988 Y78.79 E1.56478
G1 X93.511 Y78.79 E1.6487
G1 X96.007 Y78.718 E1.73175
G1 X98.488 Y78.578 E1.8144
G1 X102.063 Y78.254 E1.93379
G1 X102.833 Y78.211 E1.95944
G1 X103.924 Y78.189 E1.99573
G1 X109.413 Y78.187 E2.1783
G1 X112.021 Y78.15 E2.26505
G1 X114.543 Y78.043 E2.34901
G1 X117.038 Y77.866 E2.4322
G1 X119.536 Y77.618 E2.51569
G1 X122.025 Y77.3 E2.59915
G1 X124.534 Y76.906 E2.68362
G1 X127.002 Y76.447 E2.76712
G1 X130.273 Y75.732 E2.87848
G1 X131.197 Y75.571 E2.90967
G1 X132.401 Y75.48 E2.94983
G1 X133.62 Y75.458 E2.99038
G1 X140.12 Y75.461 E3.20658
G1 X140.797 Y75.471 E3.2291
G1 X141.723 Y75.524 E3.25994
G1 X142.723 Y75.623 E3.29337
G1 X145.288 Y75.842 E3.37899
G1 X147.806 Y75.984 E3.46287
G1 X150.301 Y76.056 E3.54589
G1 X152.823 Y76.056 E3.62977
G1 X155.373 Y75.985 E3.71462
G1 X157.832 Y75.845 E3.79654
G1 X161.368 Y75.526 E3.91462
G1 X162.15 Y75.483 E3.94067
G1 X163.514 Y75.459 E3.98605
G1 X169.966 Y75.455 E4.20064
G1 X170.792 Y75.465 E4.22812
G1 X171.728 Y75.518 E4.2593
G1 X172.656 Y75.65 E4.29047
G1 X173.57 Y75.86 E4.32166
G1 X174.463 Y76.148 E4.35287
G1 X175.203 Y76.449 E4.37944
G1 X176.05 Y76.852 E4.41064
G1 X176.859 Y77.326 E4.44183
G1 X177.625 Y77.867 E4.47302
G1 X178.343 Y78.471 E4.50422
G1 X179.022 Y79.144 E4.53602
G1 X179.695 Y79.931 E4.57046
G1 X180.242 Y80.692 E4.60163
G1 X180.722 Y81.498 E4.63284
G1 X181.037 Y82.122 E4.65608
G1 X181.409 Y82.983 E4.68728
G1 X181.707 Y83.872 E4.71846
G1 X181.914 Y84.713 E4.74727
G1 X181.999 Y85.128 E4.76136
G1 X182.148 Y86.054 E4.79256
G1 X182.218 Y86.989 E4.82374
G1 X182.213 Y87.8 E4.85072
G1 X182.086 Y90.802 E4.95065
G1 X182.053 Y93.253 E5.03218
G1 X182.052 Y115.314 E5.76593
G1 X182.089 Y117.946 E5.85348
G1 X182.172 Y120.017 E5.92242
G1 X182.207 Y120.695 E5.945
G1 X182.216 Y121.633 E5.9762
G1 X182.173 Y122.303 E5.99853
G1 X182.14 Y122.652 E6.01019
G1 X182.012 Y123.582 E6.04141
G1 X181.805 Y124.496 E6.07258
G1 X181.522 Y125.39 E6.10377
G1 X181.239 Y126.088 E6.12882
G1 X181.11 Y126.378 E6.13938
G1 X180.693 Y127.218 E6.17057
G1 X180.206 Y128.019 E6.20175
G1 X179.652 Y128.776 E6.23295
G1 X179.252 Y129.249 E6.25355
G1 X179.062 Y129.461 E6.26302
G1 X178.406 Y130.132 E6.29423
G1 X177.697 Y130.744 E6.32538
G1 X176.937 Y131.295 E6.3566
G1 X176.133 Y131.778 E6.3878
G1 X175.291 Y132.191 E6.41899
G1 X174.417 Y132.531 E6.45018
G1 X173.492 Y132.802 E6.48224
G1 X173.215 Y132.87 E6.49173
G1 X172.296 Y133.054 E6.5229
G1 X171.364 Y133.16 E6.5541
G1 X170.764 Y133.186 E6.57408
G1 X169.943 Y133.197 E6.60138
G1 X163.12 Y133.192 E6.82832
G1 X162.457 Y133.182 E6.85037
G1 X161.53 Y133.129 E6.88125
G1 X160.545 Y133.031 E6.91418
G1 X157.993 Y132.812 E6.99937
G1 X155.457 Y132.667 E7.08386
G1 X152.979 Y132.596 E7.16631
G1 X150.456 Y132.594 E7.25022
G1 X147.926 Y132.665 E7.3344
G1 X145.407 Y132.806 E7.41832
G1 X142.562 Y133.051 E7.51329
G1 X141.854 Y133.123 E7.53696
G1 X140.917 Y133.178 E7.56818
G1 X140.152 Y133.19 E7.59363
G1 X133.264 Y133.193 E7.82272
G1 X132.468 Y133.183 E7.8492
G1 X131.531 Y133.13 E7.88042
G1 X130.593 Y132.995 E7.91194
G1 X129.994 Y132.875 E7.93225
G1 X128.463 Y132.53 E7.98445
G1 X125.931 Y132.01 E8.07042
G1 X123.444 Y131.572 E8.15442
G1 X120.978 Y131.21 E8.23731
G1 X118.46 Y130.912 E8.32165
G1 X115.936 Y130.685 E8.40593
G1 X113.454 Y130.533 E8.48864
G1 X110.922 Y130.45 E8.5729
G1 X109.193 Y130.434 E8.63041
G1 X103.696 Y130.431 E8.81324
G1 X103.02 Y130.421 E8.83573
G1 X102.087 Y130.367 E8.86681
G1 X101.104 Y130.269 E8.89967
G1 X98.505 Y130.046 E8.98643
G1 X95.969 Y129.901 E9.07091
G1 X93.491 Y129.83 E9.15337
G1 X90.967 Y129.828 E9.23732
G1 X88.437 Y129.899 E9.3215
G1 X85.918 Y130.04 E9.40541
G1 X83.377 Y130.254 E9.49022
G1 X82.324 Y130.363 E9.52543
G1 X81.517 Y130.416 E9.55233
G1 X80.891 Y130.43 E9.57316
G1 X73.682 Y130.431 E9.81293
G1 X72.958 Y130.42 E9.83701
G1 X72.022 Y130.366 E9.8682
G1 X71.093 Y130.232 E9.89941
G1 X70.18 Y130.019 E9.9306
G1 X69.288 Y129.73 E9.96178
G1 X68.544 Y129.422 E9.98857
G1 X67.775 Y129.069 E10.01671
G1 X66.451 Y128.442 E10.06543
G1 X64.12 Y127.419 E10.1501
G1 X61.803 Y126.479 E10.23326
G1 X59.07 Y125.461 E10.33027
G1 X58.206 Y125.097 E10.36145
G1 X57.376 Y124.66 E10.39265
G1 X56.586 Y124.154 E10.42385
G1 X55.842 Y123.583 E10.45504
G1 X55.15 Y122.95 E10.48624
G1 X54.514 Y122.261 E10.51742
G1 X53.939 Y121.52 E10.54862
G1 X53.226 Y120.372 E10.59357
G1 X53.081 Y120.103 E10.60373
G1 X52.672 Y119.26 E10.63489
G1 X52.336 Y118.384 E10.6661
G1 X52.075 Y117.483 E10.6973
G1 X51.893 Y116.563 E10.72849
G1 X51.789 Y115.631 E10.75968
G1 X51.765 Y115.048 E10.77909
G1 X51.754 Y114.309 E10.80367
G1 X51.755 Y94.246 E11.47097
G0 F6000 X52.155 Y94.252
G1 F1200 X52.165 Y93.588 E11.49306
G1 X52.219 Y92.669 E11.52368
G1 X52.352 Y91.758 E11.5543
G1 X52.564 Y90.862 E11.58492
G1 X52.853 Y89.988 E11.61554
G1 X53.317 Y88.94 E11.65366
G1 X53.459 Y88.661 E11.66407
G1 X53.912 Y87.859 E11.69471
G1 X54.433 Y87.1 E11.72533
G1 X55.017 Y86.389 E11.75593
G1 X55.661 Y85.731 E11.78655
G1 X56.36 Y85.132 E11.81717
G1 X57.108 Y84.595 E11.84779
G1 X57.9 Y84.125 E11.87843
G1 X58.73 Y83.726 E11.90906
G1 X59.236 Y83.525 E11.92716
G1 X61.368 Y82.738 E12.00275
G1 X63.77 Y81.782 E12.08874
G1 X66.098 Y80.778 E12.17306
G1 X67.91 Y79.941 E12.23945
G1 X68.562 Y79.632 E12.26345
G1 X69.41 Y79.274 E12.29406
G1 X70.286 Y78.991 E12.32468
G1 X71.183 Y78.784 E12.3553
G1 X72.095 Y78.657 E12.38592
G1 X72.893 Y78.61 E12.41251
G1 X74.145 Y78.587 E12.45416
G1 X80.645 Y78.588 E12.67035
G1 X81.355 Y78.599 E12.69397
G1 X82.234 Y78.649 E12.72325
G1 X83.365 Y78.761 E12.76105
G1 X85.922 Y78.978 E12.8464
G1 X88.429 Y79.119 E12.92992
G1 X90.977 Y79.19 E13.0147
G1 X93.488 Y79.19 E13.09822
G1 X96.039 Y79.117 E13.1831
G1 X98.518 Y78.976 E13.26568
G1 X102.099 Y78.652 E13.38527
G1 X102.841 Y78.611 E13.40999
G1 X104.146 Y78.587 E13.4534
G1 X109.419 Y78.587 E13.62878
G1 X112.044 Y78.55 E13.7161
G1 X114.552 Y78.443 E13.79959
G1 X117.069 Y78.265 E13.88352
G1 X119.593 Y78.015 E13.96788
G1 X122.101 Y77.694 E14.05197
G1 X124.563 Y77.307 E14.13486
G1 X127.094 Y76.836 E14.22049
G1 X130.358 Y76.123 E14.33161
G1 X131.266 Y75.965 E14.36227
G1 X132.409 Y75.88 E14.40039
G1 X133.62 Y75.858 E14.44067
G1 X140.115 Y75.861 E14.6567
G1 X140.792 Y75.871 E14.67922
G1 X141.684 Y75.922 E14.70893
G1 X142.648 Y76.018 E14.74115
G1 X145.27 Y76.241 E14.82868
G1 X147.771 Y76.383 E14.91199
G1 X150.324 Y76.456 E14.99694
G1 X152.834 Y76.456 E15.08042
G1 X155.373 Y76.385 E15.16491
G1 X157.86 Y76.244 E15.24776
G1 X161.404 Y75.924 E15.36611
G1 X162.158 Y75.883 E15.39122
G1 X163.514 Y75.859 E15.43633
G1 X169.966 Y75.855 E15.65093
G1 X170.786 Y75.865 E15.6782
G1 X171.705 Y75.917 E15.70882
G1 X172.616 Y76.049 E15.73943
G1 X173.513 Y76.26 E15.77008
G1 X174.788 Y76.707 E15.81502
G1 X175.047 Y76.817 E15.82438
G1 X175.878 Y77.214 E15.85501
G1 X176.671 Y77.681 E15.88562
G1 X177.421 Y78.215 E15.91624
G1 X178.122 Y78.812 E15.94687
G1 X178.732 Y79.421 E15.97553
G1 X179.391 Y80.191 E16.00924
G1 X179.926 Y80.94 E16.03986
G1 X180.626 Y82.179 E16.08719
G1 X181.042 Y83.142 E16.12208
G1 X181.332 Y84.015 E16.15268
G1 X181.522 Y84.793 E16.17931
G1 X181.607 Y85.208 E16.1934
G1 X181.753 Y86.117 E16.22402
G1 X181.819 Y87.035 E16.25464
G1 X181.814 Y87.783 E16.27951
G1 X181.686 Y90.814 E16.38042
G1 X181.653 Y93.247 E16.46134
G1 X181.652 Y115.32 E17.1955
G1 X181.689 Y117.929 E17.28228
G1 X181.773 Y120.054 E17.35301
G1 X181.808 Y120.716 E17.37506
G1 X181.816 Y121.637 E17.4057
G1 X181.775 Y122.266 E17.42666
G1 X181.742 Y122.615 E17.43832
G1 X181.616 Y123.527 E17.46894
G1 X181.41 Y124.424 E17.49955
G1 X181.128 Y125.301 E17.53019
G1 X180.874 Y125.925 E17.5526
G1 X180.745 Y126.215 E17.56316
G1 X180.335 Y127.039 E17.59377
G1 X179.854 Y127.825 E17.62442
G1 X179.308 Y128.566 E17.65503
G1 X178.764 Y129.194 E17.68267
G1 X178.12 Y129.852 E17.71329
G1 X177.422 Y130.452 E17.7439
G1 X176.674 Y130.989 E17.77453
G1 X175.882 Y131.459 E17.80516
G1 X175.053 Y131.859 E17.83577
G1 X174.192 Y132.185 E17.8664
G1 X173.397 Y132.413 E17.8939
G1 X173.12 Y132.481 E17.90339
G1 X172.217 Y132.662 E17.93402
G1 X171.302 Y132.763 E17.96464
G1 X170.758 Y132.786 E17.98275
G1 X169.944 Y132.797 E18.00982
G1 X163.126 Y132.792 E18.23659
G1 X162.463 Y132.782 E18.25865
G1 X161.569 Y132.73 E18.28843
G1 X160.614 Y132.635 E18.32035
G1 X158.049 Y132.415 E18.40598
G1 X155.492 Y132.269 E18.49116
G1 X152.955 Y132.196 E18.57558
G1 X150.445 Y132.194 E18.65906
G1 X147.891 Y132.265 E18.74404
G1 X145.419 Y132.404 E18.82639
G1 X142.488 Y132.657 E18.92424
G1 X141.814 Y132.725 E18.94677
G1 X140.91 Y132.778 E18.97689
G1 X140.145 Y132.79 E19.00233
G1 X133.264 Y132.793 E19.2312
G1 X132.473 Y132.783 E19.25751
G1 X131.554 Y132.73 E19.28812
G1 X130.667 Y132.602 E19.31793
G1 X130.082 Y132.485 E19.33777
G1 X128.533 Y132.136 E19.39059
G1 X126.009 Y131.618 E19.47628
G1 X123.534 Y131.182 E19.55987
G1 X121.011 Y130.811 E19.64469
G1 X118.506 Y130.515 E19.72858
G1 X115.961 Y130.286 E19.81357
G1 X113.458 Y130.133 E19.89698
G1 X110.939 Y130.05 E19.98081
G1 X109.197 Y130.034 E20.03875
G1 X103.702 Y130.031 E20.22151
G1 X103.026 Y130.021 E20.244
G1 X102.127 Y129.969 E20.27395
G1 X101.111 Y129.867 E20.30791
G1 X98.561 Y129.649 E20.39303
G1 X96.004 Y129.503 E20.47822
G1 X93.467 Y129.43 E20.56264
G1 X90.956 Y129.428 E20.64615
G1 X88.402 Y129.499 E20.73113
G1 X85.9 Y129.639 E20.81448
G1 X83.353 Y129.855 E20.8995
G1 X82.283 Y129.965 E20.93527
G1 X81.506 Y130.016 E20.96117
G1 X80.891 Y130.03 E20.98163
G1 X73.688 Y130.031 E21.2212
G1 X72.964 Y130.02 E21.24529
G1 X72.045 Y129.966 E21.2759
G1 X71.134 Y129.832 E21.30653
G1 X70.238 Y129.62 E21.33715
G1 X69.364 Y129.331 E21.36777
G1 X68.711 Y129.058 E21.39131
G1 X67.946 Y128.707 E21.41931
G1 X66.604 Y128.072 E21.46869
G1 X64.324 Y127.071 E21.55151
G1 X61.926 Y126.098 E21.63758
G1 X59.209 Y125.086 E21.73401
G1 X58.361 Y124.728 E21.76463
G1 X57.548 Y124.297 E21.79523
G1 X56.775 Y123.798 E21.82583
G1 X56.048 Y123.233 E21.85646
G1 X55.372 Y122.607 E21.8871
G1 X54.754 Y121.925 E21.91771
G1 X54.197 Y121.192 E21.94833
G1 X53.578 Y120.183 E21.9877
G1 X53.433 Y119.914 E21.99787
G1 X53.032 Y119.085 E22.0285
G1 X52.704 Y118.225 E22.05911
G1 X52.452 Y117.339 E22.08975
G1 X52.278 Y116.435 E22.12037
G1 X52.183 Y115.519 E22.151
G1 X52.165 Y115.042 E22.16687
G1 X52.154 Y114.303 E22.19146
G1 X52.155 Y94.252 E22.85835
G0 F6000 X52.555 Y94.258
G1 F1200 X52.565 Y93.594 E22.88044
G1 X52.619 Y92.693 E22.91046
G1 X52.752 Y91.8 E22.94049
G1 X52.963 Y90.922 E22.97053
G1 X53.252 Y90.066 E23.00057
G1 X53.674 Y89.121 E23.035
G1 X53.816 Y88.842 E23.04541
G1 X54.261 Y88.056 E23.07545
G1 X54.773 Y87.313 E23.10546
G1 X55.35 Y86.618 E23.13551
G1 X55.985 Y85.976 E23.16554
G1 X56.675 Y85.393 E23.19558
G1 X57.414 Y84.874 E23.22562
G1 X58.196 Y84.422 E23.25566
G1 X59.375 Y83.9 E23.29855
G1 X61.527 Y83.106 E23.37484
G1 X63.927 Y82.15 E23.46076
G1 X66.227 Y81.158 E23.54407
G1 X68.141 Y80.275 E23.61418
G1 X68.734 Y79.994 E23.63601
G1 X69.566 Y79.643 E23.66604
G1 X70.426 Y79.367 E23.69608
G1 X71.307 Y79.168 E23.72612
G1 X72.202 Y79.048 E23.75616
G1 X72.901 Y79.01 E23.77944
G1 X74.145 Y78.987 E23.82082
G1 X80.639 Y78.988 E24.03681
G1 X81.349 Y78.999 E24.06043
G1 X82.195 Y79.048 E24.08862
G1 X83.216 Y79.149 E24.12274
G1 X85.902 Y79.377 E24.2124
G1 X88.432 Y79.519 E24.29668
G1 X90.966 Y79.59 E24.38099
G1 X93.499 Y79.59 E24.46524
G1 X96.039 Y79.517 E24.54976
G1 X98.575 Y79.373 E24.63424
G1 X102.135 Y79.051 E24.75313
G1 X102.849 Y79.011 E24.77691
G1 X104.146 Y78.987 E24.82006
G1 X109.425 Y78.987 E24.99564
G1 X112.031 Y78.95 E25.08233
G1 X114.599 Y78.841 E25.16781
G1 X117.101 Y78.664 E25.25124
G1 X119.613 Y78.415 E25.3352
G1 X122.176 Y78.087 E25.42114
G1 X124.661 Y77.696 E25.50481
G1 X127.132 Y77.237 E25.5884
G1 X130.444 Y76.513 E25.70116
G1 X131.334 Y76.36 E25.73119
G1 X132.417 Y76.28 E25.76731
G1 X133.62 Y76.258 E25.80733
G1 X140.109 Y76.261 E26.02316
G1 X140.786 Y76.271 E26.04568
G1 X141.644 Y76.32 E26.07426
G1 X142.642 Y76.419 E26.10762
G1 X145.213 Y76.638 E26.19344
G1 X147.774 Y76.783 E26.27875
G1 X150.312 Y76.856 E26.3632
G1 X152.845 Y76.856 E26.44745
G1 X155.373 Y76.785 E26.53156
G1 X157.889 Y76.643 E26.61538
G1 X161.44 Y76.322 E26.73397
G1 X162.165 Y76.283 E26.75812
G1 X163.515 Y76.259 E26.80303
G1 X169.967 Y76.255 E27.01762
G1 X170.781 Y76.265 E27.0447
G1 X171.682 Y76.317 E27.07471
G1 X172.576 Y76.449 E27.10477
G1 X173.454 Y76.659 E27.1348
G1 X174.631 Y77.076 E27.17633
G1 X174.89 Y77.186 E27.18569
G1 X175.705 Y77.575 E27.21572
G1 X176.482 Y78.035 E27.24576
G1 X177.216 Y78.562 E27.27581
G1 X177.9 Y79.152 E27.30585
G1 X178.444 Y79.698 E27.33149
G1 X179.086 Y80.451 E27.3644
G1 X179.609 Y81.187 E27.39443
G1 X180.267 Y82.355 E27.43902
G1 X180.674 Y83.3 E27.47324
G1 X180.957 Y84.158 E27.50329
G1 X181.131 Y84.873 E27.52777
G1 X181.216 Y85.288 E27.54186
G1 X181.357 Y86.18 E27.57189
G1 X181.42 Y87.081 E27.60193
G1 X181.414 Y87.766 E27.62472
G1 X181.286 Y90.792 E27.72545
G1 X181.253 Y93.242 E27.80695
G1 X181.252 Y115.326 E28.54146
G1 X181.289 Y117.95 E28.62875
G1 X181.374 Y120.091 E28.70001
G1 X181.408 Y120.737 E28.72153
G1 X181.415 Y121.64 E28.75156
G1 X181.377 Y122.228 E28.77116
G1 X181.344 Y122.577 E28.78282
G1 X181.219 Y123.472 E28.81288
G1 X181.016 Y124.352 E28.84291
G1 X180.735 Y125.21 E28.87294
G1 X180.509 Y125.763 E28.89281
G1 X180.38 Y126.053 E28.90337
G1 X179.976 Y126.861 E28.93342
G1 X179.503 Y127.63 E28.96344
G1 X178.964 Y128.354 E28.99346
G1 X178.466 Y128.927 E29.01871
G1 X177.834 Y129.572 E29.04875
G1 X177.147 Y130.159 E29.0788
G1 X176.412 Y130.682 E29.10881
G1 X175.632 Y131.139 E29.13887
G1 X174.816 Y131.525 E29.1689
G1 X173.969 Y131.837 E29.19892
G1 X173.302 Y132.025 E29.22197
G1 X173.025 Y132.093 E29.23146
G1 X172.139 Y132.269 E29.2615
G1 X171.241 Y132.366 E29.29154
G1 X170.752 Y132.386 E29.30782
G1 X169.944 Y132.397 E29.3347
G1 X163.132 Y132.392 E29.56126
G1 X162.469 Y132.382 E29.58332
G1 X161.609 Y132.332 E29.61197
G1 X160.689 Y132.24 E29.64272
G1 X158.035 Y132.013 E29.73132
G1 X155.526 Y131.869 E29.8149
G1 X152.967 Y131.796 E29.90005
G1 X150.434 Y131.794 E29.9843
G1 X147.894 Y131.865 E30.06881
G1 X145.363 Y132.007 E30.15313
G1 X142.473 Y132.256 E30.2496
G1 X141.773 Y132.327 E30.27301
G1 X140.904 Y132.378 E30.30196
