;FLAVOR:Marlin
;TIME:3423
;Filament used: 1.82627m
;Layer height: 0.2
;MINX:61.535
;MINY:69.501
;MINZ:0.2
;MAXX:158.465
;MAXY:150.5
;MAXZ:4
;Generated with Cura_SteamEngine main
M82 ;absolute extrusion mode
; Ender 3 Custom Start G-code
G92 E0 ; Reset Extruder
G28 ; Home all axes
M104 S175 ; Start heating up the nozzle most of the way
M190 S60 ; Start heating the bed, wait until target temperature reached
M109 S195.0 ; Finish heating the nozzle
G1 Z2.0 F3000 ; Move Z Axis up little to prevent scratching of Heat Bed
G1 X0.1 Y20 Z0.3 F5000.0 ; Move to start position
G1 X0.1 Y200.0 Z0.3 F1500.0 E15 ; Draw the first line
G1 X0.4 Y200.0 Z0.3 F5000.0 ; Move to side a little
G1 X0.4 Y20 Z0.3 F1500.0 E30 ; Draw the second line
G92 E0 ; Reset Extruder
G1 Z2.0 F3000 ; Move Z Axis up little to prevent scratching of Heat Bed
G1 X5 Y20 Z0.3 F5000.0 ; Move over to prevent blob squish
G92 E0
G92 E0
G1 F1500 E-6.5
;LAYER_COUNT:20
;LAYER:0
M107
G0 F6000 X67.854 Y72.591 Z0.2
G0 X64.117 Y80.594
;TYPE:SKIRT
G1 F1500 E0
G1 F1200 X64.222 Y79.696 E0.03007
G1 X64.28 Y79.331 E0.04236
G1 X64.467 Y78.412 E0.07356
G1 X64.731 Y77.512 E0.10475
G1 X65.071 Y76.638 E0.13594
G1 X65.3 Y76.149 E0.1539
G1 X65.477 Y75.794 E0.1671
G1 X65.931 Y74.973 E0.1983
G1 X66.453 Y74.194 E0.22949
G1 X67.04 Y73.462 E0.2607
G1 X67.207 Y73.271 E0.26913
G1 X67.854 Y72.591 E0.30035
G1 X68.556 Y71.97 E0.33153
G1 X69.309 Y71.41 E0.36274
G1 X70.107 Y70.917 E0.39394
G1 X70.943 Y70.494 E0.4251
G1 X71.813 Y70.143 E0.4563
G1 X72.71 Y69.868 E0.48751
G1 X73.627 Y69.67 E0.51871
G1 X74.557 Y69.55 E0.5499
G1 X75.089 Y69.518 E0.56762
G1 X75.736 Y69.502 E0.58915
G1 X146.506 Y69.501 E2.94297
G1 X147.208 Y69.511 E2.96632
G1 X148.144 Y69.564 E2.9975
G1 X149.072 Y69.697 E3.02868
G1 X149.986 Y69.909 E3.05989
G1 X150.879 Y70.197 E3.0911
G1 X151.743 Y70.561 E3.12228
G1 X152.574 Y70.997 E3.15349
G1 X153.364 Y71.502 E3.18468
G1 X154.108 Y72.072 E3.21585
G1 X154.801 Y72.704 E3.24704
G1 X155.364 Y73.297 E3.27424
G1 X156.023 Y74.105 E3.30892
G1 X156.552 Y74.879 E3.3401
G1 X156.987 Y75.645 E3.3694
G1 X157.16 Y75.98 E3.38194
G1 X157.554 Y76.831 E3.41313
G1 X157.875 Y77.712 E3.44432
G1 X158.119 Y78.618 E3.47553
G1 X158.231 Y79.184 E3.49472
G1 X158.3 Y79.59 E3.50841
G1 X158.417 Y80.52 E3.53959
G1 X158.45 Y81.11 E3.55924
G1 X158.465 Y81.773 E3.5813
G1 X158.464 Y138.17 E5.45707
G1 X158.454 Y138.845 E5.47952
G1 X158.4 Y139.781 E5.51071
G1 X158.205 Y141.013 E5.55219
G1 X158.151 Y141.262 E5.56067
G1 X157.913 Y142.17 E5.59189
G1 X157.599 Y143.053 E5.62306
G1 X157.299 Y143.73 E5.64769
G1 X157.107 Y144.126 E5.66233
G1 X156.662 Y144.952 E5.69353
G1 X156.149 Y145.737 E5.72472
G1 X155.57 Y146.475 E5.75592
G1 X154.975 Y147.125 E5.78523
G1 X154.217 Y147.833 E5.81973
G1 X153.48 Y148.414 E5.85094
G1 X152.697 Y148.929 E5.88211
G1 X151.872 Y149.375 E5.91331
G1 X151.012 Y149.75 E5.94451
G1 X150.123 Y150.05 E5.97572
G1 X149.213 Y150.274 E6.00689
G1 X148.286 Y150.418 E6.03809
G1 X147.226 Y150.487 E6.07342
G1 X146.471 Y150.499 E6.09853
G1 X139.445 Y150.499 E6.33222
G1 X138.896 Y150.491 E6.35048
G1 X136.164 Y150.5 E6.44135
G1 X76.005 Y150.493 E8.44224
G1 X75.313 Y150.483 E8.46526
G1 X74.377 Y150.429 E8.49645
G1 X73.448 Y150.296 E8.52766
G1 X72.535 Y150.085 E8.55883
G1 X71.642 Y149.796 E8.59004
G1 X70.778 Y149.432 E8.62123
G1 X69.948 Y148.996 E8.65241
G1 X69.157 Y148.491 E8.68362
G1 X68.413 Y147.92 E8.71482
G1 X67.72 Y147.288 E8.74601
G1 X67.175 Y146.709 E8.77246
G1 X66.575 Y145.988 E8.80366
G1 X66.04 Y145.218 E8.83484
G1 X65.54 Y144.344 E8.86833
G1 X65.36 Y143.993 E8.88145
G1 X64.9 Y142.972 E8.9187
G1 X64.233 Y141.262 E8.97975
G1 X62.872 Y138.007 E9.09709
G1 X62.567 Y137.317 E9.12218
G1 X62.225 Y136.444 E9.15337
G1 X61.916 Y135.368 E9.1906
G1 X61.854 Y135.102 E9.19969
G1 X61.68 Y134.18 E9.23089
G1 X61.596 Y133.399 E9.25702
G1 X61.574 Y133.095 E9.26716
G1 X61.547 Y132.496 E9.2871
G1 X61.535 Y131.736 E9.31238
G1 X61.535 Y99.331 E10.39018
G1 X61.551 Y98.339 E10.42317
G1 X61.607 Y97.346 E10.45625
G1 X61.819 Y95.995 E10.50174
G1 X62.526 Y92.736 E10.61265
G1 X62.985 Y90.279 E10.69579
G1 X63.381 Y87.765 E10.78043
G1 X63.703 Y85.267 E10.86421
G1 X63.953 Y82.772 E10.94761
G1 X64.117 Y80.594 E11.02025
G1 F1500 E4.52025
G0 F6000 X64.099 Y85.325
G1 F1500 E11.02025
G1 F1200 X64.352 Y82.795 E11.10482
G1 X64.516 Y80.625 E11.1772
G1 X64.617 Y79.758 E11.20623
G1 X64.675 Y79.393 E11.21852
G1 X64.859 Y78.491 E11.24914
G1 X65.121 Y77.609 E11.27974
G1 X65.458 Y76.752 E11.31037
G1 X65.835 Y75.972 E11.33919
G1 X66.281 Y75.167 E11.3698
G1 X66.795 Y74.403 E11.40042
G1 X67.341 Y73.725 E11.42938
G1 X67.508 Y73.534 E11.43781
G1 X68.144 Y72.868 E11.46844
G1 X68.835 Y72.259 E11.49908
G1 X69.576 Y71.713 E11.52969
G1 X70.361 Y71.233 E11.5603
G1 X71.186 Y70.823 E11.59094
G1 X72.043 Y70.487 E11.62155
G1 X72.925 Y70.225 E11.65216
G1 X73.828 Y70.042 E11.6828
G1 X75.104 Y69.918 E11.72544
G1 X75.736 Y69.902 E11.74647
G1 X146.349 Y69.9 E14.09506
G1 X147.202 Y69.911 E14.12344
G1 X148.121 Y69.964 E14.15405
G1 X149.032 Y70.097 E14.18468
G1 X149.928 Y70.308 E14.21529
G1 X150.803 Y70.596 E14.24593
G1 X151.649 Y70.959 E14.27655
G1 X152.46 Y71.394 E14.30716
G1 X153.231 Y71.898 E14.3378
G1 X153.955 Y72.466 E14.3684
G1 X154.627 Y73.096 E14.39904
G1 X155.131 Y73.644 E14.4238
G1 X155.712 Y74.358 E14.45442
G1 X156.23 Y75.119 E14.48504
G1 X156.631 Y75.828 E14.51213
G1 X156.804 Y76.163 E14.52467
G1 X157.191 Y76.999 E14.55531
G1 X157.503 Y77.865 E14.58592
G1 X157.74 Y78.755 E14.61656
G1 X157.836 Y79.251 E14.63336
G1 X157.905 Y79.657 E14.64706
G1 X158.02 Y80.57 E14.67766
G1 X158.05 Y81.121 E14.69602
G1 X158.065 Y81.773 E14.71771
G1 X158.064 Y138.164 E16.59328
G1 X158.054 Y138.839 E16.61573
G1 X158 Y139.758 E16.64635
G1 X157.814 Y140.929 E16.68579
G1 X157.76 Y141.178 E16.69426
G1 X157.526 Y142.068 E16.72487
G1 X157.216 Y142.935 E16.7555
G1 X156.939 Y143.555 E16.77808
G1 X156.747 Y143.951 E16.79272
G1 X156.31 Y144.762 E16.82336
G1 X155.804 Y145.531 E16.85398
G1 X155.233 Y146.253 E16.88459
G1 X154.687 Y146.847 E16.91143
G1 X153.944 Y147.541 E16.94524
G1 X153.219 Y148.109 E16.97588
G1 X152.448 Y148.611 E17.00648
G1 X151.636 Y149.045 E17.0371
G1 X150.789 Y149.407 E17.06774
G1 X149.914 Y149.694 E17.09836
G1 X149.018 Y149.904 E17.12897
G1 X148.107 Y150.035 E17.15958
G1 X147.219 Y150.087 E17.18917
G1 X146.464 Y150.099 E17.21428
G1 X139.45 Y150.099 E17.44757
G1 X138.9 Y150.091 E17.46587
G1 X136.164 Y150.1 E17.55687
G1 X76.011 Y150.093 E19.55756
G1 X75.319 Y150.083 E19.58058
G1 X74.4 Y150.03 E19.6112
G1 X73.489 Y149.897 E19.64182
G1 X72.593 Y149.685 E19.67244
G1 X71.718 Y149.397 E19.70308
G1 X70.872 Y149.034 E19.7337
G1 X70.061 Y148.599 E19.76431
G1 X69.29 Y148.095 E19.79495
G1 X68.567 Y147.526 E19.82555
G1 X67.552 Y146.539 E19.87264
G1 X66.883 Y145.732 E19.9075
G1 X66.359 Y144.975 E19.93812
G1 X65.896 Y144.162 E19.96924
G1 X65.716 Y143.811 E19.98236
G1 X65.273 Y142.827 E20.01825
G1 X64.611 Y141.131 E20.07881
G1 X63.237 Y137.842 E20.19736
G1 X62.933 Y137.155 E20.22235
G1 X62.598 Y136.298 E20.25295
G1 X62.306 Y135.277 E20.28827
G1 X62.244 Y135.011 E20.29736
G1 X62.074 Y134.106 E20.32798
G1 X61.995 Y133.37 E20.3526
G1 X61.973 Y133.066 E20.36274
G1 X61.947 Y132.489 E20.38195
G1 X61.935 Y131.736 E20.407
G1 X61.935 Y99.331 E21.48479
G1 X61.951 Y98.346 E21.51756
G1 X62.006 Y97.385 E21.54957
G1 X62.21 Y96.08 E21.59351
G1 X62.916 Y92.822 E21.70438
G1 X63.385 Y90.314 E21.78925
G1 X63.775 Y87.842 E21.87248
G1 X64.099 Y85.325 E21.95689
G1 F1500 E15.45689
G0 F6000 X63.779 Y90.378
G1 F1500 E21.95689
G1 F1200 X64.168 Y87.913 E22.03989
G1 X64.498 Y85.349 E22.12587
G1 X64.751 Y82.825 E22.21024
G1 X64.915 Y80.655 E22.28262
G1 X65.012 Y79.821 E22.31055
G1 X65.07 Y79.456 E22.32284
G1 X65.251 Y78.571 E22.35288
G1 X65.51 Y77.706 E22.38292
G1 X66.016 Y76.506 E22.42623
G1 X66.193 Y76.151 E22.43942
G1 X66.631 Y75.361 E22.46947
G1 X67.138 Y74.613 E22.49952
G1 X67.642 Y73.988 E22.52623
G1 X67.809 Y73.797 E22.53467
G1 X68.433 Y73.144 E22.56471
G1 X69.112 Y72.549 E22.59473
G1 X69.842 Y72.016 E22.6248
G1 X70.615 Y71.55 E22.65482
G1 X71.427 Y71.154 E22.68487
G1 X72.27 Y70.832 E22.71488
G1 X73.139 Y70.585 E22.74493
G1 X74.026 Y70.416 E22.77496
G1 X75.118 Y70.318 E22.81143
G1 X75.736 Y70.302 E22.83199
G1 X146.349 Y70.3 E25.18059
G1 X147.196 Y70.311 E25.20876
G1 X148.098 Y70.364 E25.23881
G1 X148.991 Y70.496 E25.26884
G1 X149.869 Y70.707 E25.29887
G1 X150.725 Y70.995 E25.32891
G1 X151.553 Y71.357 E25.35896
G1 X152.345 Y71.791 E25.389
G1 X153.095 Y72.294 E25.41904
G1 X153.798 Y72.86 E25.44906
G1 X154.744 Y73.801 E25.49344
G1 X155.402 Y74.611 E25.52815
G1 X155.908 Y75.359 E25.55818
G1 X156.276 Y76.012 E25.58311
G1 X156.449 Y76.347 E25.59565
G1 X156.827 Y77.167 E25.62568
G1 X157.132 Y78.017 E25.65572
G1 X157.442 Y79.318 E25.7002
G1 X157.511 Y79.724 E25.7139
G1 X157.623 Y80.62 E25.74393
G1 X157.651 Y81.133 E25.76102
G1 X157.665 Y81.773 E25.78231
G1 X157.664 Y138.158 E27.65769
G1 X157.654 Y138.833 E27.68014
G1 X157.601 Y139.735 E27.71019
G1 X157.423 Y140.844 E27.74755
G1 X157.369 Y141.093 E27.75602
G1 X157.139 Y141.966 E27.78605
G1 X156.832 Y142.816 E27.81611
G1 X156.579 Y143.381 E27.8367
G1 X156.387 Y143.777 E27.85134
G1 X155.958 Y144.571 E27.88135
G1 X155.459 Y145.325 E27.91143
G1 X154.896 Y146.031 E27.94146
G1 X154.331 Y146.632 E27.96889
G1 X153.671 Y147.248 E27.99892
G1 X152.958 Y147.803 E28.02897
G1 X152.199 Y148.293 E28.05902
G1 X151.4 Y148.714 E28.08906
G1 X150.567 Y149.063 E28.1191
G1 X149.707 Y149.336 E28.14911
G1 X148.825 Y149.533 E28.17917
G1 X147.93 Y149.65 E28.20919
G1 X147.213 Y149.687 E28.23307
G1 X146.458 Y149.699 E28.25818
G1 X139.456 Y149.699 E28.49107
G1 X138.905 Y149.691 E28.5094
G1 X136.164 Y149.7 E28.60057
G1 X76.017 Y149.693 E30.60106
G1 X75.325 Y149.683 E30.62408
G1 X74.423 Y149.63 E30.65413
G1 X73.53 Y149.497 E30.68416
G1 X72.652 Y149.286 E30.7142
G1 X71.796 Y148.998 E30.74423
G1 X70.968 Y148.636 E30.77429
G1 X70.177 Y148.202 E30.8043
G1 X69.426 Y147.699 E30.83436
G1 X68.723 Y147.132 E30.8644
G1 X67.844 Y146.264 E30.90549
G1 X67.192 Y145.476 E30.93951
G1 X66.679 Y144.733 E30.96954
G1 X66.252 Y143.979 E30.99836
G1 X66.072 Y143.628 E31.01148
G1 X65.646 Y142.682 E31.04599
G1 X64.988 Y140.995 E31.10621
G1 X63.596 Y137.666 E31.22622
G1 X63.299 Y136.993 E31.25069
G1 X62.971 Y136.152 E31.28072
G1 X62.695 Y135.186 E31.31413
G1 X62.633 Y134.92 E31.32321
G1 X62.467 Y134.033 E31.35323
G1 X62.394 Y133.341 E31.37637
G1 X62.372 Y133.037 E31.38651
G1 X62.347 Y132.482 E31.40499
G1 X62.335 Y131.736 E31.4298
G1 X62.335 Y99.331 E32.5076
G1 X62.351 Y98.353 E32.54013
G1 X62.404 Y97.423 E32.57111
G1 X62.601 Y96.164 E32.6135
G1 X63.307 Y92.908 E32.72431
G1 X63.779 Y90.378 E32.80991
G1 F1500 E26.30991
;MESH:uno-mount-c.stl
G0 F6000 X79.085 Y102.574
G0 X79.016 Y102.442
;TYPE:WALL-OUTER
G1 F1500 E32.80991
G1 F1200 X78.713 Y102.614 E32.8215
G1 X78.36 Y102.697 E32.83356
G1 X77.981 Y102.667 E32.8462
G1 X77.664 Y102.544 E32.85751
G1 X77.388 Y102.321 E32.86931
G1 X77.187 Y102.03 E32.88108
G1 X77.078 Y101.685 E32.89311
G1 X77.076 Y101.318 E32.90532
G1 X77.18 Y100.978 E32.91714
G1 X77.377 Y100.69 E32.92875
G1 X77.663 Y100.456 E32.94104
G1 X78.075 Y100.296 E32.95574
G1 X78.301 Y100.31 E32.96327
G1 X78.537 Y100.33 E32.97115
G1 X78.865 Y100.455 E32.98282
G1 X79.146 Y100.682 E32.99484
G1 X79.351 Y100.985 E33.00701
G1 X79.449 Y101.302 E33.01804
G1 X79.454 Y101.672 E33.03035
G1 X79.321 Y102.112 E33.04564
G1 X79.016 Y102.442 E33.06058
G1 F1500 E26.56058
G0 F6000 X79.085 Y102.574
G0 X97.404 Y113.989
G0 X97.316 Y113.72
G1 F1500 E33.06058
G1 F1200 X97.008 Y114.047 E33.07552
G1 X96.695 Y114.224 E33.08748
G1 X96.34 Y114.302 E33.09957
G1 X95.887 Y114.259 E33.11471
G1 X95.51 Y114.038 E33.12924
G1 X95.269 Y113.774 E33.14113
G1 X95.108 Y113.434 E33.15364
G1 X95.052 Y112.992 E33.16846
G1 X95.187 Y112.565 E33.18336
G1 X95.449 Y112.191 E33.19854
G1 X95.838 Y111.976 E33.21333
G1 X96.201 Y111.898 E33.22568
G1 X96.555 Y111.932 E33.2375
G1 X96.957 Y112.102 E33.25202
G1 X97.327 Y112.495 E33.26997
G1 X97.45 Y112.915 E33.28453
G1 X97.459 Y112.972 E33.28645
G1 X97.45 Y113.295 E33.2972
G1 X97.316 Y113.72 E33.31202
G1 F1500 E26.81202
G0 F6000 X97.404 Y113.989
G0 X91.403 Y135.553
G1 F1500 E33.31202
G1 F1200 X91.3 Y135.606 E33.31587
G1 X80.606 Y135.608 E33.67155
G1 X80.122 Y135.451 E33.68848
G1 X79.75 Y135.181 E33.70377
G1 X79.424 Y134.733 E33.72219
G1 X79.322 Y134.302 E33.73693
G1 X79.32 Y132.12 E33.8095
G1 X79.402 Y131.786 E33.82094
G1 X79.633 Y131.368 E33.83682
G1 X80.086 Y130.886 E33.85882
G1 X80.306 Y130.551 E33.87215
G1 X80.47 Y130.17 E33.88595
G1 X80.562 Y129.789 E33.89899
G1 X80.587 Y129.39 E33.91228
G1 X80.545 Y128.993 E33.92556
G1 X80.434 Y128.602 E33.93908
G1 X80.258 Y128.241 E33.95244
G1 X80.025 Y127.917 E33.96571
G1 X79.735 Y127.632 E33.97923
G1 X79.406 Y127.406 E33.99251
G1 X79.041 Y127.239 E34.00586
G1 X78.647 Y127.134 E34.01942
G1 X78.035 Y127.083 E34.03985
G1 X77.58 Y126.941 E34.0557
G1 X77.206 Y126.665 E34.07116
G1 X76.939 Y126.299 E34.08623
G1 X76.844 Y126.056 E34.09491
G1 X76.782 Y125.663 E34.10814
G1 X76.782 Y105.279 E34.78611
G1 X76.848 Y104.856 E34.80035
G1 X76.954 Y104.617 E34.80905
G1 X77.218 Y104.261 E34.82379
G1 X77.584 Y103.994 E34.83886
G1 X78.034 Y103.854 E34.85453
G1 X78.648 Y103.803 E34.87503
G1 X79.041 Y103.698 E34.88855
G1 X79.406 Y103.531 E34.90191
G1 X79.735 Y103.305 E34.91518
G1 X80.025 Y103.02 E34.9287
G1 X80.258 Y102.696 E34.94198
G1 X80.436 Y102.331 E34.95548
G1 X80.545 Y101.944 E34.96886
G1 X80.588 Y101.543 E34.98227
G1 X80.562 Y101.144 E34.99557
G1 X80.47 Y100.767 E35.00848
G1 X80.305 Y100.382 E35.02241
G1 X80.086 Y100.051 E35.03561
G1 X79.633 Y99.57 E35.05759
G1 X79.402 Y99.147 E35.07362
G1 X79.32 Y98.673 E35.08961
G1 X79.322 Y85.848 E35.51618
G1 X79.388 Y85.425 E35.53042
G1 X79.494 Y85.186 E35.53911
G1 X79.738 Y84.851 E35.5529
G1 X80.192 Y84.513 E35.57172
G1 X80.617 Y84.41 E35.58627
G1 X91.317 Y84.408 E35.94215
G1 X91.426 Y84.488 E35.94665
G1 X91.463 Y84.577 E35.94985
G1 X91.461 Y135.452 E37.64196
G1 X91.403 Y135.553 E37.64583
G1 F1500 E31.14583
G0 F6000 X79.276 Y130.346
G0 X79.146 Y130.268
G1 F1500 E37.64583
G1 F1200 X78.867 Y130.494 E37.65778
G1 X78.454 Y130.654 E37.67251
G1 X78.012 Y130.623 E37.68725
G1 X77.665 Y130.495 E37.69955
G1 X77.389 Y130.272 E37.71135
G1 X77.18 Y129.973 E37.72348
G1 X77.078 Y129.635 E37.73522
G1 X77.076 Y129.267 E37.74746
G1 X77.187 Y128.92 E37.75958
G1 X77.375 Y128.643 E37.77072
G1 X77.663 Y128.406 E37.78312
G1 X78.074 Y128.246 E37.79779
G1 X78.541 Y128.28 E37.81336
G1 X78.879 Y128.416 E37.82548
G1 X79.14 Y128.626 E37.83662
G1 X79.35 Y128.927 E37.84883
G1 X79.445 Y129.241 E37.85974
G1 X79.454 Y129.278 E37.86101
G1 X79.45 Y129.648 E37.87332
G1 X79.351 Y129.965 E37.88436
G1 X79.146 Y130.268 E37.89653
G1 F1500 E31.39653
G0 F6000 X79.276 Y130.346
G0 X119.715 Y134.876
G0 X119.403 Y135.553
G1 F1500 E37.89653
G1 F1200 X119.3 Y135.606 E37.90038
G1 X101.265 Y135.608 E38.50023
G1 X101.127 Y135.553 E38.50517
G1 X101.069 Y135.452 E38.50904
G1 X101.067 Y84.577 E40.20115
G1 X101.144 Y84.448 E40.20615
G1 X101.23 Y84.41 E40.20928
G1 X119.318 Y84.408 E40.81089
G1 X119.427 Y84.49 E40.81542
G1 X119.463 Y84.577 E40.81855
G1 X119.461 Y135.453 E42.5107
G1 X119.403 Y135.553 E42.51454
G1 F1500 E36.01454
G0 F6000 X119.715 Y134.876
G0 X131.432 Y134.624
G1 F1500 E42.51454
G1 F1200 X131.199 Y134.967 E42.52833
G1 X130.915 Y135.195 E42.54045
G1 X130.492 Y135.356 E42.5555
G1 X129.954 Y135.315 E42.57345
G1 X129.486 Y135.039 E42.59152
G1 X129.231 Y134.674 E42.60633
G1 X129.126 Y134.332 E42.61823
G1 X129.129 Y133.962 E42.63053
G1 X129.23 Y133.627 E42.64217
G1 X129.491 Y133.252 E42.65737
G1 X129.886 Y133.029 E42.67245
G1 X130.223 Y132.95 E42.68397
G1 X130.595 Y132.982 E42.69638
G1 X130.999 Y133.142 E42.71084
G1 X131.308 Y133.471 E42.72585
G1 X131.465 Y133.794 E42.73779
G1 X131.466 Y134.51 E42.76161
G1 X131.454 Y134.581 E42.764
G1 X131.432 Y134.624 E42.76561
G1 F1500 E36.26561
G0 F6000 X143.47 Y132.006
G0 X143.142 Y132.26
G1 F1500 E42.76561
G1 F1200 X143.055 Y132.297 E42.76875
G1 X131.814 Y132.3 E43.14263
G1 X131.597 Y132.18 E43.15088
G1 X131.258 Y131.996 E43.16371
G1 X130.895 Y131.871 E43.17648
