;FLAVOR:Marlin
;TIME:4182
;Filament used: 2.45342m
;Layer height: 0.2
;MINX:69.001
;MINY:86.5
;MINZ:0.2
;MAXX:150.999
;MAXY:133.499
;MAXZ:10
;Generated with Cura_SteamEngine main
M82 ;absolute extrusion mode
; Ender 3 Custom Start G-code
G92 E0 ; Reset Extruder
G28 ; Home all axes
M104 S175 ; Start heating up the nozzle most of the way
M190 S60 ; Start heating the bed, wait until target temperature reached
M109 S195.0 ; Finish heating the nozzle
G1 Z2.0 F3000 ; Move Z Axis up little to prevent scratching of Heat Bed
G1 X0.1 Y20 Z0.3 F5000.0 ; Move to start position
G1 X0.1 Y200.0 Z0.3 F1500.0 E15 ; Draw the first line
G1 X0.4 Y200.0 Z0.3 F5000.0 ; Move to side a little
G1 X0.4 Y20 Z0.3 F1500.0 E30 ; Draw the second line
G92 E0 ; Reset Extruder
G1 Z2.0 F3000 ; Move Z Axis up little to prevent scratching of Heat Bed
G1 X5 Y20 Z0.3 F5000.0 ; Move over to prevent blob squish
G92 E0
G92 E0
G1 F1500 E-6.5
;LAYER_COUNT:50
;LAYER:0
M107
G0 F6000 X74.624 Y90.346 Z0.2
G0 X69.311 Y99.496
;TYPE:SKIRT
G1 F1500 E0
G1 F1200 X69.49 Y98.667 E0.02821
G1 X69.727 Y97.76 E0.05939
G1 X69.942 Y97.127 E0.08162
G1 X70.241 Y96.368 E0.10876
G1 X70.455 Y95.873 E0.12669
G1 X71.009 Y94.767 E0.16783
G1 X71.396 Y94.115 E0.19305
G1 X71.685 Y93.66 E0.21098
G1 X72.38 Y92.686 E0.25078
G1 X72.864 Y92.103 E0.27598
G1 X73.237 Y91.68 E0.29474
G1 X74.149 Y90.76 E0.33782
G1 X74.624 Y90.346 E0.35878
G1 X74.979 Y90.052 E0.37411
G1 X76.089 Y89.244 E0.41978
G1 X76.826 Y88.775 E0.44883
G1 X77.638 Y88.305 E0.48004
G1 X78.257 Y88.006 E0.5029
G1 X78.905 Y87.727 E0.52636
G1 X79.384 Y87.536 E0.54352
G1 X80.624 Y87.125 E0.58697
G1 X81.325 Y86.948 E0.61101
G1 X81.812 Y86.839 E0.62761
G1 X83.023 Y86.638 E0.66844
G1 X83.759 Y86.568 E0.69303
G1 X84.291 Y86.533 E0.71076
G1 X84.835 Y86.51 E0.72887
G1 X85.39 Y86.501 E0.74733
G1 X134.293 Y86.5 E2.37385
G1 X135.155 Y86.511 E2.40253
G1 X135.621 Y86.528 E2.41804
G1 X136.338 Y86.576 E2.44194
G1 X136.823 Y86.622 E2.45814
G1 X138.008 Y86.8 E2.498
G1 X138.759 Y86.968 E2.52359
G1 X139.263 Y87.097 E2.5409
G1 X140.431 Y87.466 E2.58164
G1 X141.155 Y87.752 E2.60753
G1 X141.628 Y87.956 E2.62466
G1 X142.735 Y88.509 E2.66582
G1 X143.364 Y88.883 E2.69016
G1 X143.826 Y89.176 E2.70835
G1 X144.818 Y89.884 E2.74889
G1 X145.374 Y90.344 E2.77289
G1 X145.78 Y90.7 E2.79085
G1 X146.659 Y91.562 E2.8318
G1 X147.154 Y92.124 E2.85671
G1 X147.448 Y92.479 E2.87204
G1 X148.257 Y93.59 E2.91775
G1 X148.724 Y94.324 E2.94668
G1 X149.193 Y95.136 E2.97787
G1 X149.482 Y95.733 E2.99993
G1 X149.786 Y96.436 E3.02541
G1 X149.973 Y96.908 E3.04229
G1 X150.366 Y98.096 E3.08391
G1 X150.538 Y98.764 E3.10685
G1 X150.655 Y99.279 E3.12442
G1 X150.864 Y100.533 E3.1667
G1 X150.937 Y101.328 E3.19325
G1 X150.975 Y101.964 E3.21445
G1 X150.995 Y102.616 E3.23614
G1 X150.999 Y116.958 E3.71316
G1 X150.989 Y117.657 E3.73641
G1 X150.958 Y118.389 E3.76078
G1 X150.889 Y119.213 E3.78828
G1 X150.675 Y120.567 E3.83387
G1 X150.485 Y121.421 E3.86297
G1 X150.243 Y122.327 E3.89416
G1 X150.043 Y122.907 E3.91457
G1 X149.74 Y123.673 E3.94197
G1 X149.53 Y124.157 E3.95951
G1 X148.987 Y125.242 E3.99987
G1 X148.624 Y125.854 E4.02353
G1 X148.333 Y126.314 E4.04164
G1 X147.627 Y127.305 E4.08211
G1 X147.13 Y127.904 E4.108
G1 X146.722 Y128.366 E4.1285
G1 X146.072 Y129.042 E4.15969
G1 X145.489 Y129.56 E4.18563
G1 X144.933 Y130.02 E4.20963
G1 X143.97 Y130.732 E4.24946
G1 X143.298 Y131.158 E4.27592
G1 X142.829 Y131.434 E4.29402
G1 X141.748 Y131.992 E4.33449
G1 X141.098 Y132.272 E4.35803
G1 X140.602 Y132.469 E4.37578
G1 X139.384 Y132.872 E4.41845
G1 X138.731 Y133.039 E4.44087
G1 X138.215 Y133.156 E4.45846
G1 X136.971 Y133.364 E4.50041
G1 X136.172 Y133.437 E4.5271
G1 X135.536 Y133.475 E4.54829
G1 X134.881 Y133.495 E4.57009
G1 X85.543 Y133.499 E6.21107
G1 X84.837 Y133.489 E6.23456
G1 X84.097 Y133.457 E6.25919
G1 X83.287 Y133.389 E6.28623
G1 X81.929 Y133.175 E6.33195
G1 X81.072 Y132.984 E6.36116
G1 X80.166 Y132.741 E6.39236
G1 X79.569 Y132.534 E6.41337
G1 X78.839 Y132.245 E6.43948
G1 X78.376 Y132.045 E6.45626
G1 X77.3 Y131.509 E6.49624
G1 X76.65 Y131.125 E6.52135
G1 X76.188 Y130.833 E6.53953
G1 X75.182 Y130.116 E6.58062
G1 X74.623 Y129.653 E6.60476
G1 X74.215 Y129.295 E6.62281
G1 X73.313 Y128.407 E6.66491
G1 X72.856 Y127.887 E6.68794
G1 X72.562 Y127.533 E6.70324
G1 X71.744 Y126.411 E6.74943
G1 X71.275 Y125.674 E6.77848
G1 X70.805 Y124.862 E6.80969
G1 X70.506 Y124.243 E6.83255
G1 X70.216 Y123.566 E6.85705
G1 X70.025 Y123.083 E6.87432
G1 X69.636 Y121.912 E6.91536
G1 X69.454 Y121.203 E6.93971
G1 X69.345 Y120.722 E6.95611
G1 X69.135 Y119.461 E6.99863
G1 X69.068 Y118.741 E7.02268
G1 X69.033 Y118.208 E7.04045
G1 X69.01 Y117.654 E7.05889
G1 X69.001 Y117.062 E7.07858
G1 X69.001 Y103.051 E7.54459
G1 X69.011 Y102.344 E7.56811
G1 X69.028 Y101.876 E7.58368
G1 X69.075 Y101.172 E7.60715
G1 X69.111 Y100.789 E7.61994
G1 X69.311 Y99.496 E7.66346
G1 F1500 E1.16346
G0 F6000 X69.401 Y103.057
G1 F1500 E7.66346
G1 F1200 X69.411 Y102.35 E7.68698
G1 X69.444 Y101.599 E7.71198
G1 X69.51 Y100.826 E7.73778
G1 X69.702 Y99.581 E7.77968
G1 X69.881 Y98.752 E7.80789
G1 X70.114 Y97.861 E7.83852
G1 X70.317 Y97.267 E7.8594
G1 X70.608 Y96.527 E7.88585
G1 X70.822 Y96.032 E7.90378
G1 X71.356 Y94.966 E7.94344
G1 X71.733 Y94.33 E7.96803
G1 X72.022 Y93.875 E7.98596
G1 X72.693 Y92.936 E8.02434
G1 X73.164 Y92.367 E8.04891
G1 X73.537 Y91.944 E8.06767
G1 X74.416 Y91.058 E8.10918
G1 X74.879 Y90.654 E8.12962
G1 X75.234 Y90.36 E8.14495
G1 X76.304 Y89.581 E8.18897
G1 X77.041 Y89.112 E8.21802
G1 X77.839 Y88.652 E8.24866
G1 X78.42 Y88.372 E8.27011
G1 X79.053 Y88.099 E8.29304
G1 X79.532 Y87.908 E8.31019
G1 X80.727 Y87.512 E8.35206
G1 X81.413 Y87.338 E8.3756
G1 X81.9 Y87.229 E8.3922
G1 X83.066 Y87.035 E8.43151
G1 X83.785 Y86.967 E8.45553
G1 X84.317 Y86.932 E8.47327
G1 X84.841 Y86.91 E8.49071
G1 X85.396 Y86.901 E8.50917
G1 X134.293 Y86.9 E10.13549
G1 X135.149 Y86.911 E10.16397
G1 X135.599 Y86.927 E10.17894
G1 X136.3 Y86.974 E10.20231
G1 X136.785 Y87.02 E10.21851
G1 X137.927 Y87.192 E10.25692
G1 X138.659 Y87.355 E10.28187
G1 X139.163 Y87.484 E10.29917
G1 X140.29 Y87.84 E10.33848
G1 X140.997 Y88.12 E10.36377
G1 X141.47 Y88.324 E10.38091
G1 X142.536 Y88.856 E10.42053
G1 X143.15 Y89.22 E10.44427
G1 X143.612 Y89.513 E10.46247
G1 X144.568 Y90.196 E10.50155
G1 X145.11 Y90.645 E10.52495
G1 X145.516 Y91.001 E10.54291
G1 X146.363 Y91.831 E10.58236
G1 X146.846 Y92.379 E10.60665
G1 X147.14 Y92.734 E10.62198
G1 X147.919 Y93.805 E10.66603
G1 X148.386 Y94.539 E10.69497
G1 X148.846 Y95.336 E10.72557
G1 X149.117 Y95.896 E10.74626
G1 X149.414 Y96.584 E10.77119
G1 X149.601 Y97.056 E10.78807
G1 X149.98 Y98.2 E10.82816
G1 X150.148 Y98.853 E10.85058
G1 X150.265 Y99.368 E10.86815
G1 X150.466 Y100.576 E10.90888
G1 X150.538 Y101.352 E10.9348
G1 X150.576 Y101.988 E10.95599
G1 X150.595 Y102.616 E10.97689
G1 X150.599 Y116.953 E11.45374
G1 X150.589 Y117.652 E11.47699
G1 X150.559 Y118.367 E11.50079
G1 X150.491 Y119.175 E11.52776
G1 X150.285 Y120.48 E11.5717
G1 X150.095 Y121.334 E11.6008
G1 X149.856 Y122.223 E11.63142
G1 X149.668 Y122.766 E11.65053
G1 X149.373 Y123.514 E11.67728
G1 X149.163 Y123.998 E11.69482
G1 X148.639 Y125.043 E11.73371
G1 X148.286 Y125.64 E11.75677
G1 X147.995 Y126.1 E11.77488
G1 X147.314 Y127.055 E11.81389
G1 X146.83 Y127.64 E11.83914
G1 X146.422 Y128.102 E11.85964
G1 X145.783 Y128.765 E11.89027
G1 X145.234 Y129.252 E11.91468
G1 X144.678 Y129.712 E11.93868
G1 X143.75 Y130.398 E11.97706
G1 X143.095 Y130.814 E12.00287
G1 X142.626 Y131.09 E12.02097
G1 X141.585 Y131.627 E12.05993
G1 X140.951 Y131.9 E12.08289
G1 X140.455 Y132.097 E12.10064
G1 X139.281 Y132.486 E12.14177
G1 X138.643 Y132.649 E12.16368
G1 X138.127 Y132.766 E12.18127
G1 X136.928 Y132.966 E12.2217
G1 X136.148 Y133.038 E12.24776
G1 X135.512 Y133.076 E12.26895
G1 X134.881 Y133.095 E12.28994
G1 X85.7 Y133.1 E13.92571
G1 X84.843 Y133.089 E13.95422
G1 X84.409 Y133.074 E13.96866
G1 X83.706 Y133.027 E13.99209
G1 X83.325 Y132.991 E14.00482
G1 X82.016 Y132.784 E14.0489
G1 X81.159 Y132.593 E14.07811
G1 X80.27 Y132.354 E14.10872
G1 X79.71 Y132.16 E14.12843
G1 X78.998 Y131.878 E14.15391
G1 X78.535 Y131.678 E14.17068
G1 X77.498 Y131.161 E14.20922
G1 X76.864 Y130.787 E14.2337
G1 X76.402 Y130.495 E14.25188
G1 X75.432 Y129.804 E14.29149
G1 X74.887 Y129.353 E14.31502
G1 X74.479 Y128.995 E14.33307
G1 X73.61 Y128.139 E14.37364
G1 X73.164 Y127.631 E14.39613
G1 X72.87 Y127.277 E14.41143
G1 X72.081 Y126.196 E14.45595
G1 X71.612 Y125.459 E14.485
G1 X71.152 Y124.661 E14.51564
G1 X70.872 Y124.08 E14.53709
G1 X70.588 Y123.419 E14.56102
G1 X70.397 Y122.936 E14.57829
G1 X70.022 Y121.808 E14.61783
G1 X69.844 Y121.115 E14.64163
G1 X69.735 Y120.634 E14.65803
G1 X69.533 Y119.419 E14.69899
G1 X69.467 Y118.715 E14.72251
G1 X69.432 Y118.182 E14.74028
G1 X69.41 Y117.648 E14.75805
G1 X69.401 Y117.056 E14.77775
G1 X69.401 Y103.057 E15.24336
G0 F6000 X69.801 Y103.063
G1 F1200 X69.811 Y102.356 E15.26687
G1 X69.843 Y101.622 E15.29131
G1 X69.908 Y100.863 E15.31665
G1 X70.093 Y99.665 E15.35696
G1 X70.272 Y98.836 E15.38517
G1 X70.501 Y97.963 E15.41519
G1 X70.691 Y97.408 E15.4347
G1 X70.975 Y96.685 E15.46054
G1 X71.189 Y96.19 E15.47847
G1 X71.703 Y95.165 E15.51661
G1 X72.071 Y94.544 E15.54062
G1 X72.36 Y94.089 E15.55855
G1 X73.005 Y93.186 E15.59546
G1 X73.464 Y92.632 E15.61939
G1 X73.837 Y92.209 E15.63814
G1 X74.683 Y91.356 E15.6781
G1 X75.134 Y90.962 E15.69802
G1 X75.489 Y90.668 E15.71335
G1 X76.519 Y89.919 E15.75571
G1 X77.256 Y89.45 E15.78476
G1 X78.039 Y88.999 E15.81482
G1 X78.582 Y88.737 E15.83487
G1 X79.201 Y88.47 E15.85729
G1 X79.68 Y88.279 E15.87444
G1 X80.83 Y87.898 E15.91474
G1 X81.5 Y87.728 E15.93773
G1 X81.987 Y87.619 E15.95433
G1 X83.11 Y87.433 E15.99219
G1 X83.811 Y87.366 E16.01561
G1 X84.343 Y87.331 E16.03334
G1 X84.848 Y87.31 E16.05015
G1 X85.403 Y87.301 E16.06861
G1 X134.293 Y87.3 E17.6947
G1 X135.143 Y87.311 E17.72297
G1 X135.576 Y87.326 E17.73738
G1 X136.262 Y87.373 E17.76025
G1 X136.747 Y87.419 E17.77646
G1 X137.847 Y87.584 E17.81345
G1 X138.56 Y87.743 E17.83775
G1 X139.064 Y87.872 E17.85505
G1 X140.148 Y88.214 E17.89286
G1 X140.838 Y88.487 E17.91754
G1 X141.311 Y88.691 E17.93467
G1 X142.337 Y89.204 E17.97283
G1 X142.936 Y89.558 E17.99597
G1 X143.398 Y89.851 E18.01416
G1 X144.317 Y90.508 E18.05174
G1 X144.847 Y90.946 E18.07461
G1 X145.253 Y91.302 E18.09257
G1 X146.067 Y92.101 E18.1305
G1 X146.538 Y92.634 E18.15416
G1 X146.832 Y92.989 E18.16949
G1 X147.582 Y94.02 E18.2119
G1 X148.049 Y94.754 E18.24083
G1 X148.499 Y95.536 E18.27084
G1 X148.752 Y96.06 E18.29019
G1 X149.042 Y96.731 E18.31451
G1 X149.229 Y97.203 E18.33139
G1 X149.594 Y98.304 E18.36997
G1 X149.758 Y98.941 E18.39185
G1 X149.875 Y99.456 E18.40941
G1 X150.069 Y100.619 E18.44863
G1 X150.139 Y101.376 E18.47391
G1 X150.177 Y102.012 E18.49511
G1 X150.195 Y102.616 E18.5152
G1 X150.2 Y116.797 E18.98687
G1 X150.189 Y117.646 E19.01511
G1 X150.159 Y118.346 E19.03841
G1 X150.093 Y119.138 E19.06484
G1 X149.895 Y120.393 E19.1071
G1 X149.705 Y121.247 E19.1362
G1 X149.47 Y122.119 E19.16624
G1 X149.294 Y122.625 E19.18406
G1 X149.006 Y123.355 E19.21016
G1 X148.796 Y123.839 E19.2277
G1 X148.292 Y124.845 E19.26513
G1 X147.948 Y125.426 E19.28759
G1 X147.657 Y125.886 E19.30569
G1 X147.002 Y126.805 E19.34322
G1 X146.53 Y127.375 E19.36784
G1 X146.122 Y127.837 E19.38834
G1 X145.495 Y128.487 E19.41838
G1 X144.979 Y128.944 E19.4413
G1 X144.423 Y129.404 E19.4653
G1 X143.53 Y130.064 E19.50224
G1 X142.892 Y130.469 E19.52737
G1 X142.423 Y130.745 E19.54547
G1 X141.421 Y131.262 E19.58297
G1 X140.803 Y131.529 E19.60536
G1 X140.307 Y131.726 E19.62311
G1 X139.178 Y132.1 E19.66267
G1 X138.555 Y132.258 E19.68405
G1 X138.039 Y132.375 E19.70165
G1 X136.884 Y132.568 E19.74059
G1 X136.124 Y132.639 E19.76598
G1 X135.488 Y132.677 E19.78717
G1 X134.881 Y132.695 E19.80737
G1 X85.7 Y132.7 E21.44314
G1 X84.849 Y132.689 E21.47145
G1 X84.431 Y132.675 E21.48536
G1 X83.743 Y132.629 E21.50829
G1 X83.362 Y132.593 E21.52102
G1 X82.103 Y132.394 E21.56341
G1 X81.246 Y132.203 E21.59262
G1 X80.374 Y131.967 E21.62266
G1 X79.852 Y131.786 E21.64104
G1 X79.156 Y131.511 E21.66593
G1 X78.693 Y131.311 E21.6827
G1 X77.695 Y130.813 E21.7198
G1 X77.077 Y130.449 E21.74366
G1 X76.615 Y130.157 E21.76183
G1 X75.683 Y129.492 E21.79991
G1 X75.151 Y129.052 E21.82288
G1 X74.743 Y128.694 E21.84093
G1 X73.906 Y127.87 E21.87999
G1 X73.471 Y127.376 E21.90189
G1 X73.177 Y127.022 E21.91719
G1 X72.419 Y125.981 E21.96002
G1 X71.95 Y125.244 E21.98908
G1 X71.499 Y124.461 E22.01913
G1 X71.237 Y123.918 E22.03918
G1 X70.96 Y123.272 E22.06256
G1 X70.769 Y122.789 E22.07984
G1 X70.408 Y121.703 E22.1179
G1 X70.234 Y121.026 E22.14115
G1 X70.125 Y120.545 E22.15755
G1 X69.931 Y119.376 E22.19697
G1 X69.866 Y118.688 E22.21995
G1 X69.831 Y118.155 E22.23772
G1 X69.81 Y117.642 E22.25479
G1 X69.801 Y117.05 E22.27449
G1 X69.801 Y103.063 E22.7397
G1 F1500 E16.2397
;MESH:y back.stl
G0 F6000 X83.673 Y105.866
G0 X91.717 Y109.361
;TYPE:WALL-INNER
G1 F1500 E22.7397
G1 F1200 X91.105 Y109.854 E22.76583
G1 X90.421 Y110.237 E22.79191
G1 X89.676 Y110.502 E22.81821
G1 X88.895 Y110.635 E22.84456
G1 X88.115 Y110.635 E22.8705
G1 X87.331 Y110.504 E22.89694
G1 X86.587 Y110.241 E22.92318
G1 X85.893 Y109.853 E22.94963
G1 X85.282 Y109.361 E22.97572
G1 X84.761 Y108.768 E23.00197
G1 X84.348 Y108.1 E23.0281
G1 X84.049 Y107.352 E23.05489
G1 X83.891 Y106.615 E23.07996
G1 X83.852 Y105.799 E23.10713
G1 X83.951 Y105.02 E23.13325
G1 X84.181 Y104.271 E23.15931
G1 X84.539 Y103.56 E23.18578
G1 X85.006 Y102.929 E23.21189
G1 X85.562 Y102.394 E23.23756
G1 X86.235 Y101.935 E23.26465
G1 X86.949 Y101.614 E23.29069
G1 X87.71 Y101.416 E23.31684
G1 X88.5 Y101.347 E23.34322
G1 X89.292 Y101.415 E23.36966
G1 X90.049 Y101.613 E23.39568
G1 X90.76 Y101.933 E23.42161
G1 X91.417 Y102.375 E23.44795
G1 X91.994 Y102.928 E23.47453
G1 X92.459 Y103.556 E23.50052
G1 X92.817 Y104.267 E23.527
G1 X92.99 Y104.829 E23.54656
G1 X93.052 Y105.047 E23.5541
G1 X93.146 Y105.803 E23.57943
G1 X93.11 Y106.606 E23.60617
G1 X92.951 Y107.35 E23.63147
G1 X92.652 Y108.099 E23.6583
G1 X92.241 Y108.767 E23.68438
G1 X91.717 Y109.361 E23.71073
G0 F6000 X91.452 Y109.058
;TYPE:WALL-OUTER
G1 F1200 X90.865 Y109.53 E23.73578
G1 X90.238 Y109.878 E23.75963
G1 X89.557 Y110.117 E23.78364
G1 X88.875 Y110.233 E23.80664
G1 X88.133 Y110.233 E23.83132
G1 X87.414 Y110.109 E23.85559
G1 X86.736 Y109.866 E23.87955
G1 X86.107 Y109.511 E23.90357
G1 X85.548 Y109.058 E23.9275
G1 X85.092 Y108.54 E23.95045
G1 X84.715 Y107.932 E23.97425
G1 X84.439 Y107.248 E23.99878
G1 X84.285 Y106.546 E24.02268
G1 X84.255 Y105.805 E24.04735
G1 X84.349 Y105.087 E24.07143
G1 X84.548 Y104.439 E24.09398
G1 X84.874 Y103.783 E24.11834
G1 X85.299 Y103.205 E24.14221
G1 X85.825 Y102.696 E24.16655
G1 X86.441 Y102.281 E24.19125
G1 X87.068 Y101.999 E24.21412
G1 X87.779 Y101.81 E24.23859
G1 X88.517 Y101.75 E24.26322
G1 X89.203 Y101.808 E24.28611
G1 X89.931 Y101.999 E24.31115
G1 X90.552 Y102.278 E24.33379
G1 X91.177 Y102.698 E24.35884
G1 X91.699 Y103.203 E24.38299
G1 X92.126 Y103.784 E24.40697
G1 X92.45 Y104.433 E24.4311
G1 X92.608 Y104.947 E24.44899
G1 X92.654 Y105.099 E24.45427
G1 X92.745 Y105.805 E24.47794
G1 X92.715 Y106.543 E24.50251
G1 X92.571 Y107.217 E24.52543
G1 X92.3 Y107.903 E24.54997
G1 X91.908 Y108.54 E24.57484
G1 X91.452 Y109.058 E24.5978
G1 F1500 E18.0978
G0 F6000 X92.016 Y109.173
G0 X92.473 Y108.733
G0 X98.221 Y110.453
G0 X120.922 Y118.274
;TYPE:WALL-INNER
G1 F1500 E24.5978
G1 F1200 X120.446 Y118.666 E24.61831
G1 X119.997 Y118.906 E24.63524
G1 X119.565 Y119.036 E24.65024
G1 X119.192 Y119.1 E24.66283
G1 X100.78 Y119.1 E25.27522
G1 X100.349 Y119.016 E25.28982
G1 X99.989 Y118.898 E25.30242
G1 X99.517 Y118.641 E25.3203
G1 X99.155 Y118.33 E25.33617
G1 X99.069 Y118.24 E25.34031
G1 X98.777 Y117.859 E25.35628
G1 X98.55 Y117.38 E25.37391
G1 X98.435 Y116.942 E25.38897
G1 X98.403 Y116.614 E25.39993
G1 X98.4 Y110.299 E25.60997
G1 X98.494 Y109.758 E25.62823
G1 X98.777 Y109.116 E25.65157
G1 X99.299 Y108.508 E25.67822
G1 X99.95 Y108.106 E25.70367
G1 X100.47 Y107.954 E25.72169
G1 X100.798 Y107.9 E25.73274
G1 X119.192 Y107.905 E26.34453
G1 X119.676 Y107.979 E26.36081
