;FLAVOR:Marlin
;TIME:4224
;Filament used: 2.42142m
;Layer height: 0.2
;MINX:69.001
;MINY:82.043
;MINZ:0.2
;MAXX:150.999
;MAXY:133.499
;MAXZ:10
;Generated with Cura_SteamEngine main
M82 ;absolute extrusion mode
; Ender 3 Custom Start G-code
G92 E0 ; Reset Extruder
G28 ; Home all axes
M104 S175 ; Start heating up the nozzle most of the way
M190 S60 ; Start heating the bed, wait until target temperature reached
M109 S195.0 ; Finish heating the nozzle
G1 Z2.0 F3000 ; Move Z Axis up little to prevent scratching of Heat Bed
G1 X0.1 Y20 Z0.3 F5000.0 ; Move to start position
G1 X0.1 Y200.0 Z0.3 F1500.0 E15 ; Draw the first line
G1 X0.4 Y200.0 Z0.3 F5000.0 ; Move to side a little
G1 X0.4 Y20 Z0.3 F1500.0 E30 ; Draw the second line
G92 E0 ; Reset Extruder
G1 Z2.0 F3000 ; Move Z Axis up little to prevent scratching of Heat Bed
G1 X5 Y20 Z0.3 F5000.0 ; Move over to prevent blob squish
G92 E0
G92 E0
G1 F1500 E-6.5
;LAYER_COUNT:50
;LAYER:0
M107
G0 F6000 X74.624 Y90.346 Z0.2
G0 X69.311 Y99.496
;TYPE:SKIRT
G1 F1500 E0
G1 F1200 X69.49 Y98.667 E0.02821
G1 X69.727 Y97.76 E0.05939
G1 X69.942 Y97.127 E0.08162
G1 X70.241 Y96.368 E0.10876
G1 X70.455 Y95.873 E0.12669
G1 X71.009 Y94.767 E0.16783
G1 X71.396 Y94.115 E0.19305
G1 X71.685 Y93.66 E0.21098
G1 X72.38 Y92.686 E0.25078
G1 X72.864 Y92.103 E0.27598
G1 X73.237 Y91.68 E0.29474
G1 X74.149 Y90.76 E0.33782
G1 X74.624 Y90.346 E0.35878
G1 X74.979 Y90.052 E0.37411
G1 X76.089 Y89.244 E0.41978
G1 X76.826 Y88.775 E0.44883
G1 X77.638 Y88.305 E0.48004
G1 X78.257 Y88.006 E0.5029
G1 X78.905 Y87.727 E0.52636
G1 X79.384 Y87.536 E0.54352
G1 X80.624 Y87.125 E0.58697
G1 X81.325 Y86.948 E0.61101
G1 X81.812 Y86.839 E0.62761
G1 X83.009 Y86.639 E0.66798
G1 X83.76 Y86.567 E0.69307
G1 X85.17 Y86.475 E0.74006
G1 X87.665 Y86.276 E0.82331
G1 X90.191 Y86.002 E0.90782
G1 X92.715 Y85.658 E0.99254
G1 X95.153 Y85.253 E1.07474
G1 X97.635 Y84.769 E1.15885
G1 X100.08 Y84.223 E1.24217
G1 X102.496 Y83.606 E1.32511
G1 X106.308 Y82.493 E1.45719
G1 X107.219 Y82.269 E1.48839
G1 X108.145 Y82.123 E1.51957
G1 X109.208 Y82.054 E1.555
G1 X109.865 Y82.043 E1.57686
G1 X110.569 Y82.047 E1.60027
G1 X111.506 Y82.1 E1.63149
G1 X112.434 Y82.232 E1.66266
G1 X113.624 Y82.522 E1.7034
G1 X114.311 Y82.731 E1.72729
G1 X116.767 Y83.446 E1.81236
G1 X119.208 Y84.082 E1.89626
G1 X121.669 Y84.65 E1.98027
G1 X124.151 Y85.148 E2.06446
G1 X126.599 Y85.569 E2.14708
G1 X129.103 Y85.925 E2.2312
G1 X131.616 Y86.213 E2.31533
G1 X134.162 Y86.429 E2.40032
G1 X136.018 Y86.551 E2.46218
G1 X136.823 Y86.622 E2.48906
G1 X138.008 Y86.8 E2.52891
G1 X138.759 Y86.968 E2.55451
G1 X139.263 Y87.097 E2.57181
G1 X140.431 Y87.466 E2.61255
G1 X141.155 Y87.752 E2.63844
G1 X141.628 Y87.956 E2.65558
G1 X142.735 Y88.509 E2.69673
G1 X143.364 Y88.883 E2.72107
G1 X143.826 Y89.176 E2.73927
G1 X144.818 Y89.884 E2.77981
G1 X145.374 Y90.344 E2.80381
G1 X145.78 Y90.7 E2.82177
G1 X146.659 Y91.562 E2.86271
G1 X147.154 Y92.124 E2.88762
G1 X147.448 Y92.479 E2.90295
G1 X148.257 Y93.59 E2.94866
G1 X148.724 Y94.324 E2.9776
G1 X149.193 Y95.136 E3.00879
G1 X149.482 Y95.733 E3.03085
G1 X149.786 Y96.436 E3.05632
G1 X149.973 Y96.908 E3.07321
G1 X150.366 Y98.096 E3.11483
G1 X150.538 Y98.764 E3.13777
G1 X150.655 Y99.279 E3.15534
G1 X150.864 Y100.533 E3.19762
G1 X150.937 Y101.328 E3.22417
G1 X150.975 Y101.964 E3.24536
G1 X150.995 Y102.616 E3.26706
G1 X150.999 Y116.958 E3.74408
G1 X150.989 Y117.657 E3.76733
G1 X150.958 Y118.389 E3.7917
G1 X150.889 Y119.213 E3.8192
G1 X150.675 Y120.567 E3.86479
G1 X150.485 Y121.421 E3.89389
G1 X150.243 Y122.327 E3.92508
G1 X150.043 Y122.907 E3.94549
G1 X149.74 Y123.673 E3.97288
G1 X149.53 Y124.157 E3.99043
G1 X148.987 Y125.242 E4.03079
G1 X148.624 Y125.854 E4.05445
G1 X148.333 Y126.314 E4.07256
G1 X147.627 Y127.305 E4.11303
G1 X147.13 Y127.904 E4.13891
G1 X146.722 Y128.366 E4.15941
G1 X146.072 Y129.042 E4.19061
G1 X145.489 Y129.56 E4.21654
G1 X144.933 Y130.02 E4.24055
G1 X143.97 Y130.732 E4.28038
G1 X143.298 Y131.158 E4.30684
G1 X142.829 Y131.434 E4.32494
G1 X141.748 Y131.992 E4.3654
G1 X141.098 Y132.272 E4.38894
G1 X140.602 Y132.469 E4.40669
G1 X139.384 Y132.872 E4.44936
G1 X138.731 Y133.039 E4.47178
G1 X138.215 Y133.156 E4.48938
G1 X136.971 Y133.364 E4.53133
G1 X136.172 Y133.437 E4.55802
G1 X135.536 Y133.475 E4.57921
G1 X134.881 Y133.495 E4.601
G1 X85.543 Y133.499 E6.24199
G1 X84.837 Y133.489 E6.26548
G1 X84.097 Y133.457 E6.29011
G1 X83.287 Y133.389 E6.31715
G1 X81.929 Y133.175 E6.36287
G1 X81.072 Y132.984 E6.39207
G1 X80.166 Y132.741 E6.42327
G1 X79.569 Y132.534 E6.44429
G1 X78.839 Y132.245 E6.4704
G1 X78.376 Y132.045 E6.48718
G1 X77.3 Y131.509 E6.52716
G1 X76.65 Y131.125 E6.55227
G1 X76.188 Y130.833 E6.57045
G1 X75.182 Y130.116 E6.61154
G1 X74.623 Y129.653 E6.63568
G1 X74.215 Y129.295 E6.65373
G1 X73.313 Y128.407 E6.69583
G1 X72.856 Y127.887 E6.71886
G1 X72.562 Y127.533 E6.73416
G1 X71.744 Y126.411 E6.78034
G1 X71.275 Y125.674 E6.8094
G1 X70.805 Y124.862 E6.8406
G1 X70.506 Y124.243 E6.86347
G1 X70.216 Y123.566 E6.88796
G1 X70.025 Y123.083 E6.90524
G1 X69.636 Y121.912 E6.94628
G1 X69.454 Y121.203 E6.97063
G1 X69.345 Y120.722 E6.98703
G1 X69.135 Y119.461 E7.02955
G1 X69.068 Y118.741 E7.0536
G1 X69.033 Y118.208 E7.07136
G1 X69.01 Y117.654 E7.08981
G1 X69.001 Y117.062 E7.1095
G1 X69.001 Y103.051 E7.57551
G1 X69.011 Y102.344 E7.59902
G1 X69.028 Y101.876 E7.6146
G1 X69.075 Y101.172 E7.63807
G1 X69.111 Y100.789 E7.65086
G1 X69.311 Y99.496 E7.69438
G1 F1500 E1.19438
G0 F6000 X69.401 Y103.057
G1 F1500 E7.69438
G1 F1200 X69.411 Y102.35 E7.7179
G1 X69.444 Y101.599 E7.7429
G1 X69.51 Y100.826 E7.7687
G1 X69.702 Y99.581 E7.8106
G1 X69.881 Y98.752 E7.83881
G1 X70.114 Y97.861 E7.86944
G1 X70.317 Y97.267 E7.89032
G1 X70.608 Y96.527 E7.91676
G1 X70.822 Y96.032 E7.9347
G1 X71.356 Y94.966 E7.97436
G1 X71.733 Y94.33 E7.99895
G1 X72.022 Y93.875 E8.01687
G1 X72.693 Y92.936 E8.05526
G1 X73.164 Y92.367 E8.07983
G1 X73.537 Y91.944 E8.09859
G1 X74.416 Y91.058 E8.1401
G1 X74.879 Y90.654 E8.16053
G1 X75.234 Y90.36 E8.17586
G1 X76.304 Y89.581 E8.21989
G1 X77.041 Y89.112 E8.24894
G1 X77.839 Y88.652 E8.27958
G1 X78.42 Y88.372 E8.30103
G1 X79.053 Y88.099 E8.32396
G1 X79.532 Y87.908 E8.34111
G1 X80.727 Y87.512 E8.38298
G1 X81.413 Y87.338 E8.40652
G1 X81.9 Y87.229 E8.42312
G1 X83.053 Y87.037 E8.46199
G1 X83.786 Y86.967 E8.48648
G1 X85.081 Y86.882 E8.52965
G1 X87.745 Y86.671 E8.61853
G1 X90.248 Y86.399 E8.70227
G1 X92.729 Y86.06 E8.78556
G1 X95.258 Y85.64 E8.87082
G1 X97.727 Y85.159 E8.95449
G1 X100.169 Y84.613 E9.03771
G1 X102.59 Y83.996 E9.12081
G1 X106.42 Y82.877 E9.25352
G1 X107.314 Y82.658 E9.28413
G1 X108.224 Y82.517 E9.31476
G1 X109.215 Y82.453 E9.34779
G1 X109.872 Y82.442 E9.36965
G1 X110.564 Y82.447 E9.39266
G1 X111.483 Y82.499 E9.42328
G1 X112.394 Y82.631 E9.4539
G1 X113.507 Y82.905 E9.49202
G1 X114.158 Y83.103 E9.51465
G1 X116.66 Y83.832 E9.60133
G1 X119.123 Y84.473 E9.68598
G1 X121.566 Y85.037 E9.76937
G1 X124.077 Y85.541 E9.85455
G1 X126.552 Y85.966 E9.93807
G1 X129.033 Y86.32 E10.02143
G1 X131.571 Y86.61 E10.10639
G1 X134.157 Y86.83 E10.19271
G1 X136.3 Y86.974 E10.26415
G1 X136.785 Y87.02 E10.28035
G1 X137.927 Y87.192 E10.31877
G1 X138.659 Y87.355 E10.34371
G1 X139.163 Y87.484 E10.36101
G1 X140.29 Y87.84 E10.40032
G1 X140.997 Y88.12 E10.42561
G1 X141.47 Y88.324 E10.44275
G1 X142.536 Y88.856 E10.48237
G1 X143.15 Y89.22 E10.50611
G1 X143.612 Y89.513 E10.52431
G1 X144.568 Y90.196 E10.56339
G1 X145.11 Y90.645 E10.58679
G1 X145.516 Y91.001 E10.60475
G1 X146.363 Y91.831 E10.6442
G1 X146.846 Y92.379 E10.66849
G1 X147.14 Y92.734 E10.68382
G1 X147.919 Y93.805 E10.72787
G1 X148.386 Y94.539 E10.75681
G1 X148.846 Y95.336 E10.78741
G1 X149.117 Y95.896 E10.80811
G1 X149.414 Y96.584 E10.83303
G1 X149.601 Y97.056 E10.84992
G1 X149.98 Y98.2 E10.89
G1 X150.148 Y98.853 E10.91242
G1 X150.265 Y99.368 E10.92999
G1 X150.466 Y100.576 E10.97072
G1 X150.538 Y101.352 E10.99664
G1 X150.576 Y101.988 E11.01783
G1 X150.595 Y102.616 E11.03873
G1 X150.599 Y116.953 E11.51558
G1 X150.589 Y117.652 E11.53883
G1 X150.559 Y118.367 E11.56263
G1 X150.491 Y119.175 E11.5896
G1 X150.285 Y120.48 E11.63354
G1 X150.095 Y121.334 E11.66264
G1 X149.856 Y122.223 E11.69326
G1 X149.668 Y122.766 E11.71237
G1 X149.373 Y123.514 E11.73912
G1 X149.163 Y123.998 E11.75666
G1 X148.639 Y125.043 E11.79555
G1 X148.286 Y125.64 E11.81861
G1 X147.995 Y126.1 E11.83672
G1 X147.314 Y127.055 E11.87573
G1 X146.83 Y127.64 E11.90098
G1 X146.422 Y128.102 E11.92148
G1 X145.783 Y128.765 E11.95211
G1 X145.234 Y129.252 E11.97652
G1 X144.678 Y129.712 E12.00052
G1 X143.75 Y130.398 E12.0389
G1 X143.095 Y130.814 E12.06471
G1 X142.626 Y131.09 E12.08281
G1 X141.585 Y131.627 E12.12177
G1 X140.951 Y131.9 E12.14473
G1 X140.455 Y132.097 E12.16248
G1 X139.281 Y132.486 E12.20361
G1 X138.643 Y132.649 E12.22552
G1 X138.127 Y132.766 E12.24311
G1 X136.928 Y132.966 E12.28354
G1 X136.148 Y133.038 E12.3096
G1 X135.512 Y133.076 E12.33079
G1 X134.881 Y133.095 E12.35178
G1 X85.7 Y133.1 E13.98755
G1 X84.843 Y133.089 E14.01606
G1 X84.409 Y133.074 E14.0305
G1 X83.706 Y133.027 E14.05394
G1 X83.325 Y132.991 E14.06666
G1 X82.016 Y132.784 E14.11074
G1 X81.159 Y132.593 E14.13995
G1 X80.27 Y132.354 E14.17056
G1 X79.71 Y132.16 E14.19028
G1 X78.998 Y131.878 E14.21575
G1 X78.535 Y131.678 E14.23252
G1 X77.498 Y131.161 E14.27106
G1 X76.864 Y130.787 E14.29554
G1 X76.402 Y130.495 E14.31372
G1 X75.432 Y129.804 E14.35333
G1 X74.887 Y129.353 E14.37686
G1 X74.479 Y128.995 E14.39491
G1 X73.61 Y128.139 E14.43549
G1 X73.164 Y127.631 E14.45797
G1 X72.87 Y127.277 E14.47327
G1 X72.081 Y126.196 E14.51779
G1 X71.612 Y125.459 E14.54684
G1 X71.152 Y124.661 E14.57748
G1 X70.872 Y124.08 E14.59893
G1 X70.588 Y123.419 E14.62286
G1 X70.397 Y122.936 E14.64013
G1 X70.022 Y121.808 E14.67967
G1 X69.844 Y121.115 E14.70347
G1 X69.735 Y120.634 E14.71987
G1 X69.533 Y119.419 E14.76084
G1 X69.467 Y118.715 E14.78435
G1 X69.432 Y118.182 E14.80212
G1 X69.41 Y117.648 E14.81989
G1 X69.401 Y117.056 E14.83959
G1 X69.401 Y103.057 E15.3052
G0 F6000 X69.801 Y103.063
G1 F1200 X69.811 Y102.356 E15.32871
G1 X69.843 Y101.622 E15.35315
G1 X69.908 Y100.863 E15.37849
G1 X70.093 Y99.665 E15.4188
G1 X70.272 Y98.836 E15.44701
G1 X70.501 Y97.963 E15.47703
G1 X70.691 Y97.408 E15.49654
G1 X70.975 Y96.685 E15.52238
G1 X71.189 Y96.19 E15.54031
G1 X71.703 Y95.165 E15.57845
G1 X72.071 Y94.544 E15.60246
G1 X72.36 Y94.089 E15.62039
G1 X73.005 Y93.186 E15.6573
G1 X73.464 Y92.632 E15.68123
G1 X73.837 Y92.209 E15.69998
G1 X74.683 Y91.356 E15.73994
G1 X75.134 Y90.962 E15.75986
G1 X75.489 Y90.668 E15.77519
G1 X76.519 Y89.919 E15.81755
G1 X77.256 Y89.45 E15.8466
G1 X78.039 Y88.999 E15.87666
G1 X78.582 Y88.737 E15.89671
G1 X79.201 Y88.47 E15.91913
G1 X79.68 Y88.279 E15.93628
G1 X80.83 Y87.898 E15.97658
G1 X81.5 Y87.728 E15.99957
G1 X81.987 Y87.619 E16.01617
G1 X83.097 Y87.434 E16.05359
G1 X83.812 Y87.366 E16.07748
G1 X85.141 Y87.279 E16.12178
G1 X87.783 Y87.069 E16.20993
G1 X90.278 Y86.798 E16.2934
G1 X92.812 Y86.452 E16.37847
G1 X95.294 Y86.04 E16.46215
G1 X97.812 Y85.55 E16.54747
G1 X100.258 Y85.003 E16.63083
G1 X102.71 Y84.377 E16.715
G1 X106.532 Y83.261 E16.84743
G1 X107.409 Y83.047 E16.87745
G1 X108.302 Y82.91 E16.9075
G1 X109.221 Y82.853 E16.93813
G1 X109.878 Y82.842 E16.95998
G1 X110.559 Y82.847 E16.98263
G1 X111.46 Y82.899 E17.01265
G1 X112.354 Y83.031 E17.04271
G1 X113.391 Y83.288 E17.07824
G1 X114.03 Y83.482 E17.10045
G1 X116.552 Y84.217 E17.18782
G1 X119.038 Y84.864 E17.27326
G1 X121.469 Y85.426 E17.35625
G1 X124.002 Y85.934 E17.44218
G1 X126.494 Y86.362 E17.52627
G1 X129.003 Y86.719 E17.61056
G1 X131.528 Y87.008 E17.69509
G1 X134.096 Y87.226 E17.78081
G1 X135.966 Y87.349 E17.84315
G1 X136.747 Y87.419 E17.86923
G1 X137.847 Y87.584 E17.90622
G1 X138.56 Y87.743 E17.93052
G1 X139.064 Y87.872 E17.94782
G1 X140.148 Y88.214 E17.98563
G1 X140.838 Y88.487 E18.01031
G1 X141.311 Y88.691 E18.02744
G1 X142.337 Y89.204 E18.06559
G1 X142.936 Y89.558 E18.08874
G1 X143.398 Y89.851 E18.10693
G1 X144.317 Y90.508 E18.1445
G1 X144.847 Y90.946 E18.16737
G1 X145.253 Y91.302 E18.18533
G1 X146.067 Y92.101 E18.22327
G1 X146.538 Y92.634 E18.24693
G1 X146.832 Y92.989 E18.26226
G1 X147.582 Y94.02 E18.30466
G1 X148.049 Y94.754 E18.3336
G1 X148.499 Y95.536 E18.36361
G1 X148.752 Y96.06 E18.38296
G1 X149.042 Y96.731 E18.40727
G1 X149.229 Y97.203 E18.42416
G1 X149.594 Y98.304 E18.46274
G1 X149.758 Y98.941 E18.48462
G1 X149.875 Y99.456 E18.50218
G1 X150.069 Y100.619 E18.5414
G1 X150.139 Y101.376 E18.56668
G1 X150.177 Y102.012 E18.58787
G1 X150.195 Y102.616 E18.60797
G1 X150.2 Y116.797 E19.07963
G1 X150.189 Y117.646 E19.10787
G1 X150.159 Y118.346 E19.13118
G1 X150.093 Y119.138 E19.15761
G1 X149.895 Y120.393 E19.19987
G1 X149.705 Y121.247 E19.22897
G1 X149.47 Y122.119 E19.259
G1 X149.294 Y122.625 E19.27682
G1 X149.006 Y123.355 E19.30292
G1 X148.796 Y123.839 E19.32047
G1 X148.292 Y124.845 E19.3579
G1 X147.948 Y125.426 E19.38035
G1 X147.657 Y125.886 E19.39846
G1 X147.002 Y126.805 E19.43599
G1 X146.53 Y127.375 E19.46061
G1 X146.122 Y127.837 E19.48111
G1 X145.495 Y128.487 E19.51115
G1 X144.979 Y128.944 E19.53407
G1 X144.423 Y129.404 E19.55807
G1 X143.53 Y130.064 E19.595
G1 X142.892 Y130.469 E19.62014
G1 X142.423 Y130.745 E19.63824
G1 X141.421 Y131.262 E19.67574
G1 X140.803 Y131.529 E19.69813
G1 X140.307 Y131.726 E19.71588
G1 X139.178 Y132.1 E19.75544
G1 X138.555 Y132.258 E19.77682
G1 X138.039 Y132.375 E19.79441
G1 X136.884 Y132.568 E19.83336
G1 X136.124 Y132.639 E19.85875
G1 X135.488 Y132.677 E19.87994
G1 X134.881 Y132.695 E19.90014
G1 X85.7 Y132.7 E21.53591
G1 X84.849 Y132.689 E21.56421
G1 X84.431 Y132.675 E21.57812
G1 X83.743 Y132.629 E21.60106
G1 X83.362 Y132.593 E21.61379
G1 X82.103 Y132.394 E21.65618
G1 X81.246 Y132.203 E21.68538
G1 X80.374 Y131.967 E21.71543
G1 X79.852 Y131.786 E21.73381
G1 X79.156 Y131.511 E21.7587
G1 X78.693 Y131.311 E21.77547
G1 X77.695 Y130.813 E21.81257
G1 X77.077 Y130.449 E21.83642
G1 X76.615 Y130.157 E21.8546
G1 X75.683 Y129.492 E21.89268
G1 X75.151 Y129.052 E21.91564
G1 X74.743 Y128.694 E21.9337
G1 X73.906 Y127.87 E21.97276
G1 X73.471 Y127.376 E21.99465
G1 X73.177 Y127.022 E22.00996
G1 X72.419 Y125.981 E22.05279
G1 X71.95 Y125.244 E22.08184
G1 X71.499 Y124.461 E22.1119
G1 X71.237 Y123.918 E22.13195
G1 X70.96 Y123.272 E22.15533
G1 X70.769 Y122.789 E22.1726
G1 X70.408 Y121.703 E22.21067
G1 X70.234 Y121.026 E22.23392
G1 X70.125 Y120.545 E22.25032
G1 X69.931 Y119.376 E22.28973
G1 X69.866 Y118.688 E22.31272
G1 X69.831 Y118.155 E22.33048
G1 X69.81 Y117.642 E22.34756
G1 X69.801 Y117.05 E22.36725
G1 X69.801 Y103.063 E22.83246
G1 F1500 E16.33246
G0 F6000 X83.257 Y97.109
G0 X83.95 Y96.944
G0 X109.782 Y94.499
G0 X109.749 Y94.6
G1 F1500 E22.83246
G1 F1200 X109.782 Y94.499 E22.836
G1 X109.868 Y94.436 E22.83954
G1 X109.972 Y94.436 E22.843
G1 X110.059 Y94.5 E22.84659
G1 X110.092 Y94.6 E22.8501
G1 X110.059 Y94.7 E22.8536
G1 X109.972 Y94.764 E22.85719
G1 X109.868 Y94.764 E22.86065
G1 X109.782 Y94.701 E22.8642
G1 X109.749 Y94.6 E22.86773
G0 F6000 X109.328 Y94.6
G1 F1200 X109.441 Y94.252 E22.8799
G1 X109.738 Y94.036 E22.89211
G1 X110.102 Y94.036 E22.90422
G1 X110.399 Y94.252 E22.91644
G1 X110.512 Y94.6 E22.9286
G1 X110.399 Y94.948 E22.94077
G1 X110.102 Y95.164 E22.95299
G1 X109.738 Y95.164 E22.9651
G1 X109.441 Y94.948 E22.97731
G1 X109.328 Y94.6 E22.98948
G0 F6000 X108.908 Y94.6
G1 F1200 X109.101 Y94.005 E23.01028
G1 X109.607 Y93.636 E23.03111
G1 X110.233 Y93.636 E23.05193
G1 X110.739 Y94.005 E23.07276
G1 X110.932 Y94.6 E23.09357
G1 X110.739 Y95.195 E23.11437
G1 X110.233 Y95.564 E23.1352
G1 X109.607 Y95.564 E23.15602
G1 X109.101 Y95.195 E23.17685
G1 X108.908 Y94.6 E23.19766
G0 F6000 X108.487 Y94.6
G1 F1200 X108.76 Y93.759 E23.22707
G1 X109.478 Y93.236 E23.25661
G1 X110.362 Y93.236 E23.28601
G1 X111.08 Y93.759 E23.31556
G1 X111.354 Y94.6 E23.34498
G1 X111.08 Y95.441 E23.3744
G1 X110.362 Y95.964 E23.40394
G1 X109.478 Y95.964 E23.43334
G1 X108.76 Y95.441 E23.46289
G1 X108.487 Y94.6 E23.49229
G1 F1500 E16.99229
G0 F6000 X108.674 Y111.203
G1 F1500 E23.49229
G1 F1200 X108.92 Y110.444 E23.51883
G1 X109.568 Y109.972 E23.5455
G1 X110.366 Y109.972 E23.57204
