;FLAVOR:Marlin
;TIME:2073
;Filament used: 1.0644m
;Layer height: 0.2
;MINX:87.068
;MINY:84.09
;MINZ:0.2
;MAXX:132.916
;MAXY:124.431
;MAXZ:13
;Generated with Cura_SteamEngine main
M82 ;absolute extrusion mode
; Ender 3 Custom Start G-code
G92 E0 ; Reset Extruder
G28 ; Home all axes
M104 S175 ; Start heating up the nozzle most of the way
M190 S60 ; Start heating the bed, wait until target temperature reached
M109 S195.0 ; Finish heating the nozzle
G1 Z2.0 F3000 ; Move Z Axis up little to prevent scratching of Heat Bed
G1 X0.1 Y20 Z0.3 F5000.0 ; Move to start position
G1 X0.1 Y200.0 Z0.3 F1500.0 E15 ; Draw the first line
G1 X0.4 Y200.0 Z0.3 F5000.0 ; Move to side a little
G1 X0.4 Y20 Z0.3 F1500.0 E30 ; Draw the second line
G92 E0 ; Reset Extruder
G1 Z2.0 F3000 ; Move Z Axis up little to prevent scratching of Heat Bed
G1 X5 Y20 Z0.3 F5000.0 ; Move over to prevent blob squish
G92 E0
G92 E0
G1 F1500 E-6.5
;LAYER_COUNT:65
;LAYER:0
M107
G0 F6000 X90.152 Y88.701 Z0.2
G0 X87.068 Y96.96
;TYPE:SKIRT
G1 F1500 E0
G1 F1200 X87.078 Y96.262 E0.02322
G1 X87.132 Y95.326 E0.0544
G1 X87.264 Y94.398 E0.08558
G1 X87.476 Y93.484 E0.11678
G1 X87.765 Y92.592 E0.14797
G1 X88.128 Y91.727 E0.17917
G1 X88.513 Y90.98 E0.20712
G1 X88.994 Y90.175 E0.23831
G1 X89.541 Y89.413 E0.26951
G1 X90.152 Y88.701 E0.30072
G1 X90.82 Y88.044 E0.33188
G1 X91.543 Y87.445 E0.36311
G1 X92.313 Y86.911 E0.39427
G1 X93.398 Y86.308 E0.43556
G1 X93.65 Y86.186 E0.44487
G1 X94.511 Y85.814 E0.47607
G1 X95.4 Y85.516 E0.50725
G1 X96.311 Y85.295 E0.53843
G1 X97.238 Y85.153 E0.56962
G1 X98.224 Y85.089 E0.60249
G1 X99.497 Y85.066 E0.64483
G1 X103.05 Y85.066 E0.76301
G1 X105.658 Y85.029 E0.84976
G1 X108.18 Y84.922 E0.93371
G1 X110.675 Y84.745 E1.01691
G1 X113.172 Y84.498 E1.10036
G1 X114.687 Y84.305 E1.15116
G1 X115.563 Y84.202 E1.1805
G1 X116.294 Y84.134 E1.20491
G1 X116.995 Y84.097 E1.22826
G1 X117.318 Y84.09 E1.23901
G1 X118.09 Y84.1 E1.26469
G1 X118.44 Y84.117 E1.27634
G1 X119.277 Y84.19 E1.30429
G1 X119.707 Y84.244 E1.3187
G1 X121.059 Y84.5 E1.36447
G1 X121.423 Y84.593 E1.37696
G1 X122.115 Y84.795 E1.40094
G1 X122.412 Y84.892 E1.41133
G1 X123.076 Y85.132 E1.43481
G1 X123.344 Y85.239 E1.44441
G1 X124.044 Y85.547 E1.46985
G1 X124.355 Y85.697 E1.48133
G1 X125.076 Y86.074 E1.50839
G1 X125.788 Y86.508 E1.53613
G1 X126.099 Y86.712 E1.5485
G1 X126.729 Y87.158 E1.57417
G1 X127.06 Y87.41 E1.58801
G1 X127.782 Y88.009 E1.61921
G1 X128.463 Y88.668 E1.65073
G1 X129.019 Y89.259 E1.67772
G1 X129.28 Y89.558 E1.69092
G1 X129.866 Y90.29 E1.7221
G1 X130.146 Y90.69 E1.73834
G1 X130.498 Y91.218 E1.75945
G1 X130.984 Y92.02 E1.79064
G1 X131.233 Y92.499 E1.8086
G1 X131.409 Y92.86 E1.82195
G1 X131.696 Y93.502 E1.84534
G1 X131.827 Y93.821 E1.85681
G1 X132.092 Y94.535 E1.88214
G1 X132.171 Y94.773 E1.89048
G1 X132.384 Y95.498 E1.91562
G1 X132.455 Y95.774 E1.9251
G1 X132.608 Y96.457 E1.94838
G1 X132.675 Y96.809 E1.96029
G1 X132.804 Y97.668 E1.98918
G1 X132.852 Y98.106 E2.00384
G1 X132.916 Y99.456 E2.04879
G1 X132.911 Y99.818 E2.06083
G1 X132.875 Y100.565 E2.08571
G1 X132.738 Y102.232 E2.14134
G1 X132.562 Y104.83 E2.22795
G1 X132.462 Y107.392 E2.31322
G1 X132.433 Y109.611 E2.38703
G1 X132.43 Y112.54 E2.48445
G1 X132.418 Y113.32 E2.5104
G1 X132.363 Y114.257 E2.54162
G1 X132.229 Y115.185 E2.5728
G1 X132.017 Y116.098 E2.60398
G1 X131.727 Y116.99 E2.63517
G1 X131.363 Y117.854 E2.66636
G1 X130.926 Y118.684 E2.69755
G1 X130.42 Y119.474 E2.72876
G1 X129.849 Y120.218 E2.75995
G1 X129.335 Y120.789 E2.7855
G1 X129.088 Y121.045 E2.79734
G1 X128.409 Y121.691 E2.82851
G1 X127.677 Y122.278 E2.85971
G1 X126.897 Y122.8 E2.89093
G1 X126.077 Y123.253 E2.92209
G1 X125.22 Y123.635 E2.9533
G1 X124.334 Y123.943 E2.9845
G1 X123.425 Y124.174 E3.01569
G1 X122.5 Y124.327 E3.04687
G1 X121.403 Y124.405 E3.08345
G1 X120.213 Y124.43 E3.12304
G1 X102.389 Y124.431 E3.71587
G1 X101.692 Y124.421 E3.73905
G1 X100.82 Y124.374 E3.7681
G1 X99.968 Y124.278 E3.79662
G1 X99.081 Y124.12 E3.82658
G1 X98.827 Y124.065 E3.83523
G1 X98.069 Y123.872 E3.86124
G1 X97.72 Y123.77 E3.87333
G1 X96.832 Y123.469 E3.90452
G1 X95.904 Y123.059 E3.93826
G1 X95.227 Y122.722 E3.96342
G1 X94.406 Y122.269 E3.9946
G1 X93.627 Y121.747 E4.02579
G1 X93.159 Y121.385 E4.04547
G1 X92.573 Y120.905 E4.07067
G1 X91.873 Y120.28 E4.10188
G1 X91.229 Y119.598 E4.13308
G1 X90.843 Y119.126 E4.15336
G1 X90.368 Y118.512 E4.17918
G1 X89.826 Y117.746 E4.21039
G1 X89.351 Y116.937 E4.24159
G1 X89.087 Y116.404 E4.26137
G1 X88.804 Y115.793 E4.28377
G1 X88.29 Y114.485 E4.33051
G1 X88.039 Y113.61 E4.36079
G1 X87.975 Y113.354 E4.36956
G1 X87.786 Y112.432 E4.40087
G1 X87.745 Y112.177 E4.40946
G1 X87.64 Y111.297 E4.43893
G1 X87.581 Y110.425 E4.468
G1 X87.514 Y108.637 E4.52751
G1 X87.357 Y106.141 E4.61069
G1 X87.223 Y104.723 E4.65807
G1 X87.131 Y103.628 E4.69462
G1 X87.094 Y102.93 E4.71786
G1 X87.07 Y101.749 E4.75715
G1 X87.068 Y96.96 E4.91643
G0 F6000 X87.468 Y96.966
G1 F1200 X87.478 Y96.268 E4.93965
G1 X87.531 Y95.349 E4.97027
G1 X87.664 Y94.438 E5.00089
G1 X87.875 Y93.542 E5.03151
G1 X88.163 Y92.668 E5.06211
G1 X88.526 Y91.821 E5.09276
G1 X88.865 Y91.17 E5.11718
G1 X89.337 Y90.38 E5.14778
G1 X89.877 Y89.634 E5.17841
G1 X90.479 Y88.937 E5.20905
G1 X91.139 Y88.295 E5.23967
G1 X91.852 Y87.713 E5.27028
G1 X92.613 Y87.195 E5.3009
G1 X93.572 Y86.668 E5.3373
G1 X93.824 Y86.546 E5.34661
G1 X94.669 Y86.181 E5.37722
G1 X95.543 Y85.891 E5.40785
G1 X96.439 Y85.678 E5.43848
G1 X97.35 Y85.544 E5.46911
G1 X98.232 Y85.489 E5.4985
G1 X99.497 Y85.466 E5.54058
G1 X103.056 Y85.466 E5.65895
G1 X105.681 Y85.429 E5.74627
G1 X108.189 Y85.322 E5.82976
G1 X110.706 Y85.144 E5.91369
G1 X113.23 Y84.894 E5.99805
G1 X114.734 Y84.703 E6.04847
G1 X115.61 Y84.6 E6.07781
G1 X116.328 Y84.533 E6.10179
G1 X117.003 Y84.496 E6.12428
G1 X117.326 Y84.489 E6.13502
G1 X118.07 Y84.499 E6.15977
G1 X118.42 Y84.516 E6.17143
G1 X119.227 Y84.587 E6.19837
G1 X119.657 Y84.641 E6.21278
G1 X120.96 Y84.888 E6.25689
G1 X121.324 Y84.981 E6.26939
G1 X121.991 Y85.175 E6.29249
G1 X122.288 Y85.272 E6.30289
G1 X122.927 Y85.504 E6.3255
G1 X123.195 Y85.611 E6.33509
G1 X123.87 Y85.907 E6.35961
G1 X124.181 Y86.057 E6.37109
G1 X124.879 Y86.422 E6.39729
G1 X125.569 Y86.843 E6.42417
G1 X125.88 Y87.047 E6.43655
G1 X126.487 Y87.476 E6.46127
G1 X126.818 Y87.728 E6.4751
G1 X127.847 Y88.622 E6.52044
G1 X128.182 Y88.953 E6.5361
G1 X128.718 Y89.522 E6.5621
G1 X128.979 Y89.821 E6.5753
G1 X129.813 Y90.912 E6.62098
G1 X130.165 Y91.44 E6.64209
G1 X130.642 Y92.228 E6.67272
G1 X130.873 Y92.675 E6.68946
G1 X131.049 Y93.036 E6.70282
G1 X131.326 Y93.654 E6.72534
G1 X131.457 Y93.973 E6.73681
G1 X131.712 Y94.661 E6.76121
G1 X131.791 Y94.899 E6.76956
G1 X131.997 Y95.597 E6.79376
G1 X132.068 Y95.873 E6.80324
G1 X132.215 Y96.532 E6.8257
G1 X132.282 Y96.884 E6.83761
G1 X132.406 Y97.711 E6.86543
G1 X132.454 Y98.149 E6.88008
G1 X132.516 Y99.45 E6.9234
G1 X132.511 Y99.812 E6.93544
G1 X132.477 Y100.532 E6.95942
G1 X132.337 Y102.241 E7.01645
G1 X132.163 Y104.808 E7.10203
G1 X132.062 Y107.37 E7.1873
G1 X132.033 Y109.606 E7.26168
G1 X132.03 Y112.534 E7.35907
G1 X132.018 Y113.314 E7.38501
G1 X131.964 Y114.233 E7.41563
G1 X131.83 Y115.144 E7.44626
G1 X131.618 Y116.04 E7.47688
G1 X131.329 Y116.914 E7.5075
G1 X130.965 Y117.76 E7.53813
G1 X130.529 Y118.571 E7.56875
G1 X130.024 Y119.341 E7.59938
G1 X129.455 Y120.064 E7.62998
G1 X129.047 Y120.511 E7.65011
G1 X128.8 Y120.767 E7.66194
G1 X128.133 Y121.401 E7.69255
G1 X127.413 Y121.975 E7.72318
G1 X126.646 Y122.484 E7.75379
G1 X125.838 Y122.925 E7.78441
G1 X124.994 Y123.294 E7.81505
G1 X124.122 Y123.588 E7.84565
G1 X123.227 Y123.806 E7.87629
G1 X122.317 Y123.945 E7.90691
G1 X121.395 Y124.005 E7.93764
G1 X120.205 Y124.03 E7.97723
G1 X102.395 Y124.031 E8.56959
G1 X101.698 Y124.021 E8.59278
G1 X100.857 Y123.975 E8.62079
G1 X100.026 Y123.883 E8.6486
G1 X99.166 Y123.729 E8.67766
G1 X98.912 Y123.674 E8.6863
G1 X98.181 Y123.488 E8.71139
G1 X97.832 Y123.386 E8.72348
G1 X96.961 Y123.09 E8.75408
G1 X96.082 Y122.701 E8.78605
G1 X95.405 Y122.364 E8.8112
G1 X94.6 Y121.919 E8.8418
G1 X93.836 Y121.405 E8.87242
G1 X93.412 Y121.075 E8.89029
G1 X92.826 Y120.595 E8.91549
G1 X92.14 Y119.981 E8.94611
G1 X91.51 Y119.31 E8.97672
G1 X91.159 Y118.881 E8.99516
G1 X90.684 Y118.267 E9.02097
G1 X90.153 Y117.515 E9.05159
G1 X89.689 Y116.72 E9.08221
G1 X89.45 Y116.236 E9.10016
G1 X89.167 Y115.625 E9.12256
G1 X88.672 Y114.362 E9.16768
G1 X88.427 Y113.513 E9.19707
G1 X88.363 Y113.257 E9.20584
G1 X88.181 Y112.369 E9.23599
G1 X88.14 Y112.114 E9.24458
G1 X88.039 Y111.265 E9.27302
G1 X87.98 Y110.41 E9.30153
G1 X87.912 Y108.597 E9.36187
G1 X87.756 Y106.108 E9.44482
G1 X87.621 Y104.689 E9.49222
G1 X87.529 Y103.594 E9.52877
G1 X87.494 Y102.922 E9.55115
G1 X87.468 Y101.528 E9.59753
G1 X87.468 Y96.966 E9.74926
G0 F6000 X87.868 Y96.972
G1 F1200 X87.878 Y96.274 E9.77248
G1 X87.931 Y95.372 E9.80253
G1 X88.063 Y94.479 E9.83255
G1 X88.274 Y93.601 E9.86259
G1 X88.562 Y92.745 E9.89263
G1 X89.144 Y91.482 E9.93888
G1 X89.681 Y90.586 E9.97362
G1 X90.212 Y89.855 E10.00367
G1 X90.805 Y89.174 E10.03371
G1 X91.456 Y88.548 E10.06375
G1 X92.16 Y87.983 E10.09377
G1 X92.912 Y87.482 E10.12382
G1 X93.746 Y87.028 E10.15541
G1 X93.998 Y86.906 E10.16472
G1 X94.828 Y86.549 E10.19477
G1 X95.686 Y86.267 E10.22481
G1 X96.565 Y86.061 E10.25484
G1 X97.459 Y85.935 E10.28487
G1 X98.24 Y85.889 E10.31089
G1 X99.497 Y85.866 E10.3527
G1 X103.062 Y85.866 E10.47127
G1 X105.668 Y85.829 E10.55796
G1 X108.236 Y85.72 E10.64345
G1 X110.738 Y85.543 E10.72687
G1 X113.28 Y85.291 E10.81183
G1 X114.781 Y85.1 E10.86216
G1 X115.657 Y84.997 E10.8915
G1 X116.362 Y84.931 E10.91505
G1 X117.012 Y84.896 E10.9367
G1 X117.335 Y84.889 E10.94744
G1 X118.051 Y84.899 E10.97126
G1 X118.401 Y84.916 E10.98291
G1 X119.177 Y84.983 E11.00882
G1 X119.607 Y85.037 E11.02323
G1 X120.861 Y85.275 E11.06569
G1 X121.225 Y85.368 E11.07818
G1 X121.867 Y85.555 E11.10042
G1 X122.164 Y85.652 E11.11082
G1 X122.779 Y85.875 E11.13257
G1 X123.047 Y85.982 E11.14217
G1 X123.696 Y86.268 E11.16576
G1 X124.007 Y86.418 E11.17724
G1 X124.767 Y86.823 E11.20589
G1 X125.349 Y87.177 E11.22854
G1 X125.66 Y87.381 E11.24091
G1 X126.245 Y87.794 E11.26473
G1 X126.576 Y88.046 E11.27857
G1 X127.566 Y88.906 E11.32219
G1 X127.901 Y89.237 E11.33785
G1 X128.416 Y89.785 E11.36286
G1 X128.677 Y90.084 E11.37606
G1 X129.48 Y91.134 E11.42003
G1 X129.832 Y91.662 E11.44113
G1 X130.299 Y92.435 E11.47117
G1 X130.689 Y93.211 E11.50006
G1 X130.956 Y93.806 E11.52175
G1 X131.087 Y94.125 E11.53322
G1 X131.333 Y94.787 E11.55671
G1 X131.412 Y95.025 E11.56505
G1 X131.609 Y95.697 E11.58834
G1 X131.68 Y95.973 E11.59782
G1 X131.822 Y96.607 E11.61943
G1 X131.889 Y96.959 E11.63134
G1 X132.008 Y97.755 E11.65811
G1 X132.056 Y98.193 E11.67277
G1 X132.116 Y99.445 E11.71446
G1 X132.111 Y99.807 E11.7265
G1 X132.078 Y100.5 E11.74958
G1 X131.94 Y102.185 E11.80581
G1 X131.762 Y104.816 E11.89351
G1 X131.662 Y107.349 E11.97783
G1 X131.633 Y109.601 E12.05274
G1 X131.63 Y112.528 E12.15009
G1 X131.618 Y113.308 E12.17603
G1 X131.564 Y114.209 E12.20606
G1 X131.431 Y115.103 E12.23612
G1 X131.219 Y115.981 E12.26616
G1 X130.93 Y116.836 E12.29618
G1 X130.567 Y117.663 E12.32622
G1 X130.132 Y118.455 E12.35627
G1 X129.629 Y119.204 E12.38628
G1 X128.759 Y120.233 E12.4311
G1 X128.512 Y120.489 E12.44293
G1 X127.857 Y121.111 E12.47297
G1 X127.15 Y121.672 E12.50299
G1 X126.395 Y122.168 E12.53303
G1 X125.6 Y122.596 E12.56306
G1 X124.769 Y122.952 E12.59313
G1 X123.911 Y123.232 E12.62315
G1 X123.031 Y123.436 E12.6532
G1 X122.137 Y123.561 E12.68322
G1 X121.386 Y123.605 E12.70824
G1 X120.196 Y123.63 E12.74783
G1 X102.401 Y123.631 E13.33969
G1 X101.704 Y123.621 E13.36288
G1 X100.895 Y123.577 E13.38983
G1 X100.082 Y123.487 E13.41703
G1 X99.25 Y123.338 E13.44514
G1 X98.996 Y123.283 E13.45379
G1 X98.294 Y123.104 E13.47788
G1 X97.945 Y123.002 E13.48998
G1 X97.09 Y122.711 E13.52002
G1 X96.261 Y122.343 E13.55018
G1 X95.584 Y122.006 E13.57534
G1 X94.794 Y121.568 E13.60538
G1 X94.046 Y121.062 E13.63542
G1 X93.666 Y120.766 E13.65144
G1 X93.08 Y120.286 E13.67663
G1 X92.407 Y119.683 E13.70669
G1 X91.79 Y119.023 E13.73674
G1 X91.475 Y118.636 E13.75333
G1 X91 Y118.022 E13.77915
G1 X90.48 Y117.284 E13.80918
G1 X90.027 Y116.503 E13.83921
G1 X89.813 Y116.068 E13.85533
G1 X89.53 Y115.457 E13.87773
G1 X89.051 Y114.237 E13.92132
G1 X88.816 Y113.416 E13.94973
G1 X88.752 Y113.16 E13.9585
G1 X88.576 Y112.305 E13.98754
G1 X88.535 Y112.05 E13.99613
G1 X88.438 Y111.234 E14.02346
G1 X88.38 Y110.395 E14.05143
G1 X88.313 Y108.597 E14.11127
G1 X88.154 Y106.076 E14.19529
G1 X88.02 Y104.656 E14.24273
G1 X87.928 Y103.561 E14.27927
G1 X87.894 Y102.914 E14.30082
G1 X87.868 Y101.528 E14.34693
G1 X87.868 Y96.972 E14.49846
G1 F1500 E7.99846
;MESH:cable-end-45.stl
G0 F6000 X97.403 Y96.972
G0 X98.669 Y102.331
;TYPE:WALL-INNER
G1 F1500 E14.49846
G1 F1200 X114.758 Y102.339 E15.03359
G1 X114.953 Y102.396 E15.04034
G1 X115.569 Y102.814 E15.0651
G1 X115.901 Y102.978 E15.07742
G1 X116.136 Y103.078 E15.08591
G1 X116.376 Y103.157 E15.09432
G1 X116.773 Y103.264 E15.10799
G1 X117.117 Y103.309 E15.11953
G1 X117.372 Y103.327 E15.12803
G1 X117.643 Y103.326 E15.13705
G1 X117.898 Y103.307 E15.14555
G1 X118.149 Y103.273 E15.15398
G1 X118.608 Y103.164 E15.16967
G1 X118.894 Y103.066 E15.17972
G1 X119.233 Y102.921 E15.19199
G1 X119.557 Y102.729 E15.20451
G1 X119.884 Y102.501 E15.21777
G1 X120.172 Y102.239 E15.23072
G1 X120.352 Y102.054 E15.23931
G1 X120.593 Y101.767 E15.25177
G1 X120.794 Y101.452 E15.2642
G1 X120.918 Y101.227 E15.27274
G1 X121.026 Y100.996 E15.28123
G1 X121.122 Y100.745 E15.29016
G1 X121.195 Y100.5 E15.29867
G1 X121.283 Y100.125 E15.31148
G1 X121.321 Y99.738 E15.32441
G1 X121.333 Y99.346 E15.33746
G1 X121.279 Y98.845 E15.35422
G1 X121.161 Y98.359 E15.37085
G1 X121.026 Y98.005 E15.38345
G1 X120.918 Y97.771 E15.39202
G1 X120.796 Y97.549 E15.40045
G1 X120.657 Y97.332 E15.40902
G1 X120.496 Y97.114 E15.41803
G1 X120.245 Y96.821 E15.43086
G1 X119.972 Y96.575 E15.44309
G1 X119.758 Y96.407 E15.45214
G1 X119.438 Y96.191 E15.46498
G1 X119.11 Y96.026 E15.47719
G1 X118.877 Y95.926 E15.48562
G1 X118.625 Y95.841 E15.49447
G1 X118.24 Y95.738 E15.50772
G1 X117.884 Y95.69 E15.51967
G1 X117.611 Y95.673 E15.52877
G1 X117.356 Y95.673 E15.53725
G1 X117.104 Y95.692 E15.54566
G1 X116.747 Y95.741 E15.55764
G1 X116.365 Y95.842 E15.57078
G1 X116.064 Y95.95 E15.58142
G1 X115.554 Y96.192 E15.60019
G1 X114.992 Y96.59 E15.6231
G1 X114.697 Y96.667 E15.63324
G1 X98.667 Y96.666 E16.1664
G1 X98.669 Y102.331 E16.35482
G0 F6000 X98.268 Y102.573
;TYPE:WALL-OUTER
G1 F1200 X98.428 Y102.731 E16.3623
G1 X114.737 Y102.736 E16.90474
G1 X115.225 Y103.066 E16.92433
G1 X115.466 Y103.209 E16.93365
G1 X115.719 Y103.336 E16.94307
G1 X115.994 Y103.452 E16.95299
G1 X116.246 Y103.537 E16.96184
G1 X116.521 Y103.612 E16.97132
G1 X116.796 Y103.67 E16.98067
G1 X117.077 Y103.707 E16.99009
G1 X117.358 Y103.727 E16.99946
G1 X117.64 Y103.727 E17.00884
G1 X117.951 Y103.704 E17.01922
G1 X118.332 Y103.651 E17.03201
G1 X118.739 Y103.542 E17.04602
G1 X119.02 Y103.446 E17.0559
G1 X119.28 Y103.336 E17.06529
G1 X119.531 Y103.209 E17.07465
G1 X119.773 Y103.066 E17.08399
G1 X120.006 Y102.905 E17.09341
G1 X120.229 Y102.728 E17.10288
G1 X120.439 Y102.539 E17.11228
G1 X120.658 Y102.312 E17.12277
G1 X120.836 Y102.099 E17.132
G1 X120.988 Y101.892 E17.14055
G1 X121.138 Y101.656 E17.14985
G1 X121.275 Y101.408 E17.15927
G1 X121.394 Y101.152 E17.16866
G1 X121.501 Y100.875 E17.17854
G1 X121.578 Y100.618 E17.18746
G1 X121.645 Y100.341 E17.19694
G1 X121.691 Y100.065 E17.20624
G1 X121.72 Y99.781 E17.21574
G1 X121.729 Y99.472 E17.22602
G1 X121.721 Y99.216 E17.23454
G1 X121.692 Y98.936 E17.2439
G1 X121.645 Y98.658 E17.25328
G1 X121.579 Y98.383 E17.26269
G1 X121.495 Y98.112 E17.27212
G1 X121.394 Y97.849 E17.28149
G1 X121.275 Y97.591 E17.29094
G1 X121.14 Y97.345 E17.30028
G1 X120.971 Y97.083 E17.31065
G1 X120.802 Y96.856 E17.32006
G1 X120.637 Y96.662 E17.32853
G1 X120.442 Y96.46 E17.33787
G1 X120.23 Y96.269 E17.34736
G1 X120.01 Y96.095 E17.35669
G1 X119.778 Y95.936 E17.36604
G1 X119.535 Y95.792 E17.37544
G1 X119.279 Y95.663 E17.38497
