;FLAVOR:Marlin
;TIME:368
;Filament used: 0.115792m
;Layer height: 0.2
;MINX:91.511
;MINY:91.511
;MINZ:0.2
;MAXX:128.49
;MAXY:128.489
;MAXZ:6
;Generated with Cura_SteamEngine main
M82 ;absolute extrusion mode
; Ender 3 Custom Start G-code
G92 E0 ; Reset Extruder
G28 ; Home all axes
M104 S175 ; Start heating up the nozzle most of the way
M190 S60 ; Start heating the bed, wait until target temperature reached
M109 S195.0 ; Finish heating the nozzle
G1 Z2.0 F3000 ; Move Z Axis up little to prevent scratching of Heat Bed
G1 X0.1 Y20 Z0.3 F5000.0 ; Move to start position
G1 X0.1 Y200.0 Z0.3 F1500.0 E15 ; Draw the first line
G1 X0.4 Y200.0 Z0.3 F5000.0 ; Move to side a little
G1 X0.4 Y20 Z0.3 F1500.0 E30 ; Draw the second line
G92 E0 ; Reset Extruder
G1 Z2.0 F3000 ; Move Z Axis up little to prevent scratching of Heat Bed
G1 X5 Y20 Z0.3 F5000.0 ; Move over to prevent blob squish
G92 E0
G92 E0
G1 F1500 E-6.5
;LAYER_COUNT:30
;LAYER:0
M107
G0 F6000 X97.085 Y96.769 Z0.2
G0 X91.511 Y109.876
;TYPE:SKIRT
G1 F1500 E0
G1 F1200 X91.518 Y109.463 E0.01374
G1 X91.542 Y108.889 E0.03285
G1 X91.601 Y108.174 E0.05671
G1 X91.647 Y107.76 E0.07056
G1 X91.737 Y107.121 E0.09203
G1 X91.829 Y106.583 E0.11018
G1 X91.993 Y105.8 E0.13679
G1 X92.094 Y105.391 E0.1508
G1 X92.257 Y104.802 E0.17113
G1 X92.384 Y104.388 E0.18553
G1 X92.551 Y103.886 E0.20312
G1 X92.685 Y103.514 E0.21628
G1 X92.955 Y102.836 E0.24055
G1 X93.136 Y102.422 E0.25558
G1 X93.352 Y101.957 E0.27263
G1 X93.513 Y101.631 E0.28472
G1 X93.805 Y101.08 E0.30546
G1 X94.018 Y100.704 E0.31984
G1 X94.438 Y100.014 E0.3467
G1 X94.845 Y99.41 E0.37093
G1 X95.15 Y98.988 E0.38825
G1 X95.442 Y98.601 E0.40437
G1 X95.923 Y98.01 E0.42971
G1 X96.362 Y97.516 E0.4517
G1 X96.613 Y97.248 E0.46391
G1 X97.085 Y96.769 E0.48627
G1 X97.589 Y96.294 E0.50931
G1 X97.975 Y95.956 E0.52637
G1 X98.333 Y95.657 E0.54189
G1 X98.854 Y95.248 E0.56392
G1 X99.197 Y94.995 E0.57809
G1 X99.705 Y94.642 E0.59867
G1 X100.026 Y94.432 E0.61143
G1 X100.607 Y94.077 E0.63407
G1 X101.106 Y93.793 E0.65317
G1 X101.712 Y93.473 E0.67596
G1 X102.041 Y93.312 E0.68815
G1 X102.543 Y93.081 E0.70652
G1 X102.907 Y92.925 E0.7197
G1 X103.402 Y92.727 E0.73743
G1 X104.173 Y92.453 E0.76464
G1 X104.586 Y92.321 E0.77906
G1 X105.144 Y92.159 E0.79839
G1 X105.449 Y92.079 E0.80888
G1 X106.056 Y91.938 E0.8296
G1 X106.604 Y91.827 E0.8482
G1 X107.302 Y91.709 E0.87175
G1 X107.72 Y91.652 E0.88578
G1 X108.464 Y91.576 E0.91065
G1 X109.011 Y91.539 E0.92889
G1 X109.757 Y91.511 E0.95372
G1 X110.433 Y91.516 E0.9762
G1 X110.929 Y91.535 E0.99271
G1 X111.686 Y91.587 E1.01795
G1 X112.205 Y91.641 E1.0353
G1 X112.971 Y91.753 E1.06105
G1 X113.552 Y91.856 E1.08068
G1 X114.42 Y92.046 E1.11023
G1 X114.878 Y92.166 E1.12598
G1 X115.402 Y92.318 E1.14412
G1 X115.763 Y92.432 E1.15671
G1 X116.283 Y92.61 E1.17499
G1 X116.579 Y92.72 E1.1855
G1 X117.303 Y93.014 E1.21149
G1 X117.866 Y93.27 E1.23206
G1 X118.392 Y93.527 E1.25153
G1 X119.025 Y93.862 E1.27535
G1 X119.664 Y94.24 E1.30004
G1 X120.117 Y94.526 E1.31786
G1 X120.682 Y94.907 E1.34053
G1 X121.372 Y95.421 E1.36914
G1 X121.702 Y95.685 E1.3832
G1 X122.153 Y96.067 E1.40286
G1 X122.459 Y96.34 E1.4165
G1 X122.884 Y96.74 E1.43591
G1 X123.147 Y97.001 E1.44823
G1 X123.566 Y97.44 E1.46842
G1 X123.926 Y97.839 E1.48629
G1 X124.393 Y98.392 E1.51036
G1 X124.603 Y98.658 E1.52164
G1 X125.108 Y99.342 E1.54992
G1 X125.429 Y99.814 E1.5689
G1 X125.681 Y100.206 E1.5844
G1 X126.006 Y100.744 E1.60531
G1 X126.202 Y101.091 E1.61856
G1 X126.49 Y101.637 E1.63909
G1 X126.666 Y101.994 E1.65233
G1 X126.923 Y102.555 E1.67285
G1 X127.116 Y103.009 E1.68926
G1 X127.408 Y103.773 E1.71647
G1 X127.582 Y104.285 E1.73445
G1 X127.818 Y105.058 E1.76133
G1 X128.001 Y105.787 E1.78633
G1 X128.123 Y106.353 E1.80559
G1 X128.245 Y107 E1.82749
G1 X128.332 Y107.602 E1.84772
G1 X128.387 Y108.069 E1.86336
G1 X128.445 Y108.727 E1.88533
G1 X128.469 Y109.146 E1.89929
G1 X128.487 Y109.684 E1.91719
G1 X128.49 Y110.048 E1.9293
G1 X128.476 Y110.7 E1.95099
G1 X128.452 Y111.17 E1.96664
G1 X128.404 Y111.771 E1.98669
G1 X128.304 Y112.614 E2.01493
G1 X128.251 Y112.966 E2.02677
G1 X128.109 Y113.727 E2.05252
G1 X127.987 Y114.273 E2.07112
G1 X127.798 Y115.012 E2.0965
G1 X127.609 Y115.637 E2.11821
G1 X127.45 Y116.11 E2.13481
G1 X127.147 Y116.919 E2.16354
G1 X126.944 Y117.403 E2.181
G1 X126.63 Y118.076 E2.2057
G1 X126.369 Y118.593 E2.22496
G1 X125.99 Y119.282 E2.25112
G1 X125.746 Y119.69 E2.26693
G1 X125.34 Y120.323 E2.29194
G1 X125.046 Y120.745 E2.30905
G1 X124.78 Y121.108 E2.32401
G1 X124.387 Y121.612 E2.34527
G1 X124.04 Y122.032 E2.36339
G1 X123.316 Y122.826 E2.39913
G1 X122.79 Y123.349 E2.4238
G1 X122.198 Y123.896 E2.45061
G1 X121.572 Y124.419 E2.47774
G1 X121.251 Y124.671 E2.49131
G1 X120.738 Y125.051 E2.51255
G1 X120.341 Y125.327 E2.52863
G1 X119.674 Y125.755 E2.55499
G1 X119.229 Y126.019 E2.5722
G1 X118.589 Y126.375 E2.59656
G1 X118.087 Y126.628 E2.61525
G1 X117.721 Y126.801 E2.62872
G1 X117.175 Y127.041 E2.64855
G1 X116.8 Y127.194 E2.66203
G1 X116.244 Y127.404 E2.68179
G1 X115.857 Y127.538 E2.69541
G1 X115.303 Y127.713 E2.71474
G1 X114.467 Y127.94 E2.74355
G1 X113.921 Y128.068 E2.7622
G1 X113.081 Y128.23 E2.79066
G1 X112.58 Y128.307 E2.80752
G1 X112.034 Y128.377 E2.82582
G1 X111.185 Y128.452 E2.85417
G1 X110.362 Y128.485 E2.88157
G1 X109.857 Y128.489 E2.89836
G1 X109.01 Y128.463 E2.92655
G1 X108.49 Y128.427 E2.94388
G1 X107.723 Y128.35 E2.96952
G1 X107.156 Y128.271 E2.98856
G1 X106.406 Y128.137 E3.0139
G1 X105.96 Y128.043 E3.02906
G1 X105.344 Y127.894 E3.05014
G1 X104.965 Y127.791 E3.06321
G1 X104.31 Y127.591 E3.08598
G1 X103.804 Y127.419 E3.10376
G1 X103.118 Y127.16 E3.12815
G1 X102.707 Y126.989 E3.14295
G1 X101.922 Y126.632 E3.17164
G1 X101.398 Y126.367 E3.19117
G1 X101.088 Y126.2 E3.20288
G1 X100.593 Y125.917 E3.22184
G1 X100.17 Y125.66 E3.23831
G1 X99.564 Y125.263 E3.2624
G1 X99.212 Y125.016 E3.2767
G1 X98.728 Y124.657 E3.29675
G1 X98.423 Y124.417 E3.30965
G1 X97.896 Y123.975 E3.33253
G1 X97.502 Y123.623 E3.3501
G1 X97.119 Y123.264 E3.36756
G1 X96.635 Y122.775 E3.39045
G1 X96.044 Y122.126 E3.41964
G1 X95.721 Y121.745 E3.43626
G1 X95.236 Y121.129 E3.46233
G1 X94.952 Y120.741 E3.47832
G1 X94.466 Y120.029 E3.507
G1 X94.097 Y119.431 E3.53037
G1 X93.852 Y119.004 E3.54674
G1 X93.611 Y118.562 E3.56349
G1 X93.284 Y117.901 E3.58801
G1 X93.094 Y117.486 E3.60319
G1 X92.812 Y116.811 E3.62753
G1 X92.629 Y116.329 E3.64467
G1 X92.417 Y115.717 E3.66622
G1 X92.3 Y115.344 E3.67922
G1 X92.132 Y114.752 E3.69969
G1 X92.032 Y114.357 E3.71324
G1 X91.916 Y113.848 E3.7306
G1 X91.84 Y113.474 E3.74329
G1 X91.742 Y112.915 E3.76217
G1 X91.625 Y112.053 E3.7911
G1 X91.59 Y111.708 E3.80264
G1 X91.546 Y111.111 E3.82255
G1 X91.521 Y110.575 E3.84039
G1 X91.511 Y109.876 E3.86365
G0 F6000 X91.911 Y109.882
G1 F1200 X91.918 Y109.469 E3.87738
G1 X91.941 Y108.917 E3.89576
G1 X91.999 Y108.218 E3.91909
G1 X92.045 Y107.804 E3.93294
G1 X92.132 Y107.188 E3.95363
G1 X92.224 Y106.65 E3.97179
G1 X92.381 Y105.896 E3.9974
G1 X92.482 Y105.487 E4.01142
G1 X92.639 Y104.919 E4.03102
G1 X92.766 Y104.505 E4.04542
G1 X92.927 Y104.022 E4.06235
G1 X93.061 Y103.65 E4.0755
G1 X93.322 Y102.996 E4.09892
G1 X93.503 Y102.582 E4.11395
G1 X93.711 Y102.134 E4.13038
G1 X93.872 Y101.808 E4.14247
G1 X94.153 Y101.277 E4.16246
G1 X94.366 Y100.901 E4.17683
G1 X94.777 Y100.226 E4.20311
G1 X95.169 Y99.644 E4.22645
G1 X95.474 Y99.222 E4.24377
G1 X95.756 Y98.85 E4.2593
G1 X96.226 Y98.272 E4.28407
G1 X96.654 Y97.789 E4.30554
G1 X96.905 Y97.521 E4.31775
G1 X97.367 Y97.052 E4.33965
G1 X97.859 Y96.589 E4.36212
G1 X98.231 Y96.263 E4.37857
G1 X98.589 Y95.964 E4.39408
G1 X99.092 Y95.57 E4.41533
G1 X99.435 Y95.317 E4.42951
G1 X99.924 Y94.977 E4.44932
G1 X100.245 Y94.767 E4.46208
G1 X100.805 Y94.425 E4.4839
G1 X101.304 Y94.141 E4.503
G1 X101.888 Y93.832 E4.52497
G1 X102.217 Y93.671 E4.53716
G1 X102.7 Y93.449 E4.55484
G1 X103.064 Y93.293 E4.56801
G1 X103.541 Y93.102 E4.5851
G1 X104.295 Y92.834 E4.61171
G1 X104.708 Y92.702 E4.62613
G1 X105.246 Y92.546 E4.64477
G1 X105.551 Y92.466 E4.65525
G1 X106.136 Y92.33 E4.67523
G1 X106.684 Y92.219 E4.69383
G1 X107.356 Y92.105 E4.7165
G1 X107.774 Y92.048 E4.73053
G1 X108.491 Y91.975 E4.7545
G1 X109.038 Y91.938 E4.77273
G1 X109.767 Y91.911 E4.797
G1 X110.418 Y91.916 E4.81865
G1 X110.914 Y91.935 E4.83516
G1 X111.654 Y91.985 E4.85983
G1 X112.415 Y92.072 E4.8853
G1 X112.901 Y92.147 E4.90166
G1 X113.482 Y92.25 E4.92128
G1 X114.319 Y92.433 E4.94978
G1 X114.777 Y92.553 E4.96553
G1 X115.282 Y92.699 E4.98301
G1 X115.643 Y92.813 E4.9956
G1 X116.143 Y92.985 E5.01319
G1 X116.857 Y93.26 E5.03864
G1 X117.147 Y93.382 E5.0491
G1 X117.69 Y93.629 E5.06894
G1 X118.216 Y93.886 E5.08841
G1 X118.826 Y94.209 E5.11137
G1 X119.451 Y94.578 E5.13551
G1 X119.904 Y94.864 E5.15333
G1 X120.448 Y95.231 E5.17516
G1 X120.703 Y95.415 E5.18562
G1 X121.122 Y95.734 E5.20313
G1 X121.452 Y95.998 E5.21719
G1 X121.887 Y96.365 E5.23612
G1 X122.193 Y96.638 E5.24975
G1 X122.603 Y97.024 E5.26848
G1 X122.866 Y97.285 E5.28081
G1 X123.269 Y97.708 E5.30024
G1 X123.629 Y98.107 E5.31811
G1 X124.079 Y98.64 E5.34131
G1 X124.576 Y99.287 E5.36845
G1 X124.783 Y99.575 E5.38025
G1 X125.092 Y100.03 E5.39854
G1 X125.344 Y100.422 E5.41404
G1 X125.657 Y100.941 E5.4342
G1 X125.853 Y101.288 E5.44745
G1 X126.131 Y101.814 E5.46724
G1 X126.307 Y102.171 E5.48048
G1 X126.555 Y102.711 E5.50024
G1 X126.748 Y103.165 E5.51665
G1 X127.029 Y103.901 E5.54285
G1 X127.203 Y104.413 E5.56084
G1 X127.433 Y105.169 E5.58712
G1 X127.61 Y105.871 E5.6112
G1 X127.732 Y106.437 E5.63046
G1 X127.851 Y107.069 E5.65185
G1 X127.935 Y107.649 E5.67134
G1 X127.99 Y108.116 E5.68698
G1 X128.046 Y108.75 E5.70815
G1 X128.07 Y109.169 E5.72211
G1 X128.087 Y109.688 E5.73938
G1 X128.09 Y110.052 E5.75149
G1 X128.076 Y110.68 E5.77238
G1 X128.052 Y111.15 E5.78803
G1 X128.007 Y111.729 E5.80735
G1 X127.968 Y112.096 E5.81962
G1 X127.856 Y112.906 E5.84682
G1 X127.719 Y113.639 E5.87162
G1 X127.597 Y114.185 E5.89023
G1 X127.412 Y114.908 E5.91505
G1 X127.23 Y115.509 E5.93594
G1 X127.071 Y115.982 E5.95254
G1 X126.894 Y116.469 E5.96977
G1 X126.579 Y117.24 E5.99747
G1 X126.273 Y117.896 E6.02155
G1 X126.012 Y118.413 E6.04081
G1 X125.646 Y119.077 E6.06603
G1 X125.402 Y119.485 E6.08184
G1 X125.006 Y120.102 E6.10622
G1 X124.723 Y120.508 E6.12268
G1 X124.457 Y120.871 E6.13765
G1 X124.079 Y121.357 E6.15813
G1 X123.732 Y121.777 E6.17625
G1 X123.034 Y122.543 E6.21072
G1 X122.508 Y123.066 E6.23539
G1 X121.938 Y123.593 E6.26121
G1 X121.325 Y124.105 E6.28777
G1 X121.004 Y124.357 E6.30135
G1 X120.51 Y124.722 E6.32177
G1 X120.113 Y124.998 E6.33786
G1 X119.47 Y125.411 E6.36327
G1 X119.025 Y125.675 E6.38048
G1 X118.399 Y126.022 E6.40429
G1 X117.916 Y126.266 E6.42229
G1 X117.55 Y126.439 E6.43575
G1 X117.024 Y126.671 E6.45487
G1 X116.649 Y126.824 E6.46834
G1 X116.113 Y127.026 E6.4874
G1 X115.726 Y127.16 E6.50102
G1 X115.192 Y127.329 E6.51965
G1 X114.89 Y127.416 E6.5301
G1 X114.375 Y127.55 E6.5478
G1 X113.829 Y127.678 E6.56645
G1 X113.02 Y127.835 E6.59386
G1 X112.519 Y127.912 E6.61072
G1 X111.993 Y127.979 E6.62836
G1 X111.163 Y128.052 E6.65607
G1 X110.359 Y128.085 E6.68283
G1 X109.854 Y128.089 E6.69963
G1 X109.038 Y128.064 E6.72678
G1 X108.518 Y128.028 E6.74412
G1 X107.768 Y127.953 E6.76919
G1 X107.221 Y127.877 E6.78756
G1 X106.489 Y127.745 E6.81229
G1 X106.043 Y127.651 E6.82745
G1 X105.449 Y127.508 E6.84778
G1 X105.07 Y127.405 E6.86084
G1 X104.439 Y127.212 E6.88279
G1 X103.933 Y127.04 E6.90056
G1 X103.272 Y126.791 E6.92405
G1 X102.861 Y126.62 E6.93886
G1 X102.093 Y126.27 E6.96693
G1 X101.588 Y126.015 E6.98575
G1 X101.278 Y125.848 E6.99746
G1 X100.801 Y125.575 E7.01574
G1 X100.378 Y125.318 E7.0322
G1 X99.793 Y124.936 E7.05544
G1 X99.441 Y124.689 E7.06974
G1 X98.975 Y124.342 E7.08907
G1 X98.67 Y124.102 E7.10197
G1 X98.163 Y123.677 E7.12398
G1 X97.769 Y123.325 E7.14155
G1 X97.399 Y122.978 E7.15842
G1 X96.926 Y122.502 E7.18074
G1 X96.709 Y122.271 E7.19128
G1 X96.35 Y121.868 E7.20923
G1 X96.027 Y121.487 E7.22585
G1 X95.559 Y120.893 E7.251
G1 X95.275 Y120.505 E7.26699
G1 X94.799 Y119.808 E7.29506
G1 X94.444 Y119.232 E7.31757
G1 X94.199 Y118.805 E7.33394
G1 X93.967 Y118.379 E7.35007
G1 X93.648 Y117.735 E7.37398
G1 X93.458 Y117.32 E7.38916
G1 X93.186 Y116.669 E7.41262
G1 X93.003 Y116.187 E7.42977
G1 X92.799 Y115.598 E7.4505
G1 X92.682 Y115.225 E7.46351
G1 X92.52 Y114.653 E7.48328
G1 X92.42 Y114.258 E7.49683
G1 X92.308 Y113.768 E7.51355
G1 X92.232 Y113.394 E7.52624
G1 X92.137 Y112.855 E7.54445
G1 X92.086 Y112.515 E7.55588
G1 X91.988 Y111.668 E7.58424
G1 X91.946 Y111.092 E7.60345
G1 X91.921 Y110.556 E7.6213
G1 X91.911 Y109.882 E7.64372
G0 F6000 X92.31 Y109.889
G1 F1200 X92.317 Y109.476 E7.65746
G1 X92.34 Y108.945 E7.67513
G1 X92.396 Y108.263 E7.69789
G1 X92.442 Y107.849 E7.71175
G1 X92.526 Y107.256 E7.73167
G1 X92.618 Y106.718 E7.74982
G1 X92.769 Y105.992 E7.77448
G1 X92.87 Y105.583 E7.7885
G1 X93.022 Y105.037 E7.80735
G1 X93.149 Y104.623 E7.82175
G1 X93.304 Y104.157 E7.83808
G1 X93.438 Y103.785 E7.85124
G1 X93.688 Y103.156 E7.87375
G1 X93.869 Y102.742 E7.88878
G1 X94.231 Y101.985 E7.91668
G1 X94.501 Y101.474 E7.93591
G1 X94.714 Y101.098 E7.95028
G1 X95.116 Y100.438 E7.97598
G1 X95.493 Y99.878 E7.99844
G1 X95.798 Y99.456 E8.01575
G1 X96.069 Y99.098 E8.03069
G1 X96.528 Y98.533 E8.0549
G1 X96.946 Y98.062 E8.07584
G1 X97.197 Y97.794 E8.08806
G1 X97.649 Y97.336 E8.10946
G1 X98.13 Y96.883 E8.13144
G1 X98.488 Y96.57 E8.14725
G1 X98.846 Y96.271 E8.16277
G1 X99.329 Y95.891 E8.18321
G1 X99.672 Y95.638 E8.19738
G1 X100.143 Y95.311 E8.21645
G1 X100.464 Y95.101 E8.22921
G1 X101.003 Y94.772 E8.25021
G1 X101.502 Y94.488 E8.26931
G1 X102.064 Y94.191 E8.29045
G1 X102.393 Y94.03 E8.30264
G1 X102.858 Y93.817 E8.31965
G1 X103.222 Y93.661 E8.33282
G1 X103.681 Y93.477 E8.34927
G1 X104.417 Y93.215 E8.37525
G1 X104.83 Y93.083 E8.38967
G1 X105.347 Y92.933 E8.40758
G1 X105.652 Y92.853 E8.41806
G1 X106.215 Y92.722 E8.43729
G1 X106.763 Y92.611 E8.45589
G1 X107.41 Y92.502 E8.47771
G1 X107.828 Y92.445 E8.49174
G1 X108.518 Y92.374 E8.51481
G1 X109.065 Y92.337 E8.53305
G1 X109.776 Y92.311 E8.55671
G1 X110.402 Y92.315 E8.57753
G1 X110.898 Y92.334 E8.59404
G1 X111.621 Y92.384 E8.61814
G1 X112.364 Y92.469 E8.64302
G1 X112.831 Y92.541 E8.65873
G1 X113.412 Y92.644 E8.67836
G1 X114.217 Y92.82 E8.70577
G1 X114.675 Y92.94 E8.72151
G1 X115.162 Y93.08 E8.73837
G1 X115.523 Y93.194 E8.75096
G1 X116.004 Y93.36 E8.76788
G1 X116.702 Y93.629 E8.79276
G1 X116.992 Y93.751 E8.80323
G1 X117.515 Y93.988 E8.82232
G1 X118.041 Y94.245 E8.8418
G1 X118.628 Y94.556 E8.86389
G1 X119.237 Y94.916 E8.88742
G1 X119.69 Y95.202 E8.90524
G1 X120.213 Y95.556 E8.92624
G1 X120.872 Y96.046 E8.95356
G1 X121.202 Y96.31 E8.96761
G1 X121.62 Y96.664 E8.98583
G1 X121.926 Y96.937 E8.99947
G1 X122.321 Y97.308 E9.01749
G1 X122.584 Y97.569 E9.02982
G1 X122.972 Y97.976 E9.04852
G1 X123.332 Y98.375 E9.06639
G1 X123.765 Y98.888 E9.08872
G1 X124.252 Y99.521 E9.11529
G1 X124.459 Y99.809 E9.12708
G1 X124.756 Y100.246 E9.14466
G1 X125.008 Y100.638 E9.16016
G1 X125.309 Y101.138 E9.17957
G1 X125.505 Y101.485 E9.19282
G1 X125.773 Y101.991 E9.21187
G1 X125.949 Y102.348 E9.2251
G1 X126.187 Y102.867 E9.2441
G1 X126.38 Y103.321 E9.2605
G1 X126.651 Y104.03 E9.28575
G1 X126.825 Y104.542 E9.30373
G1 X127.049 Y105.28 E9.32939
G1 X127.219 Y105.956 E9.35257
G1 X127.341 Y106.522 E9.37183
G1 X127.456 Y107.137 E9.39264
G1 X127.538 Y107.696 E9.41143
G1 X127.593 Y108.163 E9.42707
G1 X127.646 Y108.773 E9.44743
G1 X127.67 Y109.192 E9.46139
G1 X127.687 Y109.691 E9.478
G1 X127.69 Y110.055 E9.49011
G1 X127.677 Y110.659 E9.5102
G1 X127.653 Y111.129 E9.52585
G1 X127.609 Y111.687 E9.54447
G1 X127.57 Y112.054 E9.55674
G1 X127.46 Y112.847 E9.58337
G1 X127.329 Y113.552 E9.60722
G1 X127.207 Y114.098 E9.62583
G1 X127.026 Y114.803 E9.65004
G1 X126.85 Y115.382 E9.67017
G1 X126.691 Y115.855 E9.68676
G1 X126.521 Y116.323 E9.70332
G1 X126.214 Y117.076 E9.73037
G1 X125.915 Y117.716 E9.75387
G1 X125.654 Y118.233 E9.77313
G1 X125.303 Y118.871 E9.79735
G1 X125.059 Y119.279 E9.81316
G1 X124.673 Y119.881 E9.83694
G1 X124.4 Y120.272 E9.85281
G1 X124.134 Y120.635 E9.86777
