;FLAVOR:Marlin
;TIME:11356
;Filament used: 7.18571m
;Layer height: 0.2
;MINX:65.359
;MINY:57.643
;MINZ:0.2
;MAXX:154.641
;MAXY:162.458
;MAXZ:23.6
;Generated with Cura_SteamEngine main
M82 ;absolute extrusion mode
; Ender 3 Custom Start G-code
G92 E0 ; Reset Extruder
G28 ; Home all axes
M104 S175 ; Start heating up the nozzle most of the way
M190 S60 ; Start heating the bed, wait until target temperature reached
M109 S195.0 ; Finish heating the nozzle
G1 Z2.0 F3000 ; Move Z Axis up little to prevent scratching of Heat Bed
G1 X0.1 Y20 Z0.3 F5000.0 ; Move to start position
G1 X0.1 Y200.0 Z0.3 F1500.0 E15 ; Draw the first line
G1 X0.4 Y200.0 Z0.3 F5000.0 ; Move to side a little
G1 X0.4 Y20 Z0.3 F1500.0 E30 ; Draw the second line
G92 E0 ; Reset Extruder
G1 Z2.0 F3000 ; Move Z Axis up little to prevent scratching of Heat Bed
G1 X5 Y20 Z0.3 F5000.0 ; Move over to prevent blob squish
G92 E0
G92 E0
G1 F1500 E-6.5
;LAYER_COUNT:118
;LAYER:0
M107
G0 F6000 X68.601 Y61.315 Z0.2
G0 X65.359 Y69.884
;TYPE:SKIRT
G1 F1500 E0
G1 F1200 X65.372 Y69.082 E0.02668
G1 X65.428 Y68.145 E0.0579
G1 X65.562 Y67.217 E0.08908
G1 X65.776 Y66.304 E0.12027
G1 X66.066 Y65.412 E0.15147
G1 X66.431 Y64.548 E0.18267
G1 X66.74 Y63.945 E0.2052
G1 X66.942 Y63.579 E0.21911
G1 X67.43 Y62.778 E0.2503
G1 X67.984 Y62.021 E0.2815
G1 X68.601 Y61.315 E0.31269
G1 X69.276 Y60.663 E0.3439
G1 X69.697 Y60.308 E0.36222
G1 X69.938 Y60.115 E0.37249
G1 X70.694 Y59.56 E0.40368
G1 X71.495 Y59.072 E0.43488
G1 X72.335 Y58.654 E0.46608
G1 X73.207 Y58.309 E0.49727
G1 X74.105 Y58.04 E0.52845
G1 X75.16 Y57.826 E0.56426
G1 X75.423 Y57.786 E0.5731
G1 X76.355 Y57.685 E0.60428
G1 X77.293 Y57.663 E0.63549
G1 X77.793 Y57.684 E0.65213
G1 X80.099 Y57.834 E0.72899
G1 X82.665 Y57.935 E0.81441
G1 X84.934 Y57.964 E0.88988
G1 X134.601 Y57.964 E2.54181
G1 X137.209 Y57.927 E2.62856
G1 X139.736 Y57.82 E2.71269
G1 X142.017 Y57.666 E2.78872
G1 X142.954 Y57.643 E2.8199
G1 X143.946 Y57.705 E2.85296
G1 X144.369 Y57.751 E2.86711
G1 X145.296 Y57.893 E2.8983
G1 X146.208 Y58.112 E2.9295
G1 X147.098 Y58.408 E2.96069
G1 X147.959 Y58.78 E2.99189
G1 X148.786 Y59.223 E3.02309
G1 X149.572 Y59.735 E3.05429
G1 X150.244 Y60.255 E3.08255
G1 X150.466 Y60.441 E3.09219
G1 X151.159 Y61.074 E3.1234
G1 X151.795 Y61.763 E3.15459
G1 X152.587 Y62.82 E3.19852
G1 X152.815 Y63.166 E3.2123
G1 X153.297 Y63.971 E3.24351
G1 X153.709 Y64.813 E3.27469
G1 X154.048 Y65.688 E3.3059
G1 X154.311 Y66.588 E3.33708
G1 X154.496 Y67.508 E3.36829
G1 X154.602 Y68.439 E3.39946
G1 X154.628 Y69.036 E3.41934
G1 X154.641 Y69.879 E3.44738
G1 X154.641 Y150.166 E6.11773
G1 X154.628 Y151.01 E6.14581
G1 X154.573 Y151.947 E6.17703
G1 X154.439 Y152.875 E6.20821
G1 X154.227 Y153.788 E6.23939
G1 X153.937 Y154.68 E6.27058
G1 X153.573 Y155.545 E6.3018
G1 X153.253 Y156.167 E6.32506
G1 X153.051 Y156.532 E6.33894
G1 X152.563 Y157.333 E6.37013
G1 X152.008 Y158.089 E6.40133
G1 X151.39 Y158.795 E6.43253
G1 X150.715 Y159.445 E6.4637
G1 X150.249 Y159.835 E6.48391
G1 X149.996 Y160.035 E6.49464
G1 X149.236 Y160.585 E6.52584
G1 X148.432 Y161.068 E6.55704
G1 X147.59 Y161.481 E6.58823
G1 X146.715 Y161.82 E6.61944
G1 X145.815 Y162.084 E6.65063
G1 X144.775 Y162.289 E6.68589
G1 X144.442 Y162.338 E6.69709
G1 X143.51 Y162.435 E6.72825
G1 X142.671 Y162.458 E6.75617
G1 X141.834 Y162.427 E6.78403
G1 X140.489 Y162.333 E6.82887
G1 X137.942 Y162.202 E6.91369
G1 X134.453 Y162.136 E7.02976
G1 X85.399 Y162.136 E8.6613
G1 X82.791 Y162.173 E8.74805
G1 X80.264 Y162.28 E8.83218
G1 X77.983 Y162.434 E8.90822
G1 X77.046 Y162.457 E8.93939
G1 X76.054 Y162.395 E8.97245
G1 X75.631 Y162.349 E8.9866
G1 X74.704 Y162.207 E9.01779
G1 X73.792 Y161.988 E9.04899
G1 X72.902 Y161.692 E9.08018
G1 X72.041 Y161.32 E9.11138
G1 X71.214 Y160.877 E9.14258
G1 X70.428 Y160.365 E9.17378
G1 X69.756 Y159.845 E9.20204
G1 X69.534 Y159.659 E9.21168
G1 X68.841 Y159.026 E9.24289
G1 X68.205 Y158.337 E9.27408
G1 X67.413 Y157.28 E9.31801
G1 X67.185 Y156.934 E9.33179
G1 X66.703 Y156.129 E9.363
G1 X66.291 Y155.287 E9.39418
G1 X65.952 Y154.412 E9.42539
G1 X65.689 Y153.512 E9.45657
G1 X65.504 Y152.592 E9.48779
G1 X65.398 Y151.661 E9.51895
G1 X65.371 Y151.05 E9.53929
G1 X65.36 Y150.334 E9.56311
G1 X65.359 Y69.884 E12.23889
G0 F6000 X65.759 Y69.89
G1 F1200 X65.772 Y69.088 E12.26557
G1 X65.827 Y68.169 E12.29619
G1 X65.962 Y67.258 E12.32682
G1 X66.175 Y66.363 E12.35742
G1 X66.465 Y65.489 E12.38805
G1 X66.829 Y64.644 E12.41865
G1 X67.091 Y64.138 E12.4376
G1 X67.293 Y63.772 E12.4515
G1 X67.772 Y62.986 E12.48212
G1 X68.318 Y62.245 E12.51273
G1 X68.926 Y61.553 E12.54337
G1 X69.592 Y60.918 E12.57398
G1 X70.188 Y60.427 E12.59966
G1 X70.931 Y59.883 E12.63029
G1 X71.718 Y59.406 E12.66089
G1 X72.544 Y58.999 E12.69152
G1 X73.402 Y58.665 E12.72214
G1 X74.286 Y58.407 E12.75277
G1 X75.22 Y58.222 E12.78444
G1 X75.483 Y58.182 E12.79329
G1 X76.398 Y58.083 E12.8239
G1 X77.767 Y58.083 E12.86943
G1 X80.096 Y58.235 E12.94706
G1 X82.644 Y58.335 E13.03187
G1 X84.929 Y58.364 E13.10788
G1 X134.607 Y58.364 E14.76018
G1 X137.232 Y58.327 E14.84749
G1 X139.74 Y58.22 E14.93098
G1 X142.044 Y58.065 E15.00779
G1 X142.964 Y58.043 E15.0384
G1 X143.903 Y58.103 E15.06969
G1 X144.326 Y58.149 E15.08384
G1 X145.236 Y58.288 E15.11446
G1 X146.131 Y58.506 E15.1451
G1 X147.003 Y58.8 E15.17571
G1 X147.846 Y59.169 E15.20631
G1 X148.655 Y59.61 E15.23696
G1 X149.422 Y60.119 E15.26758
G1 X149.988 Y60.562 E15.29148
G1 X150.21 Y60.748 E15.30112
G1 X150.889 Y61.369 E15.33172
G1 X151.512 Y62.047 E15.36234
G1 X152.253 Y63.04 E15.40355
G1 X152.481 Y63.386 E15.41734
G1 X152.954 Y64.177 E15.44799
G1 X153.356 Y65.005 E15.4786
G1 X153.685 Y65.864 E15.5092
G1 X153.938 Y66.75 E15.53984
G1 X154.114 Y67.653 E15.57044
G1 X154.21 Y68.569 E15.60108
G1 X154.229 Y69.042 E15.61682
G1 X154.24 Y69.702 E15.63878
G1 X154.241 Y150.16 E18.31482
G1 X154.228 Y151.004 E18.34289
G1 X154.174 Y151.923 E18.37351
G1 X154.04 Y152.834 E18.40414
G1 X153.828 Y153.73 E18.43476
G1 X153.539 Y154.604 E18.46538
G1 X153.175 Y155.45 E18.49601
G1 X152.903 Y155.974 E18.51565
G1 X152.701 Y156.339 E18.52952
G1 X152.221 Y157.124 E18.56013
G1 X151.674 Y157.865 E18.59076
G1 X151.065 Y158.555 E18.62137
G1 X150.399 Y159.19 E18.65198
G1 X150.001 Y159.522 E18.66922
G1 X149.748 Y159.722 E18.67994
G1 X149.001 Y160.261 E18.71058
G1 X148.211 Y160.733 E18.74119
G1 X147.383 Y161.135 E18.7718
G1 X146.523 Y161.463 E18.80241
G1 X145.637 Y161.716 E18.83306
G1 X144.717 Y161.893 E18.86422
G1 X144.384 Y161.942 E18.87542
G1 X143.468 Y162.036 E18.90604
G1 X142.674 Y162.059 E18.93246
G1 X141.861 Y162.028 E18.95952
G1 X140.534 Y161.936 E19.00376
G1 X137.94 Y161.802 E19.09016
G1 X134.46 Y161.736 E19.20592
G1 X85.393 Y161.736 E20.8379
G1 X82.768 Y161.773 E20.92521
G1 X80.26 Y161.88 E21.00871
G1 X77.956 Y162.035 E21.08551
G1 X77.036 Y162.057 E21.11612
G1 X76.097 Y161.997 E21.14741
G1 X75.674 Y161.951 E21.16157
G1 X74.764 Y161.812 E21.19218
G1 X73.869 Y161.594 E21.22282
G1 X72.997 Y161.3 E21.25343
G1 X72.154 Y160.931 E21.28404
G1 X71.345 Y160.49 E21.31468
G1 X70.578 Y159.981 E21.3453
G1 X70.012 Y159.538 E21.3692
G1 X69.79 Y159.352 E21.37884
G1 X69.111 Y158.731 E21.40944
G1 X68.488 Y158.053 E21.44007
G1 X67.747 Y157.06 E21.48128
G1 X67.519 Y156.714 E21.49506
G1 X67.046 Y155.923 E21.52571
G1 X66.644 Y155.095 E21.55632
G1 X66.315 Y154.236 E21.58692
G1 X66.062 Y153.35 E21.61757
G1 X65.886 Y152.447 E21.64816
G1 X65.79 Y151.531 E21.6788
G1 X65.771 Y151.044 E21.69501
G1 X65.76 Y150.328 E21.71882
G1 X65.759 Y69.89 E24.3942
G0 F6000 X66.159 Y69.897
G1 F1200 X66.172 Y69.095 E24.42088
G1 X66.227 Y68.193 E24.45094
G1 X66.361 Y67.3 E24.48097
G1 X66.574 Y66.422 E24.51102
G1 X66.863 Y65.567 E24.54104
G1 X67.227 Y64.74 E24.57109
G1 X67.643 Y63.965 E24.60035
G1 X68.114 Y63.195 E24.63037
G1 X68.651 Y62.469 E24.6604
G1 X69.25 Y61.793 E24.69044
G1 X70.197 Y60.932 E24.73301
G1 X70.438 Y60.739 E24.74328
G1 X71.167 Y60.207 E24.7733
G1 X71.941 Y59.74 E24.80337
G1 X72.752 Y59.345 E24.83337
G1 X73.596 Y59.022 E24.86343
G1 X74.465 Y58.775 E24.89347
G1 X75.28 Y58.617 E24.92108
G1 X75.543 Y58.577 E24.92993
G1 X76.441 Y58.481 E24.95997
G1 X77.741 Y58.483 E25.00321
G1 X80.055 Y58.634 E25.08034
G1 X82.623 Y58.735 E25.16581
G1 X84.924 Y58.764 E25.24235
G1 X134.613 Y58.764 E26.89502
G1 X137.219 Y58.727 E26.9817
G1 X139.784 Y58.618 E27.06709
G1 X142.071 Y58.464 E27.14333
G1 X142.974 Y58.443 E27.17337
G1 X143.86 Y58.501 E27.2029
G1 X144.283 Y58.547 E27.21705
G1 X145.175 Y58.684 E27.24707
G1 X146.052 Y58.9 E27.27711
G1 X146.907 Y59.192 E27.30716
G1 X147.732 Y59.559 E27.33719
G1 X148.522 Y59.997 E27.36724
G1 X149.269 Y60.504 E27.39726
G1 X149.731 Y60.868 E27.41683
G1 X149.953 Y61.054 E27.42646
G1 X150.619 Y61.665 E27.45652
G1 X151.228 Y62.331 E27.48654
G1 X151.919 Y63.261 E27.52507
G1 X152.147 Y63.607 E27.53885
G1 X152.61 Y64.382 E27.56888
G1 X153.003 Y65.195 E27.59891
G1 X153.322 Y66.04 E27.62895
G1 X153.565 Y66.91 E27.659
G1 X153.73 Y67.798 E27.68904
G1 X153.829 Y69.049 E27.73078
G1 X153.84 Y69.709 E27.75273
G1 X153.841 Y150.154 E30.42834
G1 X153.828 Y150.998 E30.45642
G1 X153.774 Y151.9 E30.48647
G1 X153.641 Y152.793 E30.5165
G1 X153.429 Y153.671 E30.54654
G1 X153.14 Y154.526 E30.57656
G1 X152.777 Y155.353 E30.6066
G1 X152.351 Y156.145 E30.63651
G1 X151.88 Y156.915 E30.66653
G1 X151.341 Y157.64 E30.69658
G1 X150.741 Y158.315 E30.72662
G1 X149.752 Y159.208 E30.77094
G1 X149.499 Y159.408 E30.78166
G1 X148.767 Y159.936 E30.81168
G1 X147.991 Y160.397 E30.8417
G1 X147.176 Y160.788 E30.87177
G1 X146.331 Y161.105 E30.90179
G1 X145.46 Y161.346 E30.93184
G1 X144.659 Y161.497 E30.95895
G1 X144.326 Y161.546 E30.97015
G1 X143.427 Y161.638 E31.00021
G1 X142.673 Y161.658 E31.02529
G1 X141.889 Y161.629 E31.05139
G1 X140.529 Y161.534 E31.09673
G1 X137.967 Y161.402 E31.18206
G1 X134.468 Y161.336 E31.29845
G1 X85.387 Y161.336 E32.9309
G1 X82.781 Y161.373 E33.01758
G1 X80.216 Y161.482 E33.10297
G1 X77.929 Y161.636 E33.17921
G1 X77.026 Y161.657 E33.20925
G1 X76.14 Y161.599 E33.23878
G1 X75.717 Y161.553 E33.25293
G1 X74.825 Y161.416 E33.28295
G1 X73.948 Y161.2 E33.31299
G1 X73.093 Y160.908 E33.34304
G1 X72.268 Y160.541 E33.37307
G1 X71.478 Y160.103 E33.40312
G1 X70.731 Y159.596 E33.43314
G1 X70.269 Y159.232 E33.45271
G1 X70.047 Y159.046 E33.46234
G1 X69.381 Y158.435 E33.4924
G1 X68.772 Y157.769 E33.52242
G1 X68.081 Y156.839 E33.56095
G1 X67.853 Y156.493 E33.57473
G1 X67.39 Y155.718 E33.60476
G1 X66.997 Y154.905 E33.63479
G1 X66.678 Y154.06 E33.66483
G1 X66.435 Y153.19 E33.69488
G1 X66.27 Y152.302 E33.72492
G1 X66.171 Y151.038 E33.76709
G1 X66.16 Y150.322 E33.79091
G1 X66.159 Y69.897 E36.46585
G1 F1500 E29.96585
G0 F6000 X75.694 Y69.385
G0 X76.558 Y69.384
;TYPE:SUPPORT-INTERFACE
G1 F1500 E36.46585
G1 F1200 X76.589 Y69.232 E36.47101
G1 X76.706 Y69.029 E36.4788
G1 X76.803 Y68.933 E36.48334
G1 X76.821 Y68.922 E36.48405
G1 X76.731 Y69.271 E36.49603
G1 X76.735 Y151.025 E39.21518
G1 X76.84 Y151.195 E39.22183
G1 X76.733 Y151.102 E39.22654
G1 X76.588 Y150.872 E39.23559
G1 X76.559 Y150.77 E39.23911
G1 X76.558 Y69.384 E41.94602
G1 F1500 E35.44602
G0 F6000 X75.71 Y69.214
G0 X75.77 Y68.923
G0 X76.017 Y68.495
G0 X76.263 Y68.253
G0 X76.606 Y68.037
G0 X77.019 Y67.983
G0 X141.713 Y68.3
G0 X142.13 Y68.402
G0 X143.16 Y68.905
G1 F1500 E41.94602
G1 F1200 X143.267 Y68.998 E41.95074
G1 X143.412 Y69.228 E41.95978
G1 X143.441 Y69.33 E41.96331
G1 X143.442 Y150.716 E44.67022
G1 X143.411 Y150.868 E44.67538
G1 X143.294 Y151.071 E44.68317
G1 X143.195 Y151.168 E44.68778
G1 X143.163 Y151.188 E44.68903
G1 X143.269 Y150.86 E44.7005
G1 X143.265 Y69.075 E47.42068
G1 X143.16 Y68.905 E47.42733
G1 F1500 E40.92733
;MESH:Uno_CNC_Bottom.stl
G0 F6000 X141.466 Y69.764
G0 X78.336 Y150.536
;TYPE:WALL-INNER
G1 F1500 E47.42733
G1 F1200 X141.669 Y150.536 E49.53379
G1 X141.666 Y69.587 E52.22616
G1 X141.563 Y69.564 E52.22967
G1 X78.331 Y69.564 E54.33278
G1 X78.336 Y150.536 E57.02592
G0 F6000 X78.005 Y150.796
;TYPE:WALL-OUTER
G1 F1200 X78.16 Y150.881 E57.0318
G1 X78.391 Y150.936 E57.0397
G1 X141.583 Y150.936 E59.14147
G1 X141.963 Y150.822 E59.15467
G1 X142.069 Y150.717 E59.15963
G1 X142.066 Y69.483 E61.86148
G1 X141.996 Y69.303 E61.86791
G1 X141.841 Y69.219 E61.87377
G1 X141.609 Y69.164 E61.8817
G1 X78.417 Y69.164 E63.98347
G1 X78.038 Y69.279 E63.99665
G1 X77.931 Y69.397 E64.00195
G1 X77.936 Y150.684 E66.70556
G1 X78.005 Y150.796 E66.70994
G0 F6000 X78.695 Y150.176
;TYPE:SKIN
G1 F1200 X141.308 Y150.176 E68.79245
G1 X141.307 Y101.231 E70.42037
G1 X141.306 Y69.924 E71.46165
G1 X78.693 Y69.924 E73.54416
G1 X78.695 Y150.176 E76.21336
G0 F6000 X79.264 Y149.975
G1 F1200 X78.894 Y149.605 E76.23076
G0 F6000 X78.894 Y149.039
G1 F1200 X79.83 Y149.975 E76.27479
G0 F6000 X80.395 Y149.975
G1 F1200 X78.894 Y148.474 E76.34539
G0 F6000 X78.894 Y147.908
G1 F1200 X80.961 Y149.975 E76.44261
G0 F6000 X81.527 Y149.975
G1 F1200 X78.894 Y147.342 E76.56646
G0 F6000 X78.894 Y146.776
G1 F1200 X82.092 Y149.975 E76.71691
G0 F6000 X82.658 Y149.975
G1 F1200 X78.894 Y146.211 E76.89396
G0 F6000 X78.894 Y145.645
G1 F1200 X83.224 Y149.975 E77.09763
G0 F6000 X83.79 Y149.975
G1 F1200 X78.894 Y145.079 E77.32792
G0 F6000 X78.894 Y144.514
G1 F1200 X84.355 Y149.975 E77.58479
G0 F6000 X84.921 Y149.975
G1 F1200 X78.894 Y143.948 E77.86828
G0 F6000 X78.894 Y143.382
G1 F1200 X85.487 Y149.975 E78.17839
G0 F6000 X86.052 Y149.975
G1 F1200 X78.894 Y142.817 E78.51508
G0 F6000 X78.894 Y142.251
G1 F1200 X86.618 Y149.975 E78.8784
G0 F6000 X87.184 Y149.975
G1 F1200 X78.894 Y141.685 E79.26833
G0 F6000 X78.894 Y141.12
G1 F1200 X87.749 Y149.975 E79.68485
G0 F6000 X88.315 Y149.975
G1 F1200 X78.894 Y140.554 E80.12798
G0 F6000 X78.894 Y139.988
G1 F1200 X88.881 Y149.975 E80.59774
G0 F6000 X89.446 Y149.975
G1 F1200 X78.894 Y139.423 E81.09407
G0 F6000 X78.894 Y138.857
G1 F1200 X90.012 Y149.975 E81.61703
G0 F6000 X90.578 Y149.975
G1 F1200 X78.894 Y138.291 E82.16661
G0 F6000 X78.894 Y137.726
G1 F1200 X91.143 Y149.975 E82.74276
G0 F6000 X91.709 Y149.975
G1 F1200 X78.894 Y137.16 E83.34554
G0 F6000 X78.894 Y136.594
G1 F1200 X92.275 Y149.975 E83.97494
G0 F6000 X92.84 Y149.975
G1 F1200 X78.894 Y136.028 E84.63094
G0 F6000 X78.894 Y135.463
G1 F1200 X93.406 Y149.975 E85.31354
G0 F6000 X93.972 Y149.975
G1 F1200 X78.894 Y134.897 E86.02277
G0 F6000 X78.894 Y134.331
G1 F1200 X94.538 Y149.975 E86.75861
G0 F6000 X95.103 Y149.975
G1 F1200 X78.894 Y133.765 E87.52106
G0 F6000 X78.894 Y133.199
G1 F1200 X95.669 Y149.975 E88.31013
G0 F6000 X96.235 Y149.975
G1 F1200 X78.894 Y132.634 E89.12579
G0 F6000 X78.894 Y132.068
G1 F1200 X96.8 Y149.975 E89.96806
G0 F6000 X97.366 Y149.975
G1 F1200 X78.894 Y131.502 E90.83695
G0 F6000 X78.894 Y130.937
G1 F1200 X97.932 Y149.975 E91.73244
G0 F6000 X98.497 Y149.975
G1 F1200 X78.894 Y130.371 E92.65453
G0 F6000 X78.894 Y129.805
G1 F1200 X99.063 Y149.975 E93.60324
G0 F6000 X99.629 Y149.975
G1 F1200 X78.894 Y129.24 E94.57855
G0 F6000 X78.894 Y128.674
G1 F1200 X100.194 Y149.975 E95.58046
G0 F6000 X100.76 Y149.975
G1 F1200 X78.894 Y128.108 E96.60899
G0 F6000 X78.894 Y127.542
G1 F1200 X101.326 Y149.975 E97.66415
G0 F6000 X101.891 Y149.975
G1 F1200 X78.894 Y126.977 E98.74588
G0 F6000 X78.894 Y126.411
G1 F1200 X102.457 Y149.975 E99.85424
G0 F6000 X103.023 Y149.975
G1 F1200 X78.894 Y125.845 E100.98921
G0 F6000 X78.894 Y125.28
G1 F1200 X103.589 Y149.975 E102.15079
G0 F6000 X104.154 Y149.975
G1 F1200 X78.894 Y124.714 E103.33897
G0 F6000 X78.894 Y124.148
G1 F1200 X104.72 Y149.975 E104.55377
G0 F6000 X105.286 Y149.975
G1 F1200 X78.894 Y123.583 E105.79517
G0 F6000 X78.894 Y123.017
G1 F1200 X105.851 Y149.975 E107.06316
G0 F6000 X106.417 Y149.975
G1 F1200 X78.894 Y122.451 E108.35778
G0 F6000 X78.894 Y121.886
G1 F1200 X106.983 Y149.975 E109.67901
G0 F6000 X107.548 Y149.975
G1 F1200 X78.894 Y121.32 E111.02683
G0 F6000 X78.894 Y120.754
G1 F1200 X108.114 Y149.975 E112.40127
G0 F6000 X108.68 Y149.975
G1 F1200 X78.894 Y120.189 E113.80231
G0 F6000 X78.894 Y119.623
G1 F1200 X109.245 Y149.975 E115.22995
G0 F6000 X109.811 Y149.975
G1 F1200 X78.894 Y119.057 E116.68422
G0 F6000 X78.894 Y118.492
G1 F1200 X110.377 Y149.975 E118.16508
G0 F6000 X110.942 Y149.975
G1 F1200 X78.893 Y117.925 E119.67259
G0 F6000 X78.893 Y117.359
