;FLAVOR:Marlin
;TIME:2494
;Filament used: 1.36927m
;Layer height: 0.2
;MINX:76.567
;MINY:84.879
;MINZ:0.2
;MAXX:144
;MAXY:135.914
;MAXZ:17.8
;Generated with Cura_SteamEngine main
M82 ;absolute extrusion mode
; Ender 3 Custom Start G-code
G92 E0 ; Reset Extruder
G28 ; Home all axes
M104 S175 ; Start heating up the nozzle most of the way
M190 S60 ; Start heating the bed, wait until target temperature reached
M109 S195.0 ; Finish heating the nozzle
G1 Z2.0 F3000 ; Move Z Axis up little to prevent scratching of Heat Bed
G1 X0.1 Y20 Z0.3 F5000.0 ; Move to start position
G1 X0.1 Y200.0 Z0.3 F1500.0 E15 ; Draw the first line
G1 X0.4 Y200.0 Z0.3 F5000.0 ; Move to side a little
G1 X0.4 Y20 Z0.3 F1500.0 E30 ; Draw the second line
G92 E0 ; Reset Extruder
G1 Z2.0 F3000 ; Move Z Axis up little to prevent scratching of Heat Bed
G1 X5 Y20 Z0.3 F5000.0 ; Move over to prevent blob squish
G92 E0
G92 E0
G1 F1500 E-6.5
;LAYER_COUNT:89
;LAYER:0
M107
G0 F6000 X80.589 Y95.371 Z0.2
G0 X76.569 Y105.017
;TYPE:SKIRT
G1 F1500 E0
G1 F1200 X76.577 Y104.438 E0.01926
G1 X76.638 Y103.422 E0.05311
G1 X76.682 Y103.01 E0.06689
G1 X76.821 Y102.082 E0.0981
G1 X77.039 Y101.17 E0.12929
G1 X77.262 Y100.465 E0.15388
G1 X77.597 Y99.589 E0.18508
G1 X78.133 Y98.511 E0.22512
G1 X78.3 Y98.217 E0.23637
G1 X78.798 Y97.422 E0.26757
G1 X79.361 Y96.672 E0.29876
G1 X79.925 Y96.033 E0.32711
G1 X80.589 Y95.371 E0.35829
G1 X81.515 Y94.609 E0.39818
G1 X81.827 Y94.38 E0.41105
G1 X82.606 Y93.858 E0.44224
G1 X83.427 Y93.404 E0.47344
G1 X84.102 Y93.095 E0.49813
G1 X84.349 Y92.992 E0.50703
G1 X85.174 Y92.687 E0.53629
G1 X87.355 Y91.976 E0.61259
G1 X89.804 Y91.107 E0.69902
G1 X92.118 Y90.211 E0.78155
G1 X94.409 Y89.249 E0.86419
G1 X96.739 Y88.192 E0.94929
G1 X99 Y87.089 E1.03296
G1 X99.784 Y86.678 E1.06241
G1 X100.925 Y86.097 E1.10499
G1 X101.778 Y85.707 E1.13619
G1 X102.661 Y85.392 E1.16737
G1 X103.568 Y85.153 E1.19857
G1 X104.492 Y84.992 E1.22976
G1 X105.694 Y84.901 E1.26985
G1 X106.735 Y84.88 E1.30449
G1 X113.449 Y84.879 E1.52779
G1 X114.223 Y84.89 E1.55354
G1 X115.16 Y84.943 E1.58475
G1 X116.088 Y85.076 E1.61593
G1 X117.002 Y85.288 E1.64714
G1 X117.894 Y85.576 E1.67832
G1 X119.085 Y86.1 E1.7216
G1 X121.7 Y87.441 E1.81934
G1 X123.975 Y88.525 E1.90316
G1 X126.279 Y89.543 E1.98694
G1 X128.632 Y90.505 E2.07148
G1 X130.945 Y91.374 E2.15367
G1 X133.782 Y92.344 E2.25339
G1 X134.932 Y92.717 E2.2936
G1 X135.812 Y93.043 E2.32481
G1 X136.66 Y93.444 E2.35601
G1 X137.289 Y93.802 E2.38008
G1 X137.666 Y94.033 E2.39479
G1 X138.444 Y94.556 E2.42597
G1 X139.175 Y95.144 E2.45717
G1 X139.853 Y95.792 E2.48836
G1 X140.255 Y96.235 E2.50826
G1 X140.552 Y96.58 E2.5234
G1 X141.133 Y97.317 E2.55461
G1 X141.65 Y98.1 E2.58582
G1 X142.097 Y98.924 E2.617
G1 X142.395 Y99.587 E2.64118
G1 X142.547 Y99.958 E2.65451
G1 X142.865 Y100.84 E2.6857
G1 X143.107 Y101.746 E2.71689
G1 X143.227 Y102.375 E2.73818
G1 X143.284 Y102.728 E2.75008
G1 X143.394 Y103.659 E2.78126
G1 X143.421 Y104.17 E2.79828
G1 X143.435 Y104.839 E2.82053
G1 X143.433 Y110.751 E3.01717
G1 X143.469 Y113.36 E3.10395
G1 X143.574 Y115.845 E3.18668
G1 X143.755 Y118.416 E3.2724
G1 X143.944 Y120.472 E3.34107
G1 X143.987 Y121.235 E3.36649
G1 X144 Y122.01 E3.39227
G1 X143.991 Y123.251 E3.43355
G1 X143.944 Y124.187 E3.46472
G1 X143.818 Y125.117 E3.49593
G1 X143.612 Y126.032 E3.52713
G1 X143.33 Y126.926 E3.55831
G1 X142.973 Y127.793 E3.58949
G1 X142.543 Y128.627 E3.6207
G1 X142.043 Y129.421 E3.65191
G1 X141.478 Y130.169 E3.68309
G1 X140.851 Y130.867 E3.71429
G1 X140.167 Y131.508 E3.74547
G1 X139.431 Y132.089 E3.77666
G1 X138.647 Y132.605 E3.80788
G1 X137.823 Y133.053 E3.83907
G1 X136.964 Y133.428 E3.87025
G1 X136.076 Y133.73 E3.90144
G1 X135.165 Y133.954 E3.93264
G1 X134.239 Y134.1 E3.96382
G1 X133.299 Y134.167 E3.99517
G1 X132.67 Y134.18 E4.01609
G1 X128.514 Y134.18 E4.15432
G1 X126.019 Y134.252 E4.23734
G1 X123.503 Y134.394 E4.32116
G1 X120.996 Y134.608 E4.40484
G1 X118.502 Y134.892 E4.48833
G1 X115.926 Y135.259 E4.57487
G1 X113.15 Y135.702 E4.66837
G1 X112.214 Y135.811 E4.69971
G1 X111.184 Y135.886 E4.73406
G1 X110.27 Y135.914 E4.76448
G1 X109.506 Y135.906 E4.78989
G1 X109.053 Y135.892 E4.80496
G1 X108.26 Y135.851 E4.83137
G1 X107.339 Y135.765 E4.86214
G1 X106.329 Y135.627 E4.89604
G1 X105.436 Y135.467 E4.92622
G1 X103.08 Y134.944 E5.00649
G1 X102.906 Y134.914 E5.01236
G1 X102.014 Y134.712 E5.04278
G1 X99.522 Y134.223 E5.12724
G1 X97.049 Y133.809 E5.21064
G1 X94.57 Y133.466 E5.29388
G1 X92.033 Y133.188 E5.37876
G1 X89.555 Y132.987 E5.46145
G1 X88.272 Y132.902 E5.50422
G1 X87.713 Y132.851 E5.52289
G1 X86.784 Y132.718 E5.5541
G1 X85.794 Y132.485 E5.58793
G1 X85.365 Y132.363 E5.60276
G1 X84.475 Y132.069 E5.63394
G1 X83.613 Y131.699 E5.66514
G1 X82.785 Y131.258 E5.69634
G1 X82.135 Y130.842 E5.72201
G1 X81.878 Y130.665 E5.73239
G1 X81.129 Y130.101 E5.76357
G1 X80.211 Y129.254 E5.80511
G1 X79.914 Y128.947 E5.81932
G1 X79.291 Y128.246 E5.85051
G1 X78.731 Y127.494 E5.8817
G1 X78.236 Y126.698 E5.91288
G1 X77.875 Y126 E5.93901
G1 X77.693 Y125.615 E5.95318
G1 X77.329 Y124.751 E5.98436
G1 X77.04 Y123.859 E6.01555
G1 X76.768 Y122.603 E6.05829
G1 X76.706 Y122.204 E6.07172
G1 X76.602 Y121.272 E6.10291
G1 X76.578 Y120.715 E6.12145
G1 X76.567 Y120.019 E6.1446
G1 X76.569 Y105.017 E6.64357
G0 F6000 X76.969 Y105.023
G1 F1200 X76.977 Y104.444 E6.66283
G1 X77.036 Y103.464 E6.69549
G1 X77.08 Y103.052 E6.70927
G1 X77.217 Y102.142 E6.73988
G1 X77.59 Y100.729 E6.78848
G1 X77.971 Y99.732 E6.82398
G1 X78.481 Y98.709 E6.862
G1 X78.648 Y98.415 E6.87325
G1 X79.137 Y97.635 E6.90387
G1 X79.692 Y96.9 E6.9345
G1 X80.22 Y96.304 E6.96098
G1 X80.871 Y95.654 E6.99158
G1 X81.752 Y94.932 E7.02946
G1 X82.064 Y94.703 E7.04234
G1 X82.829 Y94.191 E7.07295
G1 X83.636 Y93.747 E7.10359
G1 X84.256 Y93.465 E7.12624
G1 X84.503 Y93.362 E7.13514
G1 X85.298 Y93.067 E7.16335
G1 X87.498 Y92.35 E7.24031
G1 X89.934 Y91.485 E7.32629
G1 X92.251 Y90.589 E7.40891
G1 X94.61 Y89.598 E7.49401
G1 X96.901 Y88.559 E7.57768
G1 X99.169 Y87.452 E7.66162
G1 X99.965 Y87.034 E7.69153
G1 X101.106 Y86.453 E7.73411
G1 X101.944 Y86.071 E7.76474
G1 X102.812 Y85.764 E7.79537
G1 X103.703 Y85.533 E7.82598
G1 X104.611 Y85.38 E7.85661
G1 X105.702 Y85.301 E7.89299
G1 X106.957 Y85.278 E7.93474
G1 X113.293 Y85.278 E8.14547
G1 X114.218 Y85.29 E8.17624
G1 X115.137 Y85.343 E8.20686
G1 X116.048 Y85.476 E8.23748
G1 X116.944 Y85.687 E8.2681
G1 X117.818 Y85.975 E8.2987
G1 X118.903 Y86.456 E8.33818
G1 X121.552 Y87.814 E8.43719
G1 X123.778 Y88.875 E8.5192
G1 X126.128 Y89.913 E8.60465
G1 X128.475 Y90.873 E8.68899
G1 X130.801 Y91.747 E8.77163
G1 X133.656 Y92.723 E8.87199
G1 X134.809 Y93.097 E8.9123
G1 X135.672 Y93.419 E8.94294
G1 X136.503 Y93.814 E8.97354
G1 X137.08 Y94.143 E8.99563
G1 X137.457 Y94.374 E9.01034
G1 X138.22 Y94.888 E9.04094
G1 X138.936 Y95.467 E9.07156
G1 X139.599 Y96.106 E9.10219
G1 X139.952 Y96.496 E9.11968
G1 X140.249 Y96.841 E9.13483
G1 X140.819 Y97.565 E9.16547
G1 X141.324 Y98.334 E9.19607
G1 X141.76 Y99.145 E9.2267
G1 X142.025 Y99.738 E9.2483
G1 X142.177 Y100.109 E9.26164
G1 X142.488 Y100.976 E9.29227
G1 X142.724 Y101.866 E9.3229
G1 X142.832 Y102.438 E9.34226
G1 X142.889 Y102.791 E9.35415
G1 X142.997 Y103.706 E9.38479
G1 X143.021 Y104.182 E9.40065
G1 X143.035 Y104.839 E9.4225
G1 X143.033 Y110.756 E9.6193
G1 X143.069 Y113.347 E9.70549
G1 X143.176 Y115.89 E9.79014
G1 X143.355 Y118.436 E9.87503
G1 X143.546 Y120.509 E9.94427
G1 X143.587 Y121.244 E9.96876
G1 X143.6 Y122.007 E9.99414
G1 X143.591 Y123.248 E10.03542
G1 X143.544 Y124.167 E10.06602
G1 X143.418 Y125.079 E10.09664
G1 X143.213 Y125.977 E10.12728
G1 X142.931 Y126.853 E10.15789
G1 X142.574 Y127.702 E10.18852
G1 X142.145 Y128.516 E10.21912
G1 X141.646 Y129.29 E10.24975
G1 X141.083 Y130.018 E10.28036
G1 X140.458 Y130.695 E10.31101
G1 X139.777 Y131.314 E10.34162
G1 X139.045 Y131.872 E10.37223
G1 X138.267 Y132.365 E10.40286
G1 X137.449 Y132.788 E10.43349
G1 X136.598 Y133.138 E10.4641
G1 X135.719 Y133.414 E10.49474
G1 X134.82 Y133.612 E10.52536
G1 X133.907 Y133.731 E10.55598
G1 X133.288 Y133.767 E10.57661
G1 X132.67 Y133.78 E10.59716
G1 X128.538 Y133.78 E10.7346
G1 X125.986 Y133.853 E10.81951
G1 X123.481 Y133.995 E10.90296
G1 X120.953 Y134.21 E10.98735
G1 X118.437 Y134.497 E11.07157
G1 X115.864 Y134.864 E11.15802
G1 X113.087 Y135.307 E11.25155
G1 X112.185 Y135.412 E11.28175
G1 X111.155 Y135.487 E11.3161
G1 X110.274 Y135.514 E11.34541
G1 X109.51 Y135.506 E11.37083
G1 X109.074 Y135.493 E11.38533
G1 X108.281 Y135.452 E11.41174
G1 X107.393 Y135.368 E11.44141
G1 X106.383 Y135.23 E11.47532
G1 X105.523 Y135.076 E11.50438
G1 X103.265 Y134.575 E11.5813
G1 X102.994 Y134.524 E11.59047
G1 X102.074 Y134.316 E11.62185
G1 X99.628 Y133.836 E11.70475
G1 X97.099 Y133.412 E11.79004
G1 X94.598 Y133.066 E11.87402
G1 X92.076 Y132.79 E11.9584
G1 X89.57 Y132.587 E12.04202
G1 X88.3 Y132.503 E12.08436
G1 X87.752 Y132.453 E12.10266
G1 X86.841 Y132.322 E12.13327
G1 X85.904 Y132.101 E12.16529
G1 X85.475 Y131.979 E12.18012
G1 X84.601 Y131.689 E12.21075
G1 X83.755 Y131.324 E12.2414
G1 X82.945 Y130.887 E12.27201
G1 X82.362 Y130.513 E12.29505
G1 X82.105 Y130.336 E12.30542
G1 X81.37 Y129.781 E12.33606
G1 X80.499 Y128.976 E12.3755
G1 X80.202 Y128.669 E12.38971
G1 X79.591 Y127.98 E12.42034
G1 X79.042 Y127.241 E12.45096
G1 X78.56 Y126.457 E12.48157
G1 X78.237 Y125.829 E12.50506
G1 X78.055 Y125.444 E12.51922
G1 X77.698 Y124.596 E12.54982
G1 X77.416 Y123.719 E12.58046
G1 X77.164 Y122.542 E12.6205
G1 X77.102 Y122.143 E12.63393
G1 X77 Y121.228 E12.66455
G1 X76.978 Y120.708 E12.68186
G1 X76.967 Y120.019 E12.70478
G1 X76.969 Y105.023 E13.20355
G0 F6000 X77.369 Y105.028
G1 F1200 X77.377 Y104.449 E13.22281
G1 X77.434 Y103.507 E13.2542
G1 X77.478 Y103.095 E13.26798
G1 X77.613 Y102.202 E13.29802
G1 X77.969 Y100.853 E13.34442
G1 X78.345 Y99.875 E13.37927
G1 X78.829 Y98.906 E13.4153
G1 X78.996 Y98.612 E13.42654
G1 X79.476 Y97.847 E13.45658
G1 X80.022 Y97.128 E13.48661
G1 X80.514 Y96.575 E13.51123
G1 X81.154 Y95.938 E13.54126
G1 X81.989 Y95.254 E13.57716
G1 X82.301 Y95.025 E13.59003
G1 X83.052 Y94.524 E13.62006
G1 X83.844 Y94.09 E13.6501
G1 X84.41 Y93.834 E13.67076
G1 X84.657 Y93.731 E13.67966
G1 X85.422 Y93.447 E13.7068
G1 X87.641 Y92.724 E13.78442
G1 X90.064 Y91.864 E13.86994
G1 X92.413 Y90.955 E13.95371
G1 X94.765 Y89.967 E14.03856
G1 X97.063 Y88.924 E14.1225
G1 X99.352 Y87.807 E14.20721
G1 X100.028 Y87.452 E14.23261
G1 X101.288 Y86.81 E14.27964
G1 X102.11 Y86.436 E14.30968
G1 X102.962 Y86.136 E14.33972
G1 X103.837 Y85.913 E14.36975
G1 X104.728 Y85.768 E14.39978
G1 X105.71 Y85.701 E14.43252
G1 X106.957 Y85.678 E14.474
G1 X113.293 Y85.678 E14.68473
G1 X114.212 Y85.69 E14.7153
G1 X115.114 Y85.743 E14.74535
G1 X116.007 Y85.875 E14.77538
G1 X116.885 Y86.086 E14.80541
G1 X117.741 Y86.374 E14.83545
G1 X118.72 Y86.812 E14.87112
G1 X121.363 Y88.167 E14.96991
G1 X123.623 Y89.244 E15.05318
G1 X125.951 Y90.273 E15.13783
G1 X128.332 Y91.246 E15.22338
G1 X130.696 Y92.135 E15.30738
G1 X133.511 Y93.097 E15.40633
G1 X134.686 Y93.478 E15.44741
G1 X135.532 Y93.794 E15.47745
G1 X136.347 Y94.183 E15.50749
G1 X136.871 Y94.484 E15.52758
G1 X137.248 Y94.715 E15.54229
G1 X137.996 Y95.22 E15.57231
G1 X138.697 Y95.79 E15.60236
G1 X139.345 Y96.419 E15.63239
G1 X139.946 Y97.102 E15.66265
G1 X140.504 Y97.812 E15.69269
G1 X140.998 Y98.569 E15.72275
G1 X141.422 Y99.366 E15.75278
G1 X141.655 Y99.89 E15.77185
G1 X141.807 Y100.261 E15.78519
G1 X142.112 Y101.111 E15.81522
G1 X142.34 Y101.985 E15.84527
G1 X142.438 Y102.502 E15.86277
G1 X142.495 Y102.855 E15.87466
G1 X142.621 Y104.193 E15.91936
G1 X142.635 Y104.838 E15.94082
G1 X142.633 Y110.761 E16.13782
G1 X142.669 Y113.37 E16.2246
G1 X142.775 Y115.899 E16.30879
G1 X142.959 Y118.498 E16.39545
G1 X143.147 Y120.545 E16.46382
G1 X143.187 Y121.253 E16.48741
G1 X143.2 Y122.004 E16.51239
G1 X143.191 Y123.245 E16.55366
G1 X143.144 Y124.147 E16.58371
G1 X143.018 Y125.041 E16.61373
G1 X142.813 Y125.921 E16.64379
G1 X142.532 Y126.779 E16.67382
G1 X142.175 Y127.609 E16.70387
G1 X141.747 Y128.403 E16.73387
G1 X141.249 Y129.157 E16.76392
G1 X140.688 Y129.864 E16.79394
G1 X140.065 Y130.519 E16.82401
G1 X139.388 Y131.116 E16.85403
G1 X138.66 Y131.651 E16.88408
G1 X137.888 Y132.119 E16.9141
G1 X137.077 Y132.517 E16.94415
G1 X136.234 Y132.842 E16.9742
G1 X135.366 Y133.091 E17.00423
G1 X134.479 Y133.262 E17.03428
G1 X133.277 Y133.367 E17.07441
G1 X132.67 Y133.38 E17.0946
G1 X128.526 Y133.38 E17.23243
G1 X125.987 Y133.453 E17.31692
G1 X123.425 Y133.598 E17.40227
G1 X120.91 Y133.812 E17.48622
G1 X118.402 Y134.098 E17.57017
G1 X115.809 Y134.467 E17.65729
G1 X113.024 Y134.912 E17.75109
G1 X112.156 Y135.013 E17.78016
G1 X111.126 Y135.088 E17.8145
G1 X110.278 Y135.114 E17.84272
G1 X109.514 Y135.106 E17.86813
G1 X109.094 Y135.093 E17.88211
G1 X108.301 Y135.052 E17.90852
G1 X107.447 Y134.972 E17.93705
G1 X106.437 Y134.834 E17.97095
G1 X105.609 Y134.686 E17.99893
G1 X103.216 Y134.155 E18.08046
G1 X103.082 Y134.134 E18.08497
G1 X102.167 Y133.927 E18.11617
G1 X99.665 Y133.436 E18.20097
G1 X97.187 Y133.021 E18.28454
G1 X94.624 Y132.666 E18.3706
G1 X92.147 Y132.395 E18.45348
G1 X89.59 Y132.188 E18.5388
G1 X88.329 Y132.105 E18.58083
G1 X87.792 Y132.055 E18.59877
G1 X86.898 Y131.926 E18.62881
G1 X86.013 Y131.716 E18.65907
G1 X85.584 Y131.594 E18.6739
G1 X84.727 Y131.309 E18.70394
G1 X83.899 Y130.949 E18.73397
G1 X83.106 Y130.517 E18.764
G1 X82.588 Y130.183 E18.7845
G1 X82.331 Y130.006 E18.79488
G1 X81.611 Y129.462 E18.8249
G1 X80.786 Y128.698 E18.8623
G1 X80.489 Y128.391 E18.8765
G1 X79.891 Y127.715 E18.90652
G1 X79.354 Y126.988 E18.93658
G1 X78.884 Y126.217 E18.96662
G1 X78.598 Y125.658 E18.9875
G1 X78.416 Y125.273 E19.00166
G1 X78.067 Y124.441 E19.03167
G1 X77.793 Y123.58 E19.06172
G1 X77.559 Y122.48 E19.09913
G1 X77.497 Y122.081 E19.11256
G1 X77.398 Y121.184 E19.14257
G1 X77.378 Y120.7 E19.15869
G1 X77.367 Y120.019 E19.18134
G1 X77.369 Y105.028 E19.67994
G1 F1500 E13.17994
G0 F6000 X87.241 Y121.67
G0 X87.619 Y122.08
G0 X88.071 Y122.397
G0 X88.934 Y122.599
G0 X108.776 Y125.538
G0 X110.408 Y125.589
G0 X111.329 Y125.504
G0 X130.499 Y122.937
G1 F1500 E19.67994
G1 F1200 X131.065 Y122.937 E19.69877
G1 X131.716 Y122.849 E19.72062
G1 X132.309 Y122.552 E19.74268
G1 X132.681 Y122.261 E19.75838
G1 X132.8 Y122.125 E19.76439
G1 X132.8 Y122.98 E19.79283
G1 X130.575 Y122.98 E19.86684
G1 X130.499 Y122.937 E19.86974
G1 F1500 E13.36974
;MESH:holder.stl
G0 F6000 X111.138 Y114.363
G0 X109.052 Y114.286
;TYPE:WALL-INNER
G1 F1500 E19.86974
G1 F1200 X108.535 Y113.876 E19.89169
G1 X108.182 Y113.369 E19.91223
G1 X108.084 Y113.128 E19.92089
G1 X107.985 Y112.478 E19.94276
G1 X108.011 Y112.213 E19.95161
G1 X108.151 Y111.746 E19.96783
G1 X108.212 Y111.603 E19.973
G1 X108.518 Y111.14 E19.99146
G1 X108.974 Y110.771 E20.01097
G1 X109.54 Y110.541 E20.03129
G1 X109.816 Y110.498 E20.04058
G1 X110.438 Y110.541 E20.06132
G1 X110.992 Y110.749 E20.081
G1 X111.473 Y111.129 E20.10139
G1 X111.822 Y111.642 E20.12202
G1 X111.93 Y111.961 E20.13322
G1 X112.01 Y112.522 E20.15207
G1 X111.997 Y112.775 E20.1605
G1 X111.805 Y113.385 E20.18177
G1 X111.479 Y113.865 E20.20107
G1 X111.025 Y114.229 E20.22042
G1 X110.476 Y114.454 E20.24015
G1 X109.858 Y114.508 E20.26079
G1 X109.317 Y114.385 E20.27924
G1 X109.052 Y114.286 E20.28865
G0 F6000 X108.187 Y113.143
G0 X108.483 Y113.098
G1 F1200 X108.375 Y112.388 E20.31254
G1 X108.529 Y111.876 E20.33032
G1 X108.566 Y111.79 E20.33343
G1 X108.816 Y111.413 E20.34848
G1 X109.189 Y111.113 E20.3644
G1 X109.757 Y110.89 E20.38469
G1 X110.347 Y110.933 E20.40437
G1 X110.797 Y111.104 E20.42038
G1 X111.175 Y111.405 E20.43645
G1 X111.519 Y111.918 E20.457
G1 X111.621 Y112.614 E20.48039
G1 X111.455 Y113.181 E20.50004
G1 X111.196 Y113.571 E20.51561
G1 X110.818 Y113.884 E20.53194
G1 X110.377 Y114.062 E20.54775
G1 X109.888 Y114.104 E20.56408
G1 X109.292 Y113.966 E20.58443
G1 X108.83 Y113.601 E20.60401
G1 X108.483 Y113.098 E20.62433
G0 F6000 X108.865 Y112.946
;TYPE:WALL-OUTER
G1 F1200 X108.784 Y112.414 E20.64223
G1 X108.92 Y111.977 E20.65745
G1 X109.115 Y111.689 E20.66902
G1 X109.39 Y111.466 E20.6808
G1 X109.812 Y111.295 E20.69594
