;FLAVOR:Marlin
;TIME:6507
;Filament used: 3.2819m
;Layer height: 0.2
;MINX:75.502
;MINY:94.07
;MINZ:0.2
;MAXX:144.46
;MAXY:123.063
;MAXZ:45.2
;Generated with Cura_SteamEngine main
M82 ;absolute extrusion mode
; Ender 3 Custom Start G-code
G92 E0 ; Reset Extruder
G28 ; Home all axes
M104 S175 ; Start heating up the nozzle most of the way
M190 S60 ; Start heating the bed, wait until target temperature reached
M109 S195.0 ; Finish heating the nozzle
G1 Z2.0 F3000 ; Move Z Axis up little to prevent scratching of Heat Bed
G1 X0.1 Y20 Z0.3 F5000.0 ; Move to start position
G1 X0.1 Y200.0 Z0.3 F1500.0 E15 ; Draw the first line
G1 X0.4 Y200.0 Z0.3 F5000.0 ; Move to side a little
G1 X0.4 Y20 Z0.3 F1500.0 E30 ; Draw the second line
G92 E0 ; Reset Extruder
G1 Z2.0 F3000 ; Move Z Axis up little to prevent scratching of Heat Bed
G1 X5 Y20 Z0.3 F5000.0 ; Move over to prevent blob squish
G92 E0
G92 E0
G1 F1500 E-6.5
;LAYER_COUNT:226
;LAYER:0
M107
G0 F6000 X81.025 Y97.198 Z0.2
G0 X75.502 Y108.046
;TYPE:SKIRT
G1 F1500 E0
G1 F1200 X75.588 Y106.988 E0.03531
G1 X75.631 Y106.644 E0.04684
G1 X75.827 Y105.536 E0.08426
G1 X75.955 Y104.981 E0.1032
G1 X76.205 Y104.077 E0.1344
G1 X76.634 Y102.959 E0.17423
G1 X76.839 Y102.501 E0.19092
G1 X77.323 Y101.547 E0.2265
G1 X77.579 Y101.098 E0.24369
G1 X78.078 Y100.303 E0.27491
G1 X78.851 Y99.309 E0.31679
G1 X79.176 Y98.937 E0.33322
G1 X79.905 Y98.179 E0.3682
G1 X80.178 Y97.921 E0.38069
G1 X81.025 Y97.198 E0.41773
G1 X81.281 Y97.001 E0.42847
G1 X82.114 Y96.419 E0.46227
G1 X82.41 Y96.232 E0.47392
G1 X83.374 Y95.689 E0.51072
G1 X83.841 Y95.456 E0.52807
G1 X84.697 Y95.074 E0.55925
G1 X85.838 Y94.692 E0.59927
G1 X86.395 Y94.539 E0.61848
G1 X87.698 Y94.265 E0.66277
G1 X88.029 Y94.216 E0.6739
G1 X89.134 Y94.109 E0.71082
G1 X89.503 Y94.092 E0.72311
G1 X90.55 Y94.089 E0.75793
G1 X91.611 Y94.178 E0.79334
G1 X92.078 Y94.238 E0.809
G1 X92.739 Y94.343 E0.83127
G1 X93.176 Y94.426 E0.84606
G1 X95.753 Y94.88 E0.93309
G1 X98.237 Y95.245 E1.0166
G1 X100.747 Y95.542 E1.10066
G1 X103.245 Y95.766 E1.18408
G1 X105.742 Y95.919 E1.26729
G1 X108.263 Y96.002 E1.35118
G1 X110.786 Y96.012 E1.4351
G1 X113.312 Y95.952 E1.51913
G1 X115.794 Y95.823 E1.6018
G1 X118.343 Y95.618 E1.68685
G1 X120.832 Y95.346 E1.77013
G1 X123.327 Y95.003 E1.85389
G1 X125.837 Y94.584 E1.93853
G1 X126.713 Y94.418 E1.96819
G1 X127.879 Y94.22 E2.00752
G1 X128.81 Y94.103 E2.03873
G1 X130.038 Y94.07 E2.07959
G1 X130.766 Y94.091 E2.10381
G1 X131.702 Y94.158 E2.13502
G1 X132.954 Y94.375 E2.17729
G1 X133.403 Y94.48 E2.19262
G1 X134.364 Y94.751 E2.22583
G1 X134.879 Y94.922 E2.24388
G1 X135.756 Y95.256 E2.27509
G1 X136.855 Y95.802 E2.31591
G1 X137.44 Y96.135 E2.3383
G1 X138.234 Y96.634 E2.36949
G1 X139.261 Y97.434 E2.41279
G1 X139.683 Y97.805 E2.43148
G1 X140.42 Y98.516 E2.46554
G1 X140.739 Y98.854 E2.48099
G1 X141.353 Y99.563 E2.51219
G1 X142.062 Y100.566 E2.55304
G1 X142.335 Y101.002 E2.57015
G1 X142.851 Y101.921 E2.60521
G1 X143.003 Y102.225 E2.61651
G1 X143.434 Y103.205 E2.65212
G1 X143.602 Y103.643 E2.66772
G1 X144.04 Y105.041 E2.71645
G1 X144.24 Y106.018 E2.74962
G1 X144.321 Y106.513 E2.7663
G1 X144.432 Y107.444 E2.79748
G1 X144.46 Y108.622 E2.83668
G1 X144.44 Y109.283 E2.85867
G1 X144.309 Y110.699 E2.90597
G1 X144.145 Y111.569 E2.93541
G1 X144.047 Y112.004 E2.95025
G1 X143.802 Y112.909 E2.98143
G1 X143.624 Y113.425 E2.99958
G1 X143.478 Y113.817 E3.0135
G1 X143.114 Y114.681 E3.04468
G1 X142.716 Y115.444 E3.0733
G1 X142.448 Y115.912 E3.09124
G1 X141.89 Y116.787 E3.12576
G1 X141.66 Y117.113 E3.13903
G1 X140.767 Y118.227 E3.18651
G1 X140.092 Y118.916 E3.21859
G1 X139.834 Y119.16 E3.2304
G1 X138.977 Y119.892 E3.26789
G1 X138.494 Y120.263 E3.28815
G1 X137.726 Y120.802 E3.31935
G1 X136.647 Y121.41 E3.36055
G1 X136.163 Y121.648 E3.37849
G1 X135.011 Y122.135 E3.42009
G1 X134.692 Y122.249 E3.43135
G1 X133.678 Y122.557 E3.4666
G1 X133.432 Y122.619 E3.47504
G1 X132.597 Y122.796 E3.50343
G1 X132.205 Y122.863 E3.51665
G1 X131.056 Y122.997 E3.55513
G1 X130.791 Y123.014 E3.56396
G1 X129.775 Y123.033 E3.59776
G1 X129.317 Y123.02 E3.613
G1 X127.985 Y122.9 E3.65748
G1 X127.356 Y122.801 E3.67866
G1 X124.673 Y122.314 E3.76935
G1 X122.16 Y121.932 E3.8539
G1 X119.702 Y121.629 E3.93627
G1 X117.18 Y121.39 E4.02053
G1 X114.664 Y121.223 E4.10439
G1 X112.142 Y121.127 E4.18834
G1 X109.654 Y121.104 E4.27109
G1 X107.131 Y121.151 E4.35502
G1 X104.609 Y121.27 E4.439
G1 X102.082 Y121.46 E4.52328
G1 X99.585 Y121.72 E4.60678
G1 X97.103 Y122.049 E4.69005
G1 X94.637 Y122.447 E4.77314
G1 X93.883 Y122.592 E4.79867
G1 X92.485 Y122.842 E4.84591
G1 X91.381 Y122.983 E4.88293
G1 X90.721 Y123.033 E4.90494
G1 X89.784 Y123.063 E4.93612
G1 X88.5 Y122.976 E4.97893
G1 X87.88 Y122.897 E4.99971
G1 X86.512 Y122.638 E5.04602
G1 X85.614 Y122.378 E5.07712
G1 X85.118 Y122.214 E5.09449
G1 X84.241 Y121.882 E5.12568
G1 X83.085 Y121.304 E5.16867
G1 X82.614 Y121.033 E5.18674
G1 X81.706 Y120.45 E5.22263
G1 X81.461 Y120.275 E5.23264
G1 X80.633 Y119.621 E5.26774
G1 X80.355 Y119.379 E5.28
G1 X79.581 Y118.636 E5.31568
G1 X79.342 Y118.383 E5.32726
G1 X78.647 Y117.572 E5.36278
G1 X78.429 Y117.291 E5.37461
G1 X77.799 Y116.39 E5.41118
G1 X77.532 Y115.964 E5.4279
G1 X77.069 Y115.149 E5.45907
G1 X76.575 Y114.04 E5.49945
G1 X76.36 Y113.476 E5.51953
G1 X75.957 Y112.187 E5.56445
G1 X75.878 Y111.866 E5.57544
G1 X75.663 Y110.788 E5.612
G1 X75.551 Y109.761 E5.64636
G1 X75.52 Y109.302 E5.66167
G1 X75.502 Y108.046 E5.70344
G0 F6000 X75.902 Y108.062
G1 F1200 X75.985 Y107.037 E5.73765
G1 X76.028 Y106.693 E5.74918
G1 X76.217 Y105.626 E5.78522
G1 X76.345 Y105.071 E5.80416
G1 X76.591 Y104.184 E5.83478
G1 X76.999 Y103.122 E5.87262
G1 X77.204 Y102.664 E5.88931
G1 X77.671 Y101.745 E5.92359
G1 X77.927 Y101.296 E5.94078
G1 X78.417 Y100.517 E5.97139
G1 X79.152 Y99.572 E6.01121
G1 X79.477 Y99.2 E6.02764
G1 X80.179 Y98.47 E6.06133
G1 X80.452 Y98.212 E6.07382
G1 X81.268 Y97.515 E6.10951
G1 X81.524 Y97.318 E6.12026
G1 X82.328 Y96.758 E6.15285
G1 X82.624 Y96.571 E6.16449
G1 X83.553 Y96.047 E6.19997
G1 X84.02 Y95.814 E6.21732
G1 X84.861 Y95.439 E6.24795
G1 X85.944 Y95.078 E6.28592
G1 X86.501 Y94.925 E6.30513
G1 X87.757 Y94.66 E6.34783
G1 X88.088 Y94.611 E6.35896
G1 X89.152 Y94.508 E6.39451
G1 X89.521 Y94.491 E6.4068
G1 X90.534 Y94.488 E6.44049
G1 X91.56 Y94.574 E6.47473
G1 X92.027 Y94.634 E6.49039
G1 X92.664 Y94.736 E6.51185
G1 X93.097 Y94.819 E6.52651
G1 X95.697 Y95.276 E6.61432
G1 X98.168 Y95.64 E6.69739
G1 X100.701 Y95.939 E6.78222
G1 X103.221 Y96.165 E6.86637
G1 X105.738 Y96.319 E6.95024
G1 X108.249 Y96.402 E7.03381
G1 X110.794 Y96.412 E7.11845
G1 X113.305 Y96.353 E7.20199
G1 X115.848 Y96.221 E7.28669
G1 X118.386 Y96.016 E7.37138
G1 X120.854 Y95.747 E7.45395
G1 X123.381 Y95.399 E7.53879
G1 X125.892 Y94.98 E7.62346
G1 X126.56 Y94.852 E7.64608
G1 X127.946 Y94.615 E7.69285
G1 X128.86 Y94.5 E7.72349
G1 X130.027 Y94.469 E7.76232
G1 X130.755 Y94.49 E7.78654
G1 X131.673 Y94.557 E7.81716
G1 X132.863 Y94.764 E7.85733
G1 X133.312 Y94.869 E7.87267
G1 X134.238 Y95.131 E7.90468
G1 X134.753 Y95.302 E7.92272
G1 X135.614 Y95.63 E7.95337
G1 X136.657 Y96.15 E7.99213
G1 X137.242 Y96.483 E8.01452
G1 X138.021 Y96.973 E8.04513
G1 X138.997 Y97.734 E8.08629
G1 X139.419 Y98.105 E8.10498
G1 X140.129 Y98.79 E8.13779
G1 X140.448 Y99.128 E8.15325
G1 X141.05 Y99.825 E8.18388
G1 X141.723 Y100.779 E8.22272
G1 X141.996 Y101.215 E8.23983
G1 X142.493 Y102.1 E8.27358
G1 X142.645 Y102.404 E8.28489
G1 X143.061 Y103.348 E8.3192
G1 X143.229 Y103.786 E8.3348
G1 X143.652 Y105.137 E8.38189
G1 X143.845 Y106.082 E8.41397
G1 X143.926 Y106.577 E8.43065
G1 X144.035 Y107.491 E8.46127
G1 X144.06 Y108.61 E8.49849
G1 X144.04 Y109.271 E8.52049
G1 X143.914 Y110.638 E8.56615
G1 X143.755 Y111.481 E8.59468
G1 X143.657 Y111.916 E8.60951
G1 X143.416 Y112.804 E8.64011
G1 X143.249 Y113.286 E8.65708
G1 X143.103 Y113.678 E8.67099
G1 X142.745 Y114.526 E8.70161
G1 X142.369 Y115.246 E8.72862
G1 X142.101 Y115.714 E8.74656
G1 X141.563 Y116.557 E8.77982
G1 X141.333 Y116.883 E8.79309
G1 X140.47 Y117.959 E8.83897
G1 X139.817 Y118.625 E8.86999
G1 X139.559 Y118.869 E8.8818
G1 X138.733 Y119.574 E8.91792
G1 X138.25 Y119.945 E8.93818
G1 X137.496 Y120.474 E8.96881
G1 X136.47 Y121.051 E9.00796
G1 X135.986 Y121.289 E9.0259
G1 X134.876 Y121.759 E9.066
G1 X134.557 Y121.873 E9.07726
G1 X133.581 Y122.17 E9.11119
G1 X133.335 Y122.232 E9.11963
G1 X132.53 Y122.401 E9.14699
G1 X132.138 Y122.468 E9.16022
G1 X131.031 Y122.598 E9.19729
G1 X130.766 Y122.615 E9.20612
G1 X129.786 Y122.633 E9.23872
G1 X129.328 Y122.62 E9.25396
G1 X128.045 Y122.505 E9.2968
G1 X127.427 Y122.407 E9.31762
G1 X124.732 Y121.918 E9.40872
G1 X122.232 Y121.538 E9.49282
G1 X119.756 Y121.232 E9.5758
G1 X117.207 Y120.991 E9.66096
G1 X114.669 Y120.822 E9.74556
G1 X112.196 Y120.729 E9.82787
G1 X109.615 Y120.704 E9.91372
G1 X107.104 Y120.751 E9.99725
G1 X104.596 Y120.869 E10.08076
G1 X102.044 Y121.062 E10.16588
G1 X99.561 Y121.32 E10.24891
G1 X97.023 Y121.656 E10.33406
G1 X94.563 Y122.054 E10.41694
G1 X93.674 Y122.224 E10.44705
G1 X92.415 Y122.449 E10.48959
G1 X91.351 Y122.584 E10.52526
G1 X90.691 Y122.634 E10.54727
G1 X89.771 Y122.663 E10.57789
G1 X88.55 Y122.579 E10.61859
G1 X87.93 Y122.5 E10.63938
G1 X86.608 Y122.251 E10.68413
G1 X85.739 Y121.998 E10.71423
G1 X85.243 Y121.834 E10.7316
G1 X84.383 Y121.507 E10.76221
G1 X83.285 Y120.958 E10.80304
G1 X82.814 Y120.687 E10.82111
G1 X81.939 Y120.125 E10.8557
G1 X81.694 Y119.95 E10.86571
G1 X80.895 Y119.319 E10.89957
G1 X80.617 Y119.077 E10.91183
G1 X79.872 Y118.361 E10.9462
G1 X79.633 Y118.108 E10.95778
G1 X78.963 Y117.326 E10.99203
G1 X78.745 Y117.045 E11.00386
G1 X78.138 Y116.177 E11.03908
G1 X77.871 Y115.751 E11.05581
G1 X77.417 Y114.951 E11.0864
G1 X76.948 Y113.898 E11.12474
G1 X76.733 Y113.334 E11.14482
G1 X76.345 Y112.091 E11.18813
G1 X76.266 Y111.77 E11.19912
G1 X76.058 Y110.727 E11.23449
G1 X75.95 Y109.734 E11.26772
G1 X75.919 Y109.275 E11.28302
G1 X75.902 Y108.062 E11.32337
G0 F6000 X76.301 Y108.076
G1 F1200 X76.382 Y107.087 E11.35637
G1 X76.425 Y106.743 E11.3679
G1 X76.607 Y105.716 E11.40259
G1 X76.735 Y105.161 E11.42153
G1 X76.977 Y104.291 E11.45157
G1 X77.364 Y103.286 E11.48739
G1 X77.569 Y102.828 E11.50408
G1 X78.018 Y101.943 E11.53708
G1 X78.274 Y101.494 E11.55428
G1 X78.756 Y100.73 E11.58432
G1 X79.454 Y99.835 E11.62207
G1 X79.779 Y99.463 E11.6385
G1 X80.454 Y98.761 E11.67089
G1 X80.727 Y98.503 E11.68339
G1 X81.512 Y97.832 E11.71773
G1 X81.768 Y97.635 E11.72848
G1 X82.541 Y97.096 E11.75982
G1 X82.837 Y96.909 E11.77146
G1 X83.731 Y96.405 E11.8056
G1 X84.198 Y96.172 E11.82296
G1 X85.023 Y95.805 E11.85299
G1 X86.05 Y95.463 E11.88899
G1 X86.607 Y95.31 E11.9082
G1 X87.815 Y95.056 E11.94926
G1 X88.146 Y95.007 E11.96039
G1 X89.171 Y94.908 E11.99464
G1 X89.54 Y94.891 E12.00693
G1 X90.518 Y94.888 E12.03945
G1 X91.509 Y94.971 E12.07253
G1 X91.976 Y95.031 E12.08819
G1 X92.589 Y95.129 E12.10884
G1 X93.03 Y95.213 E12.12377
G1 X95.635 Y95.672 E12.21175
G1 X98.135 Y96.039 E12.29579
G1 X100.651 Y96.337 E12.38006
G1 X103.162 Y96.562 E12.46391
G1 X105.738 Y96.719 E12.54974
G1 X108.233 Y96.802 E12.63277
G1 X110.802 Y96.812 E12.71822
G1 X113.336 Y96.752 E12.80252
G1 X115.865 Y96.621 E12.88675
G1 X118.39 Y96.417 E12.97101
G1 X120.92 Y96.141 E13.05566
G1 X123.465 Y95.791 E13.1411
G1 X125.947 Y95.377 E13.22479
G1 X126.635 Y95.245 E13.24809
G1 X128.013 Y95.009 E13.29459
G1 X128.91 Y94.897 E13.32466
G1 X130.015 Y94.869 E13.36142
G1 X130.743 Y94.89 E13.38565
G1 X131.644 Y94.956 E13.41569
G1 X132.772 Y95.154 E13.45378
G1 X133.221 Y95.259 E13.46912
G1 X134.112 Y95.511 E13.49992
G1 X134.627 Y95.682 E13.51797
G1 X135.471 Y96.004 E13.54801
G1 X136.459 Y96.498 E13.58475
G1 X137.044 Y96.831 E13.60714
G1 X137.808 Y97.312 E13.63717
G1 X138.733 Y98.034 E13.6762
G1 X139.155 Y98.405 E13.69488
G1 X139.838 Y99.065 E13.72647
G1 X140.157 Y99.403 E13.74193
G1 X140.747 Y100.087 E13.77198
G1 X141.384 Y100.991 E13.80876
G1 X141.657 Y101.427 E13.82587
G1 X142.135 Y102.278 E13.85833
G1 X142.287 Y102.582 E13.86964
G1 X142.687 Y103.491 E13.90267
G1 X142.855 Y103.929 E13.91827
G1 X143.263 Y105.232 E13.96368
G1 X143.45 Y106.147 E13.99474
G1 X143.531 Y106.642 E14.01143
G1 X143.637 Y107.539 E14.04147
G1 X143.66 Y108.597 E14.07667
G1 X143.64 Y109.258 E14.09866
G1 X143.519 Y110.577 E14.14272
G1 X143.365 Y111.393 E14.17034
G1 X143.267 Y111.828 E14.18517
G1 X143.029 Y112.699 E14.2152
G1 X142.875 Y113.146 E14.23092
G1 X142.729 Y113.538 E14.24484
G1 X142.376 Y114.37 E14.2749
G1 X142.021 Y115.047 E14.30032
G1 X141.753 Y115.515 E14.31826
G1 X141.236 Y116.326 E14.35025
G1 X141.006 Y116.652 E14.36352
G1 X140.176 Y117.688 E14.40767
G1 X139.543 Y118.335 E14.43777
G1 X139.285 Y118.579 E14.44959
G1 X138.489 Y119.257 E14.48436
G1 X138.006 Y119.628 E14.50462
G1 X137.267 Y120.146 E14.53464
G1 X136.294 Y120.692 E14.57174
G1 X135.81 Y120.93 E14.58968
G1 X134.742 Y121.382 E14.62826
G1 X134.423 Y121.496 E14.63952
G1 X133.483 Y121.782 E14.6722
G1 X133.237 Y121.844 E14.68064
G1 X132.462 Y122.007 E14.70698
G1 X132.07 Y122.074 E14.72021
G1 X131.005 Y122.199 E14.75587
G1 X130.74 Y122.216 E14.7647
G1 X129.798 Y122.233 E14.79604
G1 X129.34 Y122.22 E14.81128
G1 X128.105 Y122.109 E14.85252
G1 X127.498 Y122.013 E14.87296
G1 X124.827 Y121.529 E14.96325
G1 X122.27 Y121.139 E15.04928
G1 X119.772 Y120.831 E15.13299
G1 X117.271 Y120.594 E15.21655
G1 X114.712 Y120.425 E15.30184
G1 X112.18 Y120.329 E15.38612
G1 X109.611 Y120.304 E15.47157
G1 X107.113 Y120.351 E15.55467
G1 X104.547 Y120.472 E15.64011
G1 X102.009 Y120.663 E15.72476
G1 X99.5 Y120.924 E15.80866
G1 X96.983 Y121.258 E15.89311
G1 X94.49 Y121.66 E15.9771
G1 X93.603 Y121.83 E16.00714
G1 X92.344 Y122.055 E16.04967
G1 X91.321 Y122.185 E16.08397
G1 X90.661 Y122.235 E16.10599
G1 X89.758 Y122.263 E16.13604
G1 X88.601 Y122.182 E16.17461
G1 X87.981 Y122.103 E16.1954
G1 X86.706 Y121.863 E16.23855
G1 X85.865 Y121.618 E16.26769
G1 X85.369 Y121.454 E16.28506
G1 X84.525 Y121.133 E16.3151
G1 X83.484 Y120.611 E16.35383
G1 X83.013 Y120.34 E16.3719
G1 X82.171 Y119.799 E16.40519
G1 X81.926 Y119.624 E16.4152
G1 X81.158 Y119.017 E16.44776
G1 X80.88 Y118.775 E16.46002
G1 X80.162 Y118.086 E16.49312
G1 X79.923 Y117.833 E16.50469
G1 X79.279 Y117.081 E16.53762
G1 X79.061 Y116.8 E16.54945
G1 X78.477 Y115.965 E16.58334
G1 X78.21 Y115.539 E16.60007
G1 X77.765 Y114.753 E16.63011
G1 X77.322 Y113.755 E16.66642
G1 X77.107 Y113.191 E16.6865
G1 X76.734 Y111.996 E16.72814
G1 X76.655 Y111.675 E16.73913
G1 X76.455 Y110.668 E16.77328
G1 X76.349 Y109.707 E16.80544
G1 X76.318 Y109.248 E16.82074
G1 X76.301 Y108.076 E16.85972
G1 F1500 E10.35972
;MESH:slider-c.stl
G0 F6000 X85.987 Y109.73
G0 X87.038 Y109.468
G0 X87.976 Y110.219
G1 F1500 E16.85972
G0 F6000 X87.801 Y110.359
;TYPE:WALL-INNER
G1 F872.7 X88.03 Y110.61 E16.87526
G1 F874.3 X88.378 Y110.892 E16.89571
G1 F872.7 X88.656 Y111.06 E16.91056
G1 X88.906 Y111.181 E16.92326
G1 F874.3 X89.178 Y111.276 E16.93642
G1 F875.9 X89.433 Y111.342 E16.94842
G1 F880.7 X89.723 Y111.383 E16.96169
G1 F874.3 X89.984 Y111.393 E16.97361
G1 F875.9 X90.259 Y111.383 E16.98615
G1 F880.7 X90.534 Y111.342 E16.99875
G1 F875.9 X90.803 Y111.271 E17.01143
G1 F877.5 X91.064 Y111.181 E17.02399
G1 F882.4 X91.335 Y111.051 E17.03758
G1 F875.9 X91.562 Y110.91 E17.04976
G1 F874.3 X91.774 Y110.757 E17.06169
G1 F872.7 X91.982 Y110.566 E17.07461
G1 X92.167 Y110.365 E17.0871
G1 F874.3 X92.336 Y110.129 E17.10035
G1 F877.5 X92.477 Y109.902 E17.11251
G1 F882.4 X92.601 Y109.637 E17.12574
G1 F877.5 X92.694 Y109.364 E17.13886
G1 F875.9 X92.757 Y109.121 E17.1503
G1 F880.7 X92.798 Y108.844 E17.16299
G1 F875.9 X92.806 Y108.601 E17.17407
G1 X92.797 Y108.29 E17.18824
G1 F880.7 X92.758 Y108.02 E17.20061
G1 F875.9 X92.682 Y107.741 E17.21378
G1 F874.3 X92.596 Y107.489 E17.22594
G1 F879.1 X92.471 Y107.228 E17.23908
G1 F877.5 X92.324 Y106.994 E17.25164
G1 F875.9 X92.171 Y106.779 E17.26367
G1 F877.5 X91.885 Y106.468 E17.28289
G1 F875.9 X91.543 Y106.218 E17.30219
G1 F877.5 X91.319 Y106.08 E17.31416
G1 F880.7 X91.038 Y105.95 E17.32819
G1 F875.9 X90.777 Y105.86 E17.34077
G1 X90.381 Y105.767 E17.3593
G1 F879.1 X89.992 Y105.745 E17.37699
G1 F877.5 X89.565 Y105.77 E17.39645
